app/src/main/assets/lut_presets/#U4e4c#U6258#U90a6.cube
TITLE "Generated by Resolve (33)"
# Resampled from 65 to 33 by scripts/resample_cube_luts.py
# Source: 乌托邦.cube
LUT_3D_SIZE 33
0.008896 0.034134 0.043015
0.013275 0.033722 0.042649
0.029480 0.030762 0.043305
0.050507 0.027375 0.039429
0.072694 0.023728 0.035050
0.093217 0.019974 0.030091
0.113603 0.015610 0.024918
0.132509 0.012650 0.019837
0.151156 0.011322 0.015549
0.173114 0.010162 0.011872
0.194263 0.008911 0.009323
0.215488 0.007721 0.008072
0.237537 0.006851 0.006943
0.260441 0.005814 0.006790
0.284276 0.005158 0.008545
0.311742 0.004440 0.011902
0.334752 0.003632 0.012055
0.361364 0.003021 0.016663
0.387198 0.002609 0.021790
0.416815 0.002609 0.028824
0.445838 0.002533 0.033829
0.478355 0.003418 0.042023
0.510079 0.004547 0.051682
0.540459 0.006256 0.061524
0.570504 0.008057 0.075029
0.597177 0.010239 0.085618
0.622248 0.012558 0.094881
0.660060 0.016617 0.118791
0.680903 0.018967 0.136507
0.700786 0.021561 0.160113
0.723934 0.036698 0.189471
0.744625 0.068727 0.218357
0.771557 0.125002 0.252155
0.008179 0.036973 0.043488
0.013077 0.036637 0.043183
0.026764 0.034897 0.042756
0.046326 0.031037 0.040696
0.066712 0.027451 0.035935
0.087907 0.023072 0.030213
0.109773 0.017090 0.023133
0.131746 0.012787 0.016587
0.151888 0.011231 0.013550
0.174075 0.010025 0.011322
0.193729 0.008942 0.009323
0.214359 0.007691 0.007141
0.236271 0.006744 0.005234
0.258640 0.005509 0.003006
0.282353 0.004685 0.001190
0.306004 0.003616 0.000000
0.329702 0.002945 0.000000
0.352300 0.002808 0.002182
0.376425 0.002472 0.006912
0.402640 0.002197 0.012970
0.432212 0.001953 0.019013
0.462455 0.002594 0.026459
0.494209 0.003693 0.033997
0.524392 0.005142 0.042786
0.553491 0.006928 0.053681
0.580819 0.009003 0.064561
0.609369 0.011475 0.076081
0.647303 0.015274 0.096071
0.672572 0.017777 0.117510
0.695766 0.020615 0.141924
0.717769 0.029175 0.168734
0.737453 0.056077 0.199222
0.763729 0.106889 0.233158
0.004150 0.048554 0.041291
0.009384 0.048249 0.041230
0.022965 0.047898 0.041596
0.035538 0.049927 0.039658
0.071428 0.041398 0.041001
0.095872 0.034775 0.035401
0.114443 0.029007 0.030350
0.132631 0.024567 0.025467
0.150149 0.019959 0.019959
0.167620 0.015396 0.014298
0.185473 0.010193 0.010636
0.206043 0.008392 0.008240
0.226871 0.007126 0.006027
0.247883 0.006104 0.004074
0.269749 0.005066 0.002090
0.292912 0.003998 0.000015
0.316701 0.003357 0.000000
0.343313 0.002396 0.000000
0.372091 0.001526 0.000000
0.397589 0.001114 0.000000
0.424826 0.000992 0.000000
0.453254 0.001938 0.003510
0.481727 0.003006 0.010605
0.510079 0.004288 0.018906
0.536583 0.005798 0.027924
0.563531 0.007691 0.038422
0.591501 0.009949 0.049775
0.624399 0.012894 0.063828
0.653452 0.015595 0.084321
0.686824 0.019577 0.112825
0.711986 0.024414 0.141726
0.733989 0.052094 0.177050
0.760937 0.102907 0.212909
0.000000 0.063722 0.036378
0.002625 0.061967 0.035340
0.018845 0.061997 0.037720
0.033021 0.062089 0.036835
0.054887 0.063188 0.036866
0.076326 0.063874 0.042603
0.117861 0.050111 0.038911
0.149157 0.034058 0.027421
0.165927 0.029129 0.022538
0.181643 0.026169 0.018677
0.201450 0.021195 0.014160
0.222034 0.015061 0.009857
0.244068 0.008774 0.005570
0.267399 0.005402 0.002457
0.291539 0.004105 0.000183
0.314580 0.003418 0.000000
0.337728 0.002487 0.000000
0.359136 0.002090 0.000000
0.380285 0.001419 0.000000
0.400839 0.000931 0.000000
0.422690 0.000534 0.000000
0.445029 0.000610 0.000000
0.472053 0.001328 0.000000
0.499702 0.002640 0.000000
0.527550 0.004440 0.001480
0.556558 0.006760 0.012665
0.587076 0.009308 0.025406
0.617136 0.011963 0.038254
0.636103 0.013703 0.050614
0.657877 0.016068 0.068086
0.695262 0.020706 0.100740
0.717906 0.031159 0.138064
0.745937 0.072419 0.180957
0.000000 0.084199 0.028183
0.000000 0.080201 0.027054
0.014527 0.080934 0.029755
0.028382 0.081865 0.030716
0.052018 0.081315 0.032883
0.075807 0.083497 0.035248
0.097887 0.085679 0.037217
0.123735 0.082139 0.041444
0.169818 0.061570 0.036438
0.203342 0.037415 0.022766
0.222904 0.031311 0.016922
0.240284 0.029374 0.014145
0.260899 0.024781 0.010849
0.283497 0.019532 0.006806
0.307393 0.012879 0.003510
0.332067 0.006714 0.000000
0.357183 0.002655 0.000000
0.382452 0.001495 0.000000
0.407874 0.000534 0.000000
0.434195 0.000717 0.000000
0.458030 0.000977 0.000000
0.481041 0.001511 0.000000
0.501472 0.002426 0.000000
0.519402 0.003159 0.000000
0.539178 0.004181 0.000000
0.563622 0.006104 0.000000
0.590997 0.008530 0.000000
0.619242 0.011414 0.011002
0.647242 0.014557 0.023728
0.665980 0.016739 0.035950
0.682811 0.019242 0.052323
0.703426 0.022248 0.077439
0.724575 0.043137 0.125460
0.000000 0.107973 0.020188
0.000000 0.103243 0.018402
0.009644 0.102907 0.021653
0.025055 0.103304 0.023392
0.046052 0.103624 0.025803
0.075029 0.101320 0.031998
0.094682 0.105531 0.033265
0.122744 0.105821 0.032715
0.144945 0.107683 0.035615
0.182300 0.095674 0.040620
0.229618 0.066712 0.032090
0.261555 0.040772 0.017716
0.283986 0.035065 0.013428
0.303380 0.034501 0.012070
0.326101 0.031769 0.009705
0.350576 0.027161 0.006195
0.375647 0.022461 0.002747
0.401999 0.016800 0.000000
0.430045 0.011490 0.000000
0.455940 0.006638 0.000000
0.482582 0.003464 0.000000
0.508553 0.003403 0.000000
0.532738 0.004364 0.000000
0.557549 0.005997 0.000000
0.582620 0.007935 0.000000
0.606943 0.009979 0.001389
0.629053 0.012024 0.004807
0.650294 0.014191 0.009262
0.672328 0.016800 0.015442
0.690730 0.019638 0.025605
0.701549 0.023011 0.042222
0.707454 0.028031 0.061860
0.720348 0.042786 0.088258
0.000000 0.133028 0.012604
0.000000 0.128130 0.010330
0.003433 0.126146 0.013047
0.022049 0.126635 0.016175
0.042741 0.126787 0.019058
0.068666 0.125338 0.023331
0.098146 0.121935 0.031495
0.117174 0.126604 0.031708
0.149584 0.127291 0.029755
0.170291 0.130388 0.030442
0.201511 0.124010 0.038071
0.248859 0.100160 0.038850
0.294270 0.062547 0.024430
0.325856 0.047654 0.015976
0.349035 0.044053 0.013077
0.368933 0.044938 0.012375
0.392462 0.043564 0.011292
0.418769 0.040131 0.009842
0.448051 0.036805 0.008362
0.477302 0.032380 0.006653
0.506966 0.028244 0.005173
0.535348 0.024094 0.007462
0.560632 0.022446 0.009247
0.585534 0.020264 0.010330
0.611170 0.019593 0.012619
0.636042 0.019715 0.016007
0.659724 0.020722 0.020539
0.683024 0.023346 0.027253
0.702251 0.026795 0.036057
0.707912 0.030640 0.046738
0.718074 0.043336 0.064286
0.730587 0.062257 0.084108
0.744213 0.086580 0.106172
0.000000 0.160021 0.005905
0.000000 0.155657 0.002762
0.000000 0.151034 0.004623
0.019715 0.151568 0.008942
0.040101 0.150881 0.011780
0.065522 0.149447 0.016113
0.092973 0.147677 0.022705
0.123690 0.144686 0.031098
0.142290 0.148516 0.030747
0.175174 0.148501 0.029267
0.197925 0.152667 0.028061
0.226642 0.148745 0.033616
0.268864 0.133471 0.041886
0.322194 0.096834 0.033341
0.361959 0.067323 0.022507
0.390997 0.059541 0.019120
0.414801 0.059068 0.018830
0.437522 0.062226 0.020142
0.464622 0.062699 0.020569
0.494194 0.060853 0.020752
0.525216 0.058885 0.021637
0.554879 0.056016 0.022782
0.581643 0.053849 0.025162
0.609888 0.052171 0.030762
0.637156 0.049958 0.033249
0.663737 0.050111 0.037598
0.688777 0.052613 0.043870
0.711879 0.056397 0.052048
0.726802 0.061280 0.062013
0.731670 0.068223 0.073716
0.741772 0.088060 0.089860
0.753857 0.114046 0.109194
0.765194 0.138872 0.129046
0.000000 0.189746 0.001297
0.000000 0.184817 0.000000
0.000000 0.180011 0.000000
0.015427 0.178317 0.000809
0.038010 0.176638 0.004456
0.063630 0.175723 0.008820
0.090043 0.173510 0.014206
0.118685 0.170642 0.022507
0.148638 0.166873 0.030076
0.168490 0.171313 0.029587
0.202304 0.171374 0.029450
0.226749 0.175189 0.028306
0.255558 0.173983 0.029938
0.291341 0.164309 0.040818
0.344915 0.136934 0.041855
0.394583 0.098100 0.031968
0.430976 0.084504 0.028824
0.461845 0.079774 0.027802
0.488380 0.082750 0.029908
0.513512 0.087770 0.033005
0.541772 0.089906 0.036011
0.571542 0.089937 0.038865
0.600275 0.091035 0.043671
0.627863 0.092149 0.048722
0.656657 0.092393 0.053345
0.684672 0.093339 0.058457
0.710246 0.096086 0.065309
0.735759 0.100999 0.077363
0.749157 0.108110 0.088273
0.754253 0.118959 0.100542
0.764050 0.140444 0.116274
0.771572 0.163287 0.130449
0.779370 0.182971 0.147646
0.000000 0.221195 0.000000
0.000000 0.215869 0.000000
0.000000 0.210452 0.000000
0.009400 0.206348 0.000000
0.037095 0.205112 0.000000
0.062562 0.202930 0.001297
0.088350 0.200717 0.006683
0.115602 0.197040 0.013992
0.145235 0.194324 0.023362
0.176120 0.191409 0.029908
0.195758 0.194888 0.028702
0.229679 0.195224 0.029770
0.256977 0.199283 0.028763
0.284825 0.200061 0.027054
0.319814 0.195544 0.038071
0.367102 0.177783 0.048524
0.424811 0.140185 0.043687
0.469627 0.115389 0.039994
0.507759 0.108034 0.040253
0.539940 0.107362 0.043091
0.565362 0.112963 0.047562
0.590433 0.119478 0.052720
0.616876 0.124285 0.059068
0.643992 0.128527 0.066072
0.672419 0.132280 0.072755
0.700328 0.136355 0.080110
0.727321 0.140963 0.088533
0.752102 0.147478 0.099016
0.766659 0.155261 0.110094
0.771435 0.165957 0.122499
0.779080 0.185061 0.136995
0.786160 0.204227 0.152377
0.792416 0.221347 0.168124
0.000000 0.255360 0.000000
0.000000 0.249409 0.000000
0.000000 0.243214 0.000000
0.003586 0.237507 0.000000
0.033356 0.234943 0.000000
0.061707 0.231571 0.000000
0.087190 0.228397 0.000000
0.114199 0.225757 0.006516
0.143359 0.223072 0.015473
0.172229 0.218967 0.024109
0.203204 0.215900 0.030167
0.224353 0.219989 0.028870
0.257816 0.220798 0.030274
0.288319 0.224567 0.029603
0.316823 0.228092 0.027787
0.350912 0.225437 0.036027
0.392996 0.215305 0.051591
0.449302 0.188678 0.056046
0.506523 0.153628 0.053422
0.549538 0.142123 0.054933
0.585962 0.138689 0.059525
0.614298 0.142031 0.065263
0.636927 0.150805 0.072709
0.660243 0.160037 0.080751
0.686656 0.167178 0.088960
0.714260 0.173480 0.098238
0.740993 0.180636 0.108782
0.765789 0.189090 0.119585
0.782040 0.197543 0.131502
0.786511 0.208072 0.143496
0.791882 0.223651 0.156619
0.797482 0.239185 0.170489
0.802563 0.255055 0.185611
0.000000 0.291463 0.003494
0.000000 0.284382 0.000000
0.000000 0.277989 0.000000
0.000000 0.271321 0.000000
0.026947 0.265797 0.000000
0.062074 0.261707 0.000000
0.087434 0.258808 0.000000
0.114199 0.255497 0.000000
0.142229 0.252415 0.007935
0.171328 0.248569 0.017639
0.200549 0.244999 0.026017
0.232395 0.241871 0.031693
0.254704 0.245869 0.029984
0.287327 0.248936 0.031128
0.320562 0.251789 0.030610
0.348974 0.257115 0.029053
0.383444 0.256947 0.036057
0.421942 0.252125 0.053864
0.473228 0.235294 0.068513
0.539208 0.199832 0.068437
0.589151 0.179355 0.071504
0.626688 0.174304 0.077775
0.656275 0.175647 0.085695
0.680842 0.183291 0.094606
0.704036 0.194980 0.104250
0.727977 0.205814 0.114305
0.752728 0.214984 0.124895
0.777493 0.225071 0.137057
0.793667 0.234409 0.148730
0.797467 0.244053 0.160311
0.801785 0.257023 0.172534
0.806302 0.271580 0.186069
0.810330 0.285664 0.200519
0.000000 0.329732 0.012299
0.000000 0.322316 0.000000
0.000000 0.314321 0.000000
0.000000 0.307530 0.000000
0.023423 0.301686 0.000000
0.057923 0.295521 0.000000
0.089387 0.290349 0.000000
0.115145 0.286229 0.000000
0.142885 0.283055 0.002029
0.171084 0.279133 0.011093
0.201007 0.276097 0.020951
0.230854 0.272725 0.029206
0.263005 0.269718 0.034684
0.286305 0.273701 0.032853
0.316915 0.277928 0.032135
0.353384 0.280446 0.031952
0.382132 0.287907 0.030991
0.416281 0.289693 0.037583
0.453208 0.288624 0.055924
0.500450 0.278340 0.077501
0.566155 0.252049 0.085496
0.625025 0.220020 0.089586
0.663264 0.213016 0.098588
0.695155 0.213169 0.108751
0.722576 0.218387 0.118379
0.744671 0.229282 0.128038
0.765774 0.243046 0.139269
0.787457 0.254520 0.150851
0.802518 0.264775 0.162631
0.805692 0.274281 0.174014
0.809079 0.286702 0.185565
0.812863 0.299992 0.198611
0.816541 0.312505 0.212848
0.000000 0.370184 0.029129
0.000000 0.362112 0.003510
0.000000 0.352880 0.000000
0.000549 0.346487 0.000000
0.021454 0.339544 0.000000
0.053925 0.330373 0.000000
0.090654 0.324224 0.000000
0.119036 0.319203 0.000000
0.145495 0.314931 0.000000
0.174151 0.312001 0.006500
0.202319 0.307805 0.016159
0.232425 0.304082 0.025833
0.263218 0.301701 0.034424
0.295644 0.299275 0.040177
0.319295 0.303014 0.037827
0.348547 0.309239 0.037156
0.387427 0.310918 0.033982
0.416648 0.318685 0.032853
0.450507 0.323537 0.041413
0.486046 0.324834 0.059617
0.530449 0.319081 0.085374
0.592844 0.299916 0.103532
0.656016 0.267201 0.110567
0.697688 0.249714 0.120623
0.730663 0.249699 0.131121
0.758465 0.253468 0.141695
0.780682 0.263020 0.152499
0.799908 0.276265 0.163775
0.808515 0.289006 0.174823
0.811536 0.299947 0.185916
0.814923 0.312398 0.197604
0.818112 0.324483 0.209903
0.821134 0.336141 0.223575
0.000000 0.411780 0.051087
0.000000 0.403418 0.022919
0.000000 0.393179 0.000000
0.004196 0.387121 0.000000
0.022751 0.379370 0.000000
0.054307 0.370550 0.000000
0.088212 0.361089 0.000000
0.125277 0.354452 0.000000
0.151949 0.349523 0.000000
0.178637 0.345418 0.003937
0.206607 0.340734 0.013153
0.235813 0.337774 0.023957
0.265629 0.334279 0.033341
0.296040 0.331548 0.041459
0.328832 0.329412 0.047501
0.353368 0.333593 0.045579
0.380285 0.340917 0.045167
0.421561 0.342901 0.043305
0.451972 0.350591 0.039017
0.484260 0.357351 0.047150
0.520897 0.360159 0.066285
0.563699 0.357397 0.093812
0.620462 0.343572 0.118791
0.680949 0.318288 0.132433
0.728634 0.290379 0.142306
0.762661 0.284794 0.153384
0.790036 0.287694 0.164874
0.809461 0.295491 0.176440
0.812970 0.307027 0.186770
0.815946 0.320531 0.196796
0.819150 0.333989 0.207614
0.821988 0.345678 0.219837
0.824628 0.358022 0.233783
0.000000 0.455482 0.077317
0.000000 0.447059 0.048554
0.000000 0.435660 0.019715
0.010452 0.430289 0.005829
0.030030 0.422202 0.000000
0.057176 0.411994 0.000000
0.089845 0.401129 0.000000
0.126665 0.392035 0.000000
0.159609 0.385153 0.000000
0.186465 0.380179 0.004700
0.213489 0.375418 0.013230
0.241703 0.372015 0.023377
0.269764 0.368597 0.033753
0.299947 0.365332 0.043336
0.330373 0.363348 0.051881
0.363439 0.361532 0.058808
0.388449 0.365194 0.056703
0.413718 0.373602 0.055878
0.455711 0.376654 0.055558
0.487541 0.383459 0.049607
0.518990 0.390860 0.054139
0.556130 0.394522 0.073564
0.596262 0.393454 0.102449
0.646799 0.383978 0.132845
0.703166 0.364645 0.154238
0.753384 0.338552 0.163912
0.791165 0.318959 0.174914
0.812879 0.319921 0.186694
0.816724 0.325414 0.197223
0.819516 0.336690 0.207843
0.822202 0.351141 0.218235
0.825528 0.370123 0.230243
0.829374 0.393759 0.244938
0.000000 0.499733 0.107362
0.000000 0.491402 0.078157
0.001434 0.480247 0.047013
0.017044 0.474647 0.031327
0.038850 0.466026 0.013535
0.064363 0.455894 0.000000
0.095491 0.444297 0.000000
0.128908 0.432441 0.000000
0.168322 0.423484 0.002487
0.197391 0.417044 0.009171
0.223713 0.411780 0.016785
0.250706 0.407248 0.026108
0.278416 0.402747 0.036515
0.306035 0.399954 0.046845
0.335821 0.396963 0.056230
0.366339 0.395315 0.065232
0.398367 0.393515 0.071946
0.424369 0.398077 0.069917
0.446952 0.407370 0.068772
0.488334 0.409216 0.069337
0.522469 0.415579 0.061677
0.554009 0.423514 0.063996
0.589670 0.426688 0.084459
0.628000 0.427298 0.113741
0.672236 0.420005 0.145830
0.722454 0.405386 0.171649
0.771405 0.384466 0.186099
0.811414 0.364065 0.194781
0.820722 0.350332 0.205951
0.822950 0.355459 0.217762
0.825711 0.371801 0.229389
0.829526 0.399771 0.242145
0.833295 0.426490 0.258396
0.000000 0.544762 0.139300
0.002564 0.537514 0.111025
0.008545 0.525521 0.077317
0.025330 0.519341 0.061219
0.049332 0.510353 0.041917
0.075105 0.499886 0.022568
0.103609 0.488411 0.008606
0.136828 0.475639 0.007324
0.171511 0.463966 0.009430
0.209918 0.454658 0.016342
0.236057 0.448463 0.023606
0.262501 0.443198 0.032227
0.288869 0.438544 0.041886
0.315450 0.435065 0.052216
0.342901 0.432197 0.062669
0.371695 0.428870 0.071488
0.401282 0.427161 0.080384
0.433600 0.425788 0.087144
0.458991 0.429862 0.084626
0.480919 0.438849 0.082490
0.521614 0.441794 0.084566
0.556527 0.446983 0.075883
0.587060 0.454215 0.075578
0.621546 0.457145 0.096879
0.657069 0.457298 0.126345
0.695369 0.453147 0.157061
0.739681 0.441764 0.186389
0.786694 0.425315 0.207263
0.821942 0.408911 0.217227
0.827726 0.401846 0.225589
0.830259 0.411322 0.239399
0.833204 0.427329 0.256107
0.836789 0.450904 0.274510
0.013138 0.588571 0.170336
0.015152 0.581079 0.143587
0.019028 0.569131 0.109422
0.035584 0.563317 0.092561
0.059220 0.554879 0.073045
0.086275 0.544533 0.052796
0.114137 0.532921 0.032624
0.145235 0.520287 0.022370
0.179187 0.506462 0.021195
0.217334 0.495171 0.026108
0.251316 0.486534 0.033799
0.275746 0.480079 0.041016
0.301701 0.474937 0.050202
0.326848 0.470268 0.059510
0.352789 0.466484 0.069688
0.379538 0.463142 0.079377
0.407691 0.460563 0.088228
0.437339 0.459144 0.097414
0.467475 0.457465 0.103883
0.493019 0.461387 0.100862
0.514870 0.470283 0.097154
0.553872 0.472679 0.100664
0.589746 0.476432 0.092149
0.620005 0.482383 0.090013
0.651240 0.485328 0.110933
0.684138 0.485603 0.140352
0.718227 0.484321 0.170626
0.757397 0.476997 0.201709
0.801129 0.465339 0.226658
0.831617 0.453498 0.244007
0.835096 0.454597 0.256199
0.837491 0.463188 0.271901
0.840894 0.477775 0.289631
0.029191 0.630091 0.200061
0.030686 0.623041 0.174701
0.033219 0.611353 0.140658
0.046876 0.605219 0.123644
0.070176 0.597391 0.104860
0.096986 0.587900 0.084749
0.124056 0.577081 0.063188
0.153063 0.564569 0.042481
0.187686 0.550469 0.037400
0.222736 0.536233 0.036957
0.261799 0.525597 0.044144
0.290700 0.517693 0.051774
0.314992 0.511009 0.059709
0.339452 0.505623 0.068513
0.364523 0.501411 0.078447
0.389136 0.497566 0.087984
0.415061 0.494652 0.097566
0.442954 0.491814 0.106325
0.469871 0.489632 0.114611
0.500633 0.488289 0.121752
0.526192 0.491768 0.117662
0.547509 0.499779 0.113344
0.584680 0.501884 0.117342
0.621027 0.503899 0.110170
0.650492 0.508843 0.108217
0.678981 0.513619 0.127428
0.709895 0.514687 0.156161
0.742229 0.515480 0.186450
0.776532 0.512398 0.217441
0.815671 0.504417 0.246891
0.839109 0.499535 0.267094
0.842466 0.503670 0.282383
0.845884 0.511757 0.300465
0.047669 0.669123 0.227497
0.048310 0.662760 0.203937
0.050278 0.652094 0.172183
0.060716 0.645853 0.153658
0.081620 0.639033 0.136248
0.108064 0.630335 0.116716
0.134936 0.620417 0.096071
0.162539 0.608881 0.073091
0.194400 0.595132 0.054871
0.229831 0.580591 0.052857
0.267048 0.567330 0.055802
0.304829 0.555871 0.063508
0.329320 0.548562 0.070817
0.352743 0.542321 0.078843
0.376379 0.537011 0.087877
0.400305 0.532357 0.097459
0.423621 0.528130 0.106676
0.449210 0.524804 0.116075
0.475608 0.521950 0.124269
0.502220 0.519966 0.132662
0.531029 0.517830 0.139635
0.556817 0.520378 0.134417
0.578653 0.527840 0.129534
0.614893 0.529809 0.133806
0.651377 0.530861 0.130388
0.680278 0.536141 0.130709
0.707347 0.542245 0.145190
0.737408 0.545724 0.172686
0.766918 0.547143 0.202747
0.797024 0.548730 0.233433
0.827604 0.546105 0.266087
0.837308 0.545769 0.286122
0.841123 0.549096 0.303990
0.068803 0.705013 0.255634
0.069444 0.699336 0.233890
0.070817 0.690089 0.203555
0.076661 0.683711 0.183932
0.095186 0.677546 0.166567
0.119661 0.670100 0.148440
0.145373 0.661295 0.128985
0.171771 0.650629 0.107073
0.201755 0.638239 0.082445
0.234928 0.624552 0.071275
0.269871 0.609613 0.068589
0.309728 0.597086 0.074952
0.341543 0.587076 0.082445
0.364462 0.579538 0.089509
0.386954 0.572946 0.097505
0.409567 0.567315 0.106554
0.432700 0.562570 0.115984
0.455604 0.558846 0.125170
0.480140 0.555367 0.133913
0.505425 0.551781 0.141939
0.531197 0.549340 0.150134
0.560601 0.546410 0.157717
0.587335 0.548959 0.152102
0.609110 0.555627 0.147570
0.643565 0.558526 0.152850
0.680827 0.560418 0.157214
0.710506 0.565530 0.155581
0.736431 0.573144 0.165621
0.763958 0.578286 0.189441
0.791730 0.582010 0.220569
0.818509 0.585702 0.253849
0.835874 0.587503 0.281743
0.839094 0.588739 0.301472
0.091096 0.739055 0.283177
0.091142 0.733959 0.262135
0.092470 0.725277 0.233661
0.095430 0.719081 0.214221
0.112032 0.713695 0.198779
0.133471 0.707164 0.181033
0.157305 0.699474 0.161593
0.182650 0.690120 0.140902
0.210513 0.679438 0.117556
0.241306 0.666468 0.095109
0.274876 0.652033 0.088167
0.310430 0.638560 0.087327
0.348470 0.626734 0.094057
0.375006 0.617334 0.100984
0.397208 0.610178 0.107958
0.418753 0.603983 0.116121
0.440513 0.597971 0.124605
0.462409 0.593454 0.133715
0.483955 0.589166 0.142763
0.507713 0.584863 0.150774
0.532952 0.581369 0.159579
0.559152 0.578531 0.168383
0.589090 0.575525 0.177356
0.617182 0.577569 0.172671
0.640299 0.585046 0.170413
0.673228 0.589456 0.177172
0.710353 0.591318 0.187137
0.740948 0.597208 0.184619
0.766247 0.604700 0.191943
0.790738 0.613245 0.210132
0.816037 0.618952 0.240467
0.838453 0.623896 0.274296
0.843885 0.626749 0.295033
0.112322 0.771634 0.308949
0.112505 0.767163 0.289387
0.113725 0.759716 0.262181
0.114687 0.753506 0.243290
0.128191 0.747951 0.228595
0.149569 0.741741 0.213123
0.173037 0.734829 0.195911
0.196139 0.727092 0.176440
0.221134 0.717494 0.153857
0.248875 0.705684 0.128298
0.280980 0.692454 0.112444
0.313191 0.678294 0.106172
0.349447 0.666377 0.108873
0.383993 0.655024 0.114061
0.406165 0.646891 0.119844
0.426703 0.639673 0.126543
0.447700 0.633494 0.134554
0.468681 0.627817 0.143038
0.489693 0.622919 0.151751
0.511040 0.619501 0.161913
0.535317 0.615763 0.170916
0.561227 0.612222 0.180560
0.588037 0.609461 0.190906
0.620096 0.606394 0.201541
0.649302 0.608606 0.198871
0.672435 0.616266 0.198596
0.703655 0.622705 0.206149
0.739879 0.624552 0.220508
0.770535 0.630915 0.219715
0.795346 0.638865 0.225589
0.817502 0.648524 0.240070
0.839597 0.656168 0.264103
0.852857 0.661738 0.290715
0.136034 0.802472 0.336172
0.134386 0.797726 0.316472
0.135470 0.791531 0.290440
0.136782 0.785794 0.272282
0.145525 0.780926 0.256794
0.165286 0.775189 0.243076
0.188968 0.769284 0.228305
0.212268 0.761730 0.210880
0.235798 0.752544 0.190036
0.261173 0.742657 0.167163
0.289296 0.729976 0.142611
0.320439 0.716716 0.131518
0.353994 0.705180 0.129473
0.388327 0.693797 0.132403
0.417548 0.684031 0.136980
0.437415 0.676692 0.141939
0.457740 0.669932 0.148638
0.478187 0.664057 0.156527
0.498466 0.659129 0.165103
0.519066 0.654948 0.174777
0.539910 0.651530 0.185153
0.565209 0.647486 0.195239
0.591760 0.644236 0.206012
0.620447 0.641825 0.218097
0.653193 0.638544 0.230396
0.682689 0.641032 0.230594
0.706432 0.649332 0.230533
0.734783 0.657084 0.237247
0.770703 0.659770 0.258473
0.799176 0.665721 0.260868
0.823453 0.673609 0.267079
0.844144 0.683223 0.280552
0.861295 0.692790 0.300298
0.163912 0.831357 0.365118
0.160769 0.827085 0.345983
0.159609 0.821332 0.319936
0.159854 0.815991 0.302052
0.163973 0.811566 0.285710
0.182422 0.806943 0.273182
0.204913 0.801556 0.259846
0.228122 0.794827 0.243626
0.251560 0.787015 0.225956
0.275257 0.777584 0.205005
0.300908 0.766583 0.180301
0.330770 0.754314 0.162570
0.361624 0.742245 0.156985
0.394842 0.732387 0.158190
0.427573 0.721782 0.160998
0.450187 0.713405 0.164324
0.469337 0.706386 0.169146
0.489174 0.700847 0.175982
0.508721 0.695964 0.183642
0.528145 0.691188 0.192172
0.549447 0.687877 0.203403
0.570901 0.684245 0.214389
0.596521 0.680964 0.225910
0.624460 0.677455 0.238025
0.653361 0.674769 0.251316
0.685924 0.671946 0.265049
0.715663 0.673930 0.265919
0.740017 0.682994 0.265034
0.765881 0.692607 0.273289
0.798901 0.695293 0.299123
0.826154 0.701122 0.307210
0.848783 0.709346 0.315618
0.868635 0.718898 0.330663
0.193637 0.857862 0.394644
0.189502 0.853864 0.376440
0.185977 0.848890 0.350347
0.185901 0.844450 0.332692
0.186175 0.839994 0.316915
0.200824 0.835981 0.304006
0.222507 0.831998 0.292256
0.245731 0.826276 0.277699
0.268193 0.819287 0.261006
0.291188 0.811048 0.242084
0.316228 0.801801 0.220752
0.342107 0.790234 0.196094
0.372122 0.778744 0.187655
0.403632 0.769619 0.188800
0.436057 0.760021 0.191241
0.466377 0.750774 0.194553
0.485664 0.744060 0.198047
0.504372 0.737896 0.203037
0.522225 0.732525 0.208927
0.540749 0.727749 0.216587
0.560540 0.723613 0.226490
0.581003 0.720516 0.237919
0.603967 0.717723 0.250126
0.630732 0.714015 0.262745
0.658503 0.710903 0.275868
0.687800 0.707927 0.289754
