app/src/main/assets/lut_presets/#U4e4c#U6258#U90a6.cube
TITLE "Generated by Resolve (33)"
# Resampled from 65 to 33 by scripts/resample_cube_luts.py
# Source: 乌托邦.cube
LUT_3D_SIZE 5
0.008896 0.034134 0.043015
0.151156 0.011322 0.015549
0.334752 0.003632 0.012055
0.570504 0.008057 0.075029
0.771557 0.125002 0.252155
0.000000 0.189746 0.001297
0.148638 0.166873 0.030076
0.430976 0.084504 0.028824
0.656657 0.092393 0.053345
0.779370 0.182971 0.147646
0.000000 0.499733 0.107362
0.168322 0.423484 0.002487
0.398367 0.393515 0.071946
0.672236 0.420005 0.145830
0.833295 0.426490 0.258396
0.136034 0.802472 0.336172
0.235798 0.752544 0.190036
0.457740 0.669932 0.148638
0.653193 0.638544 0.230396
0.861295 0.692790 0.300298
0.411658 0.934905 0.555428
0.386984 0.931624 0.467491
0.585992 0.933593 0.448295
0.733410 0.904005 0.482292
0.906783 0.889601 0.591089
0.000000 0.039139 0.190906
0.123796 0.020920 0.139376
0.296956 0.006958 0.110567
0.569924 0.009537 0.178073
0.768582 0.126268 0.346075
0.000000 0.172457 0.181903
0.140215 0.173404 0.181872
0.444968 0.091463 0.130587
0.689891 0.043244 0.155764
0.791089 0.177127 0.275486
0.000000 0.482719 0.282704
0.000000 0.472175 0.119326
0.440589 0.429526 0.109148
0.715679 0.442771 0.220203
0.848447 0.489326 0.332311
0.120928 0.790707 0.436545
0.125399 0.785000 0.337087
0.476905 0.729046 0.192523
0.708690 0.686656 0.285542
0.878767 0.717723 0.394903
0.451255 0.936385 0.629114
0.411185 0.934630 0.564569
0.610742 0.947540 0.549081
0.773693 0.928710 0.559274
0.919493 0.902312 0.630472
0.000000 0.053071 0.416159
0.095888 0.027710 0.403265
0.303349 0.012787 0.297780
0.543359 0.015732 0.296666
0.717281 0.051865 0.364050
0.000000 0.179492 0.321645
0.028458 0.128069 0.470756
0.378363 0.065202 0.370809
0.619181 0.043549 0.325719
0.764614 0.146532 0.421805
0.000000 0.469306 0.468711
0.000000 0.440909 0.438254
0.405844 0.428351 0.430030
0.752529 0.399619 0.403235
0.848630 0.408957 0.421744
0.103639 0.752743 0.590555
0.098146 0.750164 0.504356
0.208133 0.770611 0.371878
0.719539 0.715373 0.439429
0.901106 0.756573 0.526299
0.465187 0.929778 0.716625
0.412512 0.927062 0.662028
0.458701 0.939315 0.595315
0.786511 0.946212 0.634958
0.939422 0.925109 0.701183
0.000000 0.075029 0.611170
0.044450 0.047517 0.618967
0.318639 0.029358 0.579019
0.568048 0.056169 0.516625
0.712291 0.092210 0.529473
0.000000 0.170886 0.549889
0.000000 0.087053 0.632975
0.290028 0.033860 0.614130
0.583490 0.064347 0.528588
0.715770 0.099718 0.539651
0.045151 0.453040 0.586633
0.047394 0.422995 0.564553
0.309361 0.414755 0.727825
0.690394 0.361288 0.643656
0.811261 0.349874 0.649592
0.090761 0.738155 0.726528
0.081727 0.715846 0.701930
0.167193 0.706294 0.691585
0.689693 0.700923 0.693004
0.886687 0.713497 0.704753
0.409659 0.905104 0.826703
0.398184 0.907393 0.794949
0.440330 0.914885 0.758190
0.709163 0.949401 0.756451
0.939651 0.937713 0.810803
0.000000 0.150591 0.750454
0.000000 0.095705 0.760632
0.239765 0.050812 0.740932
0.594491 0.079591 0.736400
0.693370 0.114733 0.714611
0.000000 0.232441 0.683940
0.000000 0.208728 0.730495
0.221927 0.084169 0.814206
0.584680 0.084657 0.750820
0.697612 0.119356 0.707591
0.072282 0.491508 0.669062
0.056855 0.474327 0.670130
0.272801 0.492348 0.871992
0.683589 0.381735 0.889555
0.777005 0.321889 0.794751
0.000000 0.712306 0.791699
0.053590 0.707698 0.806882
0.281224 0.698192 0.823331
0.643839 0.714321 0.890471
0.869963 0.686473 0.851041
0.364126 0.894942 0.881895
0.367300 0.894713 0.880919
0.429572 0.895445 0.882475
0.687190 0.913100 0.905760
0.918715 0.922042 0.919509
