app/src/main/assets/lut_presets/#U4e4c#U6258#U90a6.cube
TITLE "Generated by Resolve (33)"
# Resampled from 65 to 33 by scripts/resample_cube_luts.py
# Source: 乌托邦.cube
LUT_3D_SIZE 9
0.008896 0.034134 0.043015
0.072694 0.023728 0.035050
0.151156 0.011322 0.015549
0.237537 0.006851 0.006943
0.334752 0.003632 0.012055
0.445838 0.002533 0.033829
0.570504 0.008057 0.075029
0.680903 0.018967 0.136507
0.771557 0.125002 0.252155
0.000000 0.084199 0.028183
0.052018 0.081315 0.032883
0.169818 0.061570 0.036438
0.260899 0.024781 0.010849
0.357183 0.002655 0.000000
0.458030 0.000977 0.000000
0.539178 0.004181 0.000000
0.647242 0.014557 0.023728
0.724575 0.043137 0.125460
0.000000 0.189746 0.001297
0.038010 0.176638 0.004456
0.148638 0.166873 0.030076
0.255558 0.173983 0.029938
0.430976 0.084504 0.028824
0.541772 0.089906 0.036011
0.656657 0.092393 0.053345
0.749157 0.108110 0.088273
0.779370 0.182971 0.147646
0.000000 0.329732 0.012299
0.023423 0.301686 0.000000
0.142885 0.283055 0.002029
0.263005 0.269718 0.034684
0.382132 0.287907 0.030991
0.566155 0.252049 0.085496
0.722576 0.218387 0.118379
0.802518 0.264775 0.162631
0.816541 0.312505 0.212848
0.000000 0.499733 0.107362
0.038850 0.466026 0.013535
0.168322 0.423484 0.002487
0.278416 0.402747 0.036515
0.398367 0.393515 0.071946
0.522469 0.415579 0.061677
0.672236 0.420005 0.145830
0.820722 0.350332 0.205951
0.833295 0.426490 0.258396
0.047669 0.669123 0.227497
0.081620 0.639033 0.136248
0.194400 0.595132 0.054871
0.329320 0.548562 0.070817
0.423621 0.528130 0.106676
0.531029 0.517830 0.139635
0.651377 0.530861 0.130388
0.766918 0.547143 0.202747
0.841123 0.549096 0.303990
0.136034 0.802472 0.336172
0.145525 0.780926 0.256794
0.235798 0.752544 0.190036
0.353994 0.705180 0.129473
0.457740 0.669932 0.148638
0.539910 0.651530 0.185153
0.653193 0.638544 0.230396
0.770703 0.659770 0.258473
0.861295 0.692790 0.300298
0.257740 0.900557 0.449439
0.247257 0.890639 0.383551
0.307713 0.876280 0.334569
0.401419 0.848096 0.263447
0.519219 0.816770 0.267185
0.591028 0.795331 0.287373
0.675135 0.781765 0.333150
0.788296 0.771313 0.387915
0.877928 0.802915 0.429175
0.411658 0.934905 0.555428
0.382864 0.931991 0.504692
0.386984 0.931624 0.467491
0.477012 0.936599 0.448722
0.585992 0.933593 0.448295
0.668269 0.917830 0.458137
0.733410 0.904005 0.482292
0.819120 0.891493 0.532860
0.906783 0.889601 0.591089
0.000000 0.035233 0.092302
0.050401 0.027588 0.077424
0.127504 0.013504 0.058152
0.214069 0.008896 0.055619
0.329305 0.004913 0.070146
0.463737 0.003372 0.104616
0.599878 0.010880 0.149554
0.694881 0.020310 0.201205
0.786984 0.160708 0.322225
0.000000 0.072724 0.083940
0.043030 0.075563 0.085527
0.172580 0.052796 0.065766
0.281224 0.011200 0.034897
0.385489 0.003204 0.037430
0.500511 0.004288 0.065568
0.613001 0.011551 0.100221
0.703746 0.020264 0.153857
0.773526 0.128298 0.250187
0.000000 0.179492 0.093462
0.000000 0.184878 0.025940
0.154986 0.175662 0.055985
0.293156 0.151019 0.065126
0.421347 0.109331 0.049867
0.553536 0.098451 0.055955
0.679332 0.061997 0.074433
0.731456 0.050278 0.116167
0.774456 0.140963 0.201190
0.000000 0.325216 0.109590
0.000000 0.315724 0.021805
0.114504 0.307469 0.001099
0.281621 0.284031 0.041566
0.421866 0.295842 0.047776
0.582879 0.271183 0.114000
0.718700 0.264958 0.154528
0.811841 0.292500 0.200626
0.821515 0.325887 0.245899
0.000000 0.491783 0.189792
0.000000 0.484810 0.105303
0.095827 0.463874 0.002686
0.285618 0.431296 0.044419
0.429969 0.418158 0.085023
0.555993 0.439841 0.074952
0.726925 0.415732 0.199451
0.819165 0.437354 0.252201
0.843626 0.481193 0.305776
0.033432 0.660090 0.293156
0.039277 0.653452 0.224292
0.123461 0.641352 0.122301
0.330236 0.587900 0.082185
0.447196 0.558236 0.123415
0.563378 0.544457 0.157565
0.681193 0.555367 0.157504
0.800137 0.564248 0.262638
0.847440 0.597620 0.337575
0.126589 0.796475 0.390295
0.127535 0.791012 0.335042
0.173053 0.783032 0.251270
0.343450 0.744976 0.159335
0.478340 0.705028 0.175692
0.569253 0.682521 0.214832
0.686427 0.667231 0.262150
0.793271 0.684459 0.296422
0.871565 0.708431 0.349020
0.253529 0.896071 0.490822
0.248554 0.895262 0.449500
0.259434 0.892363 0.380880
0.401022 0.879286 0.322850
0.546883 0.851408 0.320134
0.620722 0.824201 0.332525
0.705653 0.804105 0.372290
0.811505 0.790677 0.419226
0.887694 0.814527 0.456794
0.438972 0.936751 0.597467
0.416403 0.935286 0.563561
0.399969 0.934295 0.511223
0.484749 0.940124 0.500816
0.615000 0.942657 0.517403
0.698665 0.936339 0.518318
0.757534 0.916594 0.518181
0.833356 0.899275 0.554986
0.910933 0.892943 0.601160
0.000000 0.039139 0.190906
0.035264 0.028153 0.192828
0.123796 0.020920 0.139376
0.197910 0.011109 0.111955
0.296956 0.006958 0.110567
0.414694 0.004746 0.135546
0.569924 0.009537 0.178073
0.688182 0.020951 0.227863
0.768582 0.126268 0.346075
0.000000 0.072373 0.147250
0.000000 0.067292 0.199649
0.143145 0.048005 0.166735
0.249714 0.026764 0.137942
0.367437 0.005295 0.124025
0.487251 0.004517 0.135515
0.607996 0.011688 0.164172
0.701930 0.021775 0.210651
0.782910 0.150927 0.317754
0.000000 0.172457 0.181903
0.000000 0.169680 0.177478
0.140215 0.173404 0.181872
0.302678 0.149020 0.158526
0.444968 0.091463 0.130587
0.583581 0.041504 0.121202
0.689891 0.043244 0.155764
0.752209 0.078325 0.204852
0.791089 0.177127 0.275486
0.000000 0.311513 0.230701
0.000000 0.309056 0.157748
0.019135 0.326604 0.111818
0.284428 0.300816 0.141054
0.436927 0.286152 0.154452
0.599878 0.250904 0.152361
0.732952 0.249317 0.179980
0.802258 0.240131 0.220813
0.818891 0.294408 0.285328
0.000000 0.482719 0.282704
0.000000 0.475410 0.211353
0.000000 0.472175 0.119326
0.259556 0.455604 0.078035
0.440589 0.429526 0.109148
0.583764 0.445060 0.112184
0.715679 0.442771 0.220203
0.829694 0.444907 0.282094
0.848447 0.489326 0.332311
0.026337 0.652262 0.358114
0.025147 0.641825 0.303685
0.038376 0.644907 0.229160
0.257893 0.618631 0.094118
0.444984 0.576745 0.141405
0.577874 0.556954 0.172091
0.700328 0.569039 0.180819
0.821088 0.573617 0.309453
0.855909 0.630228 0.365927
0.120928 0.790707 0.436545
0.115541 0.781689 0.393561
0.125399 0.785000 0.337087
0.265019 0.771557 0.206210
0.476905 0.729046 0.192523
0.583185 0.703502 0.235691
0.708690 0.686656 0.285542
0.809964 0.703166 0.329061
0.878767 0.717723 0.394903
0.249210 0.890791 0.524575
0.239261 0.887938 0.492164
0.247333 0.891798 0.452308
0.327596 0.889220 0.358999
0.539696 0.872282 0.346548
0.635981 0.845304 0.364401
0.725704 0.821637 0.402243
0.829877 0.807263 0.446006
0.898207 0.828412 0.487724
0.451255 0.936385 0.629114
0.425361 0.934707 0.598596
0.411185 0.934630 0.564569
0.448142 0.938308 0.516686
0.610742 0.947540 0.549081
0.712139 0.943740 0.560983
0.773693 0.928710 0.559274
0.848234 0.908782 0.583413
0.919493 0.902312 0.630472
0.000000 0.045060 0.304082
0.003662 0.033585 0.313664
0.119280 0.019409 0.271397
0.201038 0.016022 0.207172
0.290486 0.009827 0.186831
0.406714 0.007919 0.196780
0.544442 0.010864 0.223102
0.671382 0.021393 0.262867
0.722301 0.047532 0.326833
0.000000 0.076265 0.241276
0.000000 0.056153 0.324636
0.092378 0.027817 0.301991
0.215305 0.021088 0.220981
0.313603 0.010071 0.191928
0.441382 0.007385 0.197910
0.589975 0.013291 0.226841
0.697780 0.023789 0.263111
0.761654 0.120821 0.364691
0.000000 0.164096 0.242023
0.000000 0.163302 0.257038
0.084062 0.156970 0.325887
0.273640 0.132342 0.286137
0.400000 0.106813 0.267094
0.558953 0.051469 0.255192
0.675166 0.042267 0.260700
0.749432 0.077745 0.298009
0.790448 0.175921 0.353552
0.000000 0.312108 0.317311
0.000000 0.296742 0.300328
0.007889 0.308263 0.310689
0.268391 0.296727 0.301915
0.441855 0.280858 0.286122
0.614130 0.244694 0.264515
0.759503 0.201846 0.251591
0.797726 0.204059 0.268467
0.819181 0.276249 0.328298
0.000000 0.466346 0.395987
0.000000 0.458335 0.348714
0.000000 0.456138 0.286870
0.152026 0.473411 0.249241
0.427649 0.440024 0.274708
0.585733 0.434546 0.291493
0.741436 0.424765 0.281483
0.836591 0.399619 0.305516
0.846525 0.422324 0.369772
0.021073 0.631067 0.454307
0.017578 0.627207 0.393881
0.021378 0.625452 0.348501
0.062104 0.630671 0.246937
0.408865 0.598459 0.232258
0.578058 0.568109 0.257618
0.726619 0.571221 0.240848
0.822034 0.597604 0.334997
0.865950 0.635966 0.407187
0.112276 0.777111 0.498970
0.105760 0.769375 0.455146
0.107576 0.768505 0.420554
0.129107 0.775326 0.340841
0.422736 0.759060 0.224704
0.579568 0.724056 0.270970
0.724208 0.702159 0.314000
0.827054 0.718776 0.366293
0.887221 0.733272 0.454963
0.241627 0.880583 0.569039
0.230304 0.877974 0.537301
0.231937 0.878752 0.511162
0.246174 0.886168 0.453513
0.456306 0.889876 0.350866
0.640208 0.865415 0.392828
0.741451 0.838743 0.432074
0.847562 0.823926 0.474449
0.908675 0.842634 0.523720
0.461860 0.934447 0.667521
0.430594 0.932357 0.637842
0.412650 0.932052 0.610895
0.423743 0.935805 0.574990
0.556420 0.947112 0.556420
0.712489 0.948898 0.593652
0.786816 0.941283 0.604486
0.862348 0.920546 0.626215
0.929427 0.913176 0.664210
0.000000 0.053071 0.416159
0.000000 0.040208 0.430930
0.095888 0.027710 0.403265
0.212085 0.017288 0.348516
0.303349 0.012787 0.297780
0.408331 0.012680 0.289158
0.543359 0.015732 0.296666
0.670268 0.030594 0.319768
0.717281 0.051865 0.364050
0.000000 0.066773 0.367971
0.000000 0.053590 0.415335
0.035615 0.033387 0.417380
0.202914 0.019074 0.371908
0.311284 0.013870 0.303166
0.428656 0.015564 0.296498
0.565896 0.020310 0.303258
0.692744 0.035081 0.325551
0.720134 0.060121 0.374914
0.000000 0.179492 0.321645
0.000000 0.167987 0.357610
0.028458 0.128069 0.470756
0.244022 0.063951 0.455360
0.378363 0.065202 0.370809
0.498253 0.062837 0.347494
0.619181 0.043549 0.325719
0.726223 0.058396 0.351766
0.764614 0.146532 0.421805
0.000000 0.300175 0.386969
0.000000 0.282399 0.376776
0.025361 0.291402 0.392584
0.211414 0.280537 0.452262
0.412284 0.260609 0.414527
0.559350 0.243717 0.405142
0.741878 0.191943 0.393561
0.797299 0.205020 0.402014
0.819867 0.269459 0.435920
0.000000 0.469306 0.468711
0.000000 0.452979 0.451270
0.000000 0.440909 0.438254
0.133501 0.446250 0.444038
0.405844 0.428351 0.430030
0.579477 0.421668 0.421225
0.752529 0.399619 0.403235
0.841550 0.372702 0.387381
0.848630 0.408957 0.421744
0.025086 0.614633 0.545159
0.018830 0.602609 0.513069
0.019959 0.600488 0.482063
0.042161 0.600275 0.423270
0.318379 0.603159 0.392340
0.557748 0.570581 0.418479
0.721248 0.566903 0.431708
0.843351 0.583749 0.427420
0.871550 0.604746 0.477943
0.103639 0.752743 0.590555
0.098176 0.750332 0.539528
0.098146 0.750164 0.504356
0.105241 0.748837 0.459190
0.208133 0.770611 0.371878
0.546899 0.743954 0.404028
0.719539 0.715373 0.439429
0.847074 0.721645 0.444846
0.901106 0.756573 0.526299
0.228138 0.862394 0.638972
0.220951 0.863493 0.597528
0.219989 0.863523 0.571237
0.223545 0.865110 0.536294
0.254902 0.878737 0.455329
0.609369 0.883803 0.451087
0.734905 0.859556 0.493065
0.859998 0.837690 0.507500
0.917739 0.854414 0.596994
0.465187 0.929778 0.716625
0.436377 0.927825 0.686793
0.412512 0.927062 0.662028
0.419959 0.930831 0.637888
0.458701 0.939315 0.595315
0.665049 0.952499 0.604898
0.786511 0.946212 0.634958
0.873518 0.932082 0.667338
0.939422 0.925109 0.701183
0.000000 0.062257 0.516213
0.000000 0.050233 0.534020
0.075242 0.036744 0.520592
0.203937 0.025696 0.486839
0.322179 0.017029 0.436194
0.429419 0.023407 0.406760
0.554147 0.036942 0.393164
0.669581 0.052476 0.400351
0.716014 0.072679 0.438544
0.000000 0.074845 0.480140
0.000000 0.061936 0.511879
0.006699 0.042008 0.521737
0.176532 0.028458 0.501488
0.327459 0.018265 0.455268
0.444007 0.026734 0.416495
0.566171 0.041581 0.398703
0.680110 0.057435 0.407965
0.717006 0.077958 0.448859
0.000000 0.182437 0.438056
0.000000 0.151965 0.475685
0.000000 0.096986 0.567803
0.155138 0.040131 0.545830
0.321889 0.020401 0.475639
0.446952 0.030060 0.418845
0.580026 0.047776 0.403174
0.692668 0.062715 0.411551
0.728267 0.100587 0.468666
0.000000 0.305150 0.433127
0.000000 0.291493 0.431678
0.004105 0.314031 0.468696
0.160464 0.262806 0.598795
0.399756 0.201358 0.599405
0.545602 0.204044 0.512108
0.684123 0.194537 0.489525
0.771481 0.186496 0.486381
0.787030 0.241489 0.535210
0.000000 0.453620 0.534051
0.000000 0.432364 0.522057
0.000000 0.427283 0.527825
0.136233 0.420890 0.523339
0.354879 0.416709 0.572183
0.548745 0.402869 0.537362
0.709850 0.385565 0.527794
0.833936 0.346868 0.522148
0.839414 0.378653 0.539757
0.010498 0.615122 0.608515
0.005936 0.598764 0.590417
0.007492 0.589441 0.580468
0.024598 0.577951 0.567971
0.299092 0.569528 0.564904
0.538872 0.556039 0.553536
0.716274 0.551507 0.547829
0.851438 0.547494 0.541787
0.865232 0.543252 0.537438
0.105226 0.737133 0.672465
0.096467 0.725933 0.644007
0.093935 0.722042 0.621530
0.097948 0.719646 0.583368
0.181659 0.733394 0.532967
0.488960 0.740291 0.531075
0.707347 0.717128 0.570672
0.840146 0.724468 0.592432
0.897169 0.754223 0.597086
0.215503 0.840894 0.721355
0.207858 0.840574 0.687770
0.209384 0.843061 0.655802
0.210224 0.843870 0.619684
0.224506 0.847120 0.571633
0.479408 0.883085 0.560998
0.715831 0.869551 0.602899
0.852201 0.849470 0.636927
0.929030 0.855833 0.657374
0.449134 0.921462 0.775509
0.437354 0.922194 0.747097
0.416205 0.921263 0.724132
0.422095 0.924071 0.704402
0.448249 0.930617 0.680476
0.516197 0.945785 0.627527
0.769039 0.949859 0.664347
0.876509 0.942473 0.715908
0.948150 0.935821 0.736370
0.000000 0.075029 0.611170
0.000000 0.065537 0.623087
0.044450 0.047517 0.618967
0.180224 0.037461 0.604044
0.318639 0.029358 0.579019
0.445686 0.035798 0.546639
0.568048 0.056169 0.516625
0.675578 0.076753 0.507637
0.712291 0.092210 0.529473
0.000000 0.095232 0.573404
0.000000 0.075822 0.604181
0.000000 0.057572 0.610483
0.136370 0.039948 0.604883
0.306508 0.031098 0.593057
0.449592 0.038941 0.558312
0.574868 0.059510 0.521523
0.680095 0.080171 0.510765
0.713237 0.094987 0.536416
0.000000 0.170886 0.549889
0.000000 0.133486 0.573190
0.000000 0.087053 0.632975
0.084398 0.047257 0.624659
0.290028 0.033860 0.614130
0.453956 0.043504 0.576226
0.583490 0.064347 0.528588
0.686610 0.084688 0.514397
0.715770 0.099718 0.539651
0.000000 0.330343 0.503059
0.000000 0.316197 0.513985
0.000000 0.322133 0.584924
0.114092 0.253758 0.734035
0.338582 0.180270 0.745861
0.522408 0.139895 0.675074
0.646265 0.150027 0.590387
0.738079 0.156527 0.562951
0.760937 0.204486 0.599878
0.045151 0.453040 0.586633
0.041794 0.429923 0.565637
0.047394 0.422995 0.564553
0.099092 0.454444 0.616724
0.309361 0.414755 0.727825
0.541787 0.367880 0.736507
0.690394 0.361288 0.643656
0.802197 0.350347 0.627253
0.811261 0.349874 0.649592
0.000000 0.592111 0.662425
0.000000 0.575265 0.654322
0.000000 0.570230 0.659678
0.067796 0.557702 0.665187
0.293645 0.544198 0.651392
0.488334 0.548012 0.701686
0.682857 0.533410 0.661295
0.813382 0.527520 0.661875
0.845060 0.504723 0.669032
0.090761 0.738155 0.726528
0.083314 0.724102 0.711391
0.081727 0.715846 0.701930
0.085725 0.705013 0.690486
0.167193 0.706294 0.691585
0.465568 0.703288 0.694957
0.689693 0.700923 0.693004
0.833555 0.707607 0.700908
0.886687 0.713497 0.704753
0.211109 0.828992 0.780285
0.203372 0.823835 0.765667
0.201678 0.820462 0.751736
0.200580 0.817288 0.732448
0.213840 0.817334 0.698451
0.451423 0.844938 0.694148
0.677958 0.860273 0.704509
0.841901 0.845899 0.736385
0.921996 0.857206 0.754345
0.409659 0.905104 0.826703
0.405325 0.906355 0.812192
0.398184 0.907393 0.794949
0.414954 0.910948 0.776944
0.440330 0.914885 0.758190
0.489632 0.924300 0.737942
0.709163 0.949401 0.756451
0.867658 0.941192 0.788418
0.939651 0.937713 0.810803
0.000000 0.095918 0.706493
0.000000 0.084062 0.709270
0.005890 0.066850 0.698909
0.140047 0.048691 0.690074
0.288212 0.040787 0.676707
0.445548 0.043992 0.675273
0.585367 0.074418 0.645991
0.683848 0.095277 0.623789
0.702770 0.102937 0.627894
0.000000 0.126513 0.664286
0.000000 0.100664 0.704295
0.000000 0.076204 0.691203
0.088991 0.051789 0.687282
0.267109 0.042512 0.686427
0.439933 0.046525 0.688350
0.584909 0.076051 0.649836
0.684916 0.096742 0.624384
0.704356 0.104952 0.627344
0.000000 0.176669 0.631266
0.000000 0.145937 0.656001
0.000000 0.116411 0.709514
0.037553 0.064653 0.705730
0.247471 0.049836 0.711116
0.436484 0.052140 0.707820
0.585504 0.078859 0.656352
0.687999 0.099779 0.627237
0.707546 0.108583 0.626719
0.000000 0.355749 0.586648
0.000000 0.338262 0.606607
0.000000 0.326467 0.653834
0.087144 0.289708 0.808469
0.299138 0.209827 0.837980
0.488792 0.154025 0.799344
0.619486 0.122072 0.700343
0.704952 0.123293 0.643763
0.735912 0.169604 0.661967
0.064042 0.464836 0.624002
0.052338 0.449805 0.616892
0.045716 0.443458 0.621164
0.090776 0.489006 0.696620
0.282719 0.436988 0.839017
0.504372 0.382834 0.868681
0.693019 0.330785 0.795483
0.783749 0.322744 0.724712
0.791974 0.326986 0.722072
0.061448 0.593973 0.720073
0.071733 0.575235 0.708965
0.090944 0.567483 0.708965
0.139269 0.558816 0.711833
0.265156 0.571054 0.738354
0.458824 0.558831 0.825925
0.684474 0.514717 0.823880
0.794736 0.510857 0.752300
0.838193 0.508034 0.750607
0.008255 0.729625 0.773816
0.000000 0.715984 0.767605
0.000000 0.706905 0.765972
0.013886 0.696742 0.766415
0.180407 0.694896 0.784649
0.457664 0.686183 0.772931
0.650843 0.694606 0.813306
0.808194 0.690471 0.788418
0.873564 0.693919 0.797177
0.199512 0.829984 0.816190
0.192203 0.824582 0.809873
0.189517 0.819043 0.803891
0.188449 0.812100 0.796033
0.200641 0.805341 0.789197
0.442832 0.823926 0.811963
0.657435 0.831632 0.824552
0.828244 0.832532 0.825681
0.910948 0.844343 0.839063
0.375128 0.895857 0.861357
0.373053 0.895003 0.856703
0.371633 0.893843 0.850828
0.386801 0.894179 0.844099
0.422232 0.895842 0.837903
0.483177 0.901976 0.829557
0.685893 0.922942 0.845884
0.845441 0.931792 0.855070
0.929793 0.930694 0.878233
0.000000 0.150591 0.750454
0.000000 0.142596 0.776806
0.000000 0.095705 0.760632
0.055482 0.064241 0.744274
0.239765 0.050812 0.740932
0.426139 0.053315 0.757092
0.594491 0.079591 0.736400
0.690120 0.111299 0.711604
0.693370 0.114733 0.714611
0.000000 0.172091 0.717525
0.000000 0.162371 0.736446
0.000000 0.123964 0.768765
0.013703 0.075013 0.749096
0.219287 0.055528 0.758968
0.415305 0.057801 0.769970
0.588647 0.080964 0.741985
0.688655 0.111849 0.711467
0.695171 0.116457 0.710353
0.000000 0.232441 0.683940
0.000000 0.225544 0.703944
0.000000 0.208728 0.730495
0.019959 0.143099 0.823972
0.221927 0.084169 0.814206
0.405554 0.067521 0.789181
0.584680 0.084657 0.750820
0.688762 0.113451 0.711803
0.697612 0.119356 0.707591
0.003250 0.390204 0.636286
0.000000 0.382727 0.655665
0.000000 0.371160 0.682551
0.057176 0.380179 0.823667
0.274739 0.287709 0.890791
0.482536 0.242741 0.880476
0.642924 0.188617 0.819623
0.715709 0.164065 0.746563
0.719570 0.163333 0.731792
0.072282 0.491508 0.669062
0.064515 0.482856 0.668360
0.056855 0.474327 0.670130
0.089983 0.519707 0.739300
0.272801 0.492348 0.871992
0.484535 0.441154 0.925124
0.683589 0.381735 0.889555
0.779095 0.341878 0.811337
0.777005 0.321889 0.794751
0.099351 0.605646 0.750301
0.107836 0.592096 0.743908
0.119280 0.581292 0.741985
0.148226 0.584009 0.754650
0.268162 0.603387 0.792905
0.458396 0.597696 0.889632
0.672816 0.555734 0.909560
0.800885 0.513756 0.849821
0.830365 0.499641 0.819913
0.000000 0.712306 0.791699
0.013901 0.710750 0.799207
0.053590 0.707698 0.806882
0.131472 0.694057 0.808637
0.281224 0.698192 0.823331
0.467140 0.702144 0.825055
0.643839 0.714321 0.890471
0.815610 0.686671 0.887892
0.869963 0.686473 0.851041
0.159152 0.829084 0.848264
0.158114 0.825635 0.847532
0.160418 0.819989 0.846464
0.168444 0.812284 0.845365
0.235508 0.818341 0.861555
0.446448 0.832807 0.884398
0.655467 0.827222 0.877424
0.805386 0.829419 0.890837
0.894514 0.832517 0.884474
0.364126 0.894942 0.881895
0.370489 0.896361 0.883040
0.367300 0.894713 0.880919
0.388464 0.895064 0.881605
0.429572 0.895445 0.882475
0.493507 0.897810 0.886015
0.687190 0.913100 0.905760
0.832700 0.916426 0.912840
0.918715 0.922042 0.919509
