app/src/main/assets/lut_presets/#U660e#U4eae#U6e05#U65b0.cube
TITLE "明亮清新 (33)"
# Resampled from 64 to 33 by scripts/resample_cube_luts.py
# Source: 明亮清新.cube
LUT_3D_SIZE 5
0.021912 0.021485 0.019318
0.380232 0.000000 0.000000
0.782132 0.000000 0.000000
0.952445 0.000000 0.000000
1.000000 0.226108 0.123568
0.000000 0.384551 0.040238
0.317168 0.350421 0.027969
0.744664 0.321554 0.000000
0.936143 0.324758 0.000000
1.000000 0.371954 0.134722
0.175494 0.762325 0.311025
0.395983 0.756523 0.330865
0.670413 0.690600 0.288418
0.891119 0.639837 0.117201
1.000000 0.605295 0.201725
0.463416 0.908560 0.535225
0.524759 0.909520 0.539443
0.714397 0.893839 0.646662
0.833501 0.860756 0.549089
1.000000 0.842450 0.510162
0.683497 1.000000 0.727810
0.708194 1.000000 0.735584
0.787839 0.997040 0.774197
0.876852 0.989143 0.813710
0.967193 0.990692 0.798611
0.000000 0.062859 0.364652
0.392853 0.000000 0.371672
0.778885 0.000000 0.351785
0.946292 0.149531 0.335374
1.000000 0.306226 0.356321
0.000000 0.400471 0.376719
0.390212 0.383815 0.367220
0.753757 0.353508 0.337180
0.931916 0.371809 0.331463
1.000000 0.414723 0.361406
0.171634 0.759690 0.456401
0.472475 0.747219 0.499048
0.681996 0.696092 0.466379
0.888956 0.637729 0.340313
1.000000 0.618761 0.385584
0.510317 0.905757 0.608177
0.599421 0.903677 0.637182
0.737894 0.893494 0.697899
0.838533 0.862470 0.625853
1.000000 0.843702 0.571561
0.710284 1.000000 0.762806
0.732366 1.000000 0.768595
0.798230 0.997181 0.793427
0.885333 0.988983 0.834838
0.969169 0.990928 0.816068
0.000000 0.133654 0.744015
0.360059 0.047665 0.740864
0.741085 0.000000 0.727329
0.929179 0.212245 0.662764
1.000000 0.432197 0.650996
0.190917 0.467147 0.730773
0.381170 0.408139 0.729994
0.731533 0.363497 0.719183
0.917396 0.435762 0.668710
1.000000 0.533223 0.669161
0.000000 0.737316 0.710025
0.388522 0.728411 0.708007
0.707359 0.703990 0.698310
0.886481 0.686162 0.681945
1.000000 0.673449 0.671382
0.363916 0.908766 0.689719
0.529056 0.901926 0.710256
0.762512 0.889244 0.775164
0.854046 0.867431 0.758222
1.000000 0.839334 0.691139
0.655314 1.000000 0.780102
0.711834 1.000000 0.801171
0.821126 0.998444 0.843938
0.905642 0.989933 0.884882
0.975036 0.992004 0.860884
0.200869 0.294156 0.902892
0.395503 0.290053 0.900192
0.669494 0.285366 0.895766
0.895125 0.297578 0.890223
1.000000 0.360289 0.829496
0.336101 0.488287 0.894890
0.445070 0.476763 0.893368
0.673472 0.465364 0.890097
0.889482 0.454108 0.885770
1.000000 0.471655 0.831235
0.466941 0.726226 0.876780
0.560946 0.732232 0.875200
0.700822 0.714807 0.877199
0.878293 0.691827 0.876217
1.000000 0.689761 0.846006
0.387667 0.890463 0.871380
0.497658 0.887305 0.871615
0.695993 0.879202 0.870422
0.869022 0.869159 0.867766
1.000000 0.856981 0.858566
0.444991 1.000000 0.835607
0.550679 1.000000 0.845562
0.747990 1.000000 0.876192
0.915288 0.997048 0.925444
0.985153 0.994751 0.924369
0.527001 0.567224 1.000000
0.569917 0.566186 1.000000
0.687633 0.561181 1.000000
0.843938 0.541726 1.000000
1.000000 0.501518 1.000000
0.576143 0.646662 1.000000
0.608720 0.644186 1.000000
0.706058 0.634711 1.000000
0.848026 0.610802 1.000000
1.000000 0.567453 1.000000
0.683620 0.800885 1.000000
0.709270 0.801293 1.000000
0.747089 0.771344 1.000000
0.858812 0.748604 1.000000
1.000000 0.712565 1.000000
0.662669 0.893332 1.000000
0.694467 0.895262 1.000000
0.784626 0.901625 0.999622
0.873972 0.885722 1.000000
1.000000 0.864965 1.000000
0.560662 1.000000 1.000000
0.605005 1.000000 1.000000
0.723186 1.000000 1.000000
0.865117 1.000000 1.000000
1.000000 1.000000 1.000000
