app/src/main/assets/lut_presets/#U660e#U4eae#U6e05#U65b0.cube
TITLE "明亮清新 (33)"
# Resampled from 64 to 33 by scripts/resample_cube_luts.py
# Source: 明亮清新.cube
LUT_3D_SIZE 9
0.021912 0.021485 0.019318
0.133456 0.015022 0.018780
0.380232 0.000000 0.000000
0.624433 0.000000 0.000000
0.782132 0.000000 0.000000
0.876676 0.000000 0.000000
0.952445 0.000000 0.000000
1.000000 0.077524 0.000000
1.000000 0.226108 0.123568
0.029424 0.124403 0.051949
0.110954 0.120404 0.049223
0.363219 0.086383 0.000000
0.613969 0.000000 0.000000
0.773396 0.000000 0.000000
0.871073 0.000000 0.000000
0.948441 0.072046 0.000000
1.000000 0.182853 0.000000
1.000000 0.266529 0.123831
0.000000 0.384551 0.040238
0.071174 0.380268 0.031537
0.317168 0.350421 0.027969
0.574905 0.341715 0.000000
0.744664 0.321554 0.000000
0.853065 0.317888 0.000000
0.936143 0.324758 0.000000
1.000000 0.340761 0.000000
1.000000 0.371954 0.134722
0.000000 0.626070 0.174590
0.040803 0.626656 0.144545
0.360409 0.605046 0.231806
0.528320 0.555471 0.153867
0.703265 0.543330 0.000000
0.822990 0.504069 0.000000
0.915902 0.492276 0.000000
0.992983 0.485846 0.003564
1.000000 0.491997 0.160582
0.175494 0.762325 0.311025
0.227491 0.766572 0.303092
0.395983 0.756523 0.330865
0.559926 0.733461 0.374678
0.670413 0.690600 0.288418
0.791568 0.671841 0.205661
0.891119 0.639837 0.117201
0.975830 0.609754 0.088889
1.000000 0.605295 0.201725
0.330884 0.843789 0.428420
0.362275 0.847549 0.430672
0.445249 0.844290 0.433196
0.587093 0.833207 0.505042
0.677836 0.813699 0.495817
0.761156 0.783451 0.420352
0.862526 0.768958 0.362139
0.953154 0.744588 0.314526
1.000000 0.715874 0.288758
0.463416 0.908560 0.535225
0.482015 0.910325 0.539003
0.524759 0.909520 0.539443
0.622081 0.902906 0.586458
0.714397 0.893839 0.646662
0.766112 0.879894 0.607253
0.833501 0.860756 0.549089
0.924469 0.852900 0.512427
1.000000 0.842450 0.510162
0.579522 0.961326 0.634413
0.591245 0.961965 0.638368
0.619719 0.961035 0.644038
0.675568 0.957307 0.668595
0.745638 0.950648 0.711227
0.801390 0.944179 0.735463
0.843314 0.937123 0.708385
0.899044 0.926958 0.671151
0.982265 0.932235 0.668460
0.683497 1.000000 0.727810
0.691806 1.000000 0.731872
0.708194 1.000000 0.735584
0.737618 1.000000 0.745598
0.787839 0.997040 0.774197
0.839384 0.991222 0.807237
0.876852 0.989143 0.813710
0.916068 0.989178 0.803971
0.967193 0.990692 0.798611
0.020054 0.039693 0.122561
0.140516 0.001307 0.128951
0.392502 0.000000 0.125393
0.630956 0.000000 0.111402
0.779810 0.000000 0.098380
0.873204 0.000000 0.096475
0.949493 0.000000 0.112884
1.000000 0.130905 0.142259
1.000000 0.242817 0.192916
0.000824 0.140146 0.127935
0.141677 0.139616 0.128972
0.388714 0.087987 0.122901
0.620709 0.000000 0.108585
0.772471 0.000000 0.092880
0.868495 0.000000 0.091542
0.946058 0.122106 0.110633
1.000000 0.207364 0.142370
1.000000 0.281822 0.195263
0.000000 0.395767 0.158154
0.158600 0.392867 0.179398
0.343180 0.362552 0.169855
0.582218 0.342489 0.094989
0.745340 0.328108 0.065914
0.851521 0.325463 0.071468
0.934440 0.334510 0.105858
1.000000 0.350767 0.144729
1.000000 0.381481 0.204168
0.052658 0.625118 0.265534
0.201426 0.623120 0.268967
0.386161 0.604822 0.299842
0.536986 0.558119 0.239341
0.704613 0.543489 0.148008
0.822479 0.505689 0.057132
0.914884 0.496047 0.106083
0.991892 0.490372 0.156224
1.000000 0.497279 0.222958
0.259053 0.761321 0.384697
0.295850 0.764112 0.377171
0.415628 0.755417 0.377226
0.571285 0.733944 0.425517
0.672642 0.691185 0.339820
0.791391 0.672015 0.260529
0.890343 0.639161 0.191518
0.974930 0.611870 0.179391
1.000000 0.608221 0.253660
0.378040 0.843528 0.475035
0.405384 0.846888 0.477305
0.464897 0.844018 0.467124
0.597297 0.832778 0.529798
0.683640 0.813873 0.526138
0.762227 0.783910 0.452435
0.862002 0.769281 0.393501
0.952252 0.744490 0.346409
1.000000 0.715652 0.318469
0.491078 0.908101 0.564135
0.509897 0.910425 0.569178
0.547608 0.909031 0.568353
0.632188 0.902699 0.604616
0.721317 0.893788 0.661806
0.770414 0.880177 0.626487
0.834465 0.861052 0.568372
0.923946 0.853074 0.529634
1.000000 0.842866 0.525693
0.596096 0.960934 0.652410
0.608460 0.961973 0.657296
0.633953 0.960752 0.661296
0.682637 0.957249 0.679661
0.750322 0.950656 0.719698
0.805927 0.944364 0.745425
0.845765 0.937220 0.718254
0.899820 0.927007 0.681008
0.982216 0.932484 0.676948
0.691329 1.000000 0.737259
0.700236 1.000000 0.741893
0.715262 1.000000 0.744572
0.741444 1.000000 0.751589
0.790640 0.997068 0.779069
0.841640 0.991341 0.811335
0.878860 0.989078 0.818701
0.917144 0.989144 0.808619
0.967639 0.990749 0.802723
0.000000 0.062859 0.364652
0.076799 0.007015 0.365550
0.392853 0.000000 0.371672
0.634729 0.000000 0.360878
0.778885 0.000000 0.351785
0.870226 0.052647 0.353897
0.946292 0.149531 0.335374
1.000000 0.236212 0.337500
1.000000 0.306226 0.356321
0.000000 0.179980 0.363367
0.091182 0.153266 0.365723
0.398633 0.076722 0.375739
0.629936 0.000000 0.360739
0.774307 0.051734 0.354523
0.868064 0.147372 0.337178
0.942990 0.224671 0.333965
1.000000 0.279312 0.337323
1.000000 0.334474 0.357161
0.000000 0.400471 0.376719
0.074617 0.400251 0.375619
0.390212 0.383815 0.367220
0.605976 0.363741 0.351506
0.753757 0.353508 0.337180
0.852157 0.358229 0.330345
0.931916 0.371809 0.331463
0.999686 0.387641 0.337929
1.000000 0.414723 0.361406
0.000000 0.622438 0.389366
0.108384 0.619908 0.397538
0.422430 0.602224 0.426512
0.560319 0.568385 0.407135
0.712796 0.543800 0.337947
0.824879 0.521876 0.322277
0.913371 0.513322 0.328700
0.988493 0.509018 0.340920
1.000000 0.516304 0.370510
0.171634 0.759690 0.456401
0.290712 0.758969 0.471718
0.472475 0.747219 0.499048
0.601692 0.736231 0.538186
0.681996 0.696092 0.466379
0.793510 0.674678 0.394882
0.888956 0.637729 0.340313
0.972199 0.621404 0.347357
1.000000 0.618761 0.385584
0.372074 0.841809 0.529298
0.433941 0.842218 0.547379
0.532394 0.835979 0.567953
0.621437 0.830225 0.590962
0.704013 0.815563 0.609088
0.767418 0.786759 0.540464
0.861617 0.771139 0.481038
0.950211 0.744487 0.435564
1.000000 0.716556 0.409520
0.510317 0.905757 0.608177
0.548967 0.906398 0.625566
0.599421 0.903677 0.637182
0.655925 0.900610 0.649990
0.737894 0.893494 0.697899
0.784372 0.881522 0.680383
0.838533 0.862470 0.625853
0.923141 0.854194 0.582481
1.000000 0.843702 0.571561
0.623007 0.958662 0.689911
0.644617 0.958888 0.701534
0.666404 0.957900 0.703893
0.700418 0.956196 0.709611
0.762966 0.950556 0.743622
0.819984 0.945011 0.775442
0.853939 0.937906 0.748666
0.902811 0.927643 0.711904
0.982178 0.933056 0.702972
0.710284 1.000000 0.762806
0.718529 1.000000 0.766787
0.732366 1.000000 0.768595
0.755784 1.000000 0.773038
0.798230 0.997181 0.793427
0.848028 0.991760 0.823726
0.885333 0.988983 0.834838
0.920692 0.989157 0.823653
0.969169 0.990928 0.816068
0.000000 0.081796 0.589826
0.000000 0.058636 0.588745
0.371981 0.000000 0.595602
0.611455 0.000000 0.591815
0.767947 0.000000 0.565765
0.861890 0.000000 0.536814
0.936022 0.254222 0.530385
0.997770 0.366896 0.540687
1.000000 0.409308 0.540718
0.000000 0.193206 0.593640
0.000000 0.183796 0.595325
0.375658 0.137806 0.594660
0.609800 0.000000 0.589714
0.765029 0.000000 0.563786
0.858391 0.187346 0.538605
0.932771 0.315734 0.534984
0.995450 0.403110 0.546853
1.000000 0.418755 0.535528
0.000000 0.431401 0.586135
0.169673 0.432129 0.585041
0.375930 0.390879 0.585979
0.600914 0.357049 0.581003
0.751586 0.359735 0.558903
0.845941 0.407360 0.547715
0.922410 0.455015 0.552159
0.991746 0.456718 0.535422
1.000000 0.473977 0.534784
0.000000 0.608124 0.579824
0.000000 0.607643 0.580339
0.367835 0.595608 0.573778
0.583403 0.576744 0.565998
0.725370 0.562480 0.551503
0.825287 0.555789 0.543007
0.908220 0.551102 0.535823
0.981058 0.547645 0.530137
1.000000 0.552794 0.534919
0.000000 0.754080 0.566379
0.048894 0.754352 0.571575
0.404482 0.742476 0.581465
0.612520 0.726928 0.613882
0.695041 0.701552 0.596351
0.794985 0.675159 0.542147
0.886035 0.651724 0.522678
0.966553 0.641726 0.523824
1.000000 0.639706 0.536595
0.274966 0.840932 0.590403
0.352972 0.841351 0.600494
0.508565 0.832069 0.624058
0.651073 0.821935 0.664701
0.733496 0.818051 0.698864
0.776370 0.790450 0.642089
0.861827 0.772928 0.584373
0.947768 0.742460 0.541269
1.000000 0.727341 0.540996
0.460463 0.907223 0.638617
0.502694 0.907749 0.650972
0.599094 0.901089 0.679874
0.690911 0.895172 0.712854
0.753904 0.892847 0.737541
0.804513 0.884489 0.744589
0.845512 0.864664 0.695548
0.922975 0.855734 0.650984
1.000000 0.843829 0.632728
0.591151 0.961223 0.702251
0.617079 0.961191 0.713596
0.676182 0.956736 0.738166
0.731456 0.953258 0.758594
0.776397 0.950934 0.773402
0.835825 0.946575 0.808954
0.866029 0.939497 0.790147
0.907733 0.928898 0.753708
0.983198 0.933943 0.738880
0.692748 1.000000 0.770294
0.708103 1.000000 0.778485
0.743299 1.000000 0.794791
0.775257 1.000000 0.804753
0.806331 0.998043 0.812861
0.855711 0.992851 0.840804
0.895021 0.989063 0.858843
0.926136 0.989372 0.846283
0.971664 0.991310 0.836305
0.000000 0.133654 0.744015
0.000000 0.125885 0.743982
0.360059 0.047665 0.740864
0.583448 0.000000 0.734177
0.741085 0.000000 0.727329
0.849620 0.000000 0.694253
0.929179 0.212245 0.662764
0.993605 0.341012 0.648118
1.000000 0.432197 0.650996
0.000000 0.230602 0.742931
0.005596 0.226197 0.742352
0.367893 0.200397 0.738596
0.581897 0.137454 0.732020
0.739104 0.055036 0.725619
0.847263 0.161107 0.693059
0.926345 0.283042 0.663603
0.991361 0.379910 0.650784
1.000000 0.457721 0.654765
0.190917 0.467147 0.730773
0.268763 0.462262 0.731223
0.381170 0.408139 0.729994
0.575648 0.383668 0.724393
0.731533 0.363497 0.719183
0.838984 0.384225 0.689783
0.917396 0.435762 0.668710
0.984080 0.484904 0.661970
1.000000 0.533223 0.669161
0.151181 0.609937 0.718345
0.253529 0.610138 0.718388
0.432737 0.605961 0.713165
0.573511 0.579614 0.711782
0.719511 0.561067 0.708664
0.823991 0.567067 0.689369
0.903285 0.587070 0.682675
0.972549 0.606785 0.684134
1.000000 0.612621 0.680524
0.000000 0.737316 0.710025
0.165068 0.737254 0.711619
0.388522 0.728411 0.708007
0.568564 0.715523 0.702298
0.707359 0.703990 0.698310
0.803256 0.695151 0.689932
0.886481 0.686162 0.681945
0.961663 0.677270 0.673978
1.000000 0.673449 0.671382
0.000000 0.837747 0.679850
0.152611 0.838002 0.683373
0.398810 0.829227 0.687617
0.592870 0.817037 0.703302
0.733328 0.809609 0.736742
0.786797 0.793723 0.725141
0.863205 0.771591 0.679364
0.945808 0.749690 0.658484
1.000000 0.746424 0.665707
0.363916 0.908766 0.689719
0.414471 0.908731 0.696146
0.529056 0.901926 0.710256
0.660305 0.893350 0.739943
0.762512 0.889244 0.775164
0.826696 0.889699 0.804425
0.854046 0.867431 0.758222
0.925504 0.855748 0.713866
1.000000 0.839334 0.691139
0.532410 0.965091 0.725889
0.561708 0.964826 0.734049
0.631096 0.959864 0.752352
0.716986 0.953934 0.781491
0.790913 0.950365 0.809969
0.843763 0.948670 0.832934
0.880336 0.942618 0.834719
0.914013 0.930836 0.798037
0.986257 0.934676 0.777372
0.655314 1.000000 0.780102
0.672078 1.000000 0.786956
0.711834 1.000000 0.801171
0.769320 1.000000 0.824157
0.821126 0.998444 0.843938
0.860573 0.995088 0.858486
0.905642 0.989933 0.884882
0.932822 0.989973 0.873432
0.975036 0.992004 0.860884
0.000000 0.207839 0.834516
0.122884 0.205145 0.833399
0.363747 0.189732 0.829651
0.548879 0.158751 0.824418
0.701709 0.130112 0.820979
0.826485 0.141100 0.818165
0.916489 0.226553 0.785783
0.988924 0.300749 0.753118
1.000000 0.399019 0.737759
0.008702 0.282549 0.831993
0.179867 0.279740 0.831066
0.375699 0.266977 0.827478
0.550712 0.245850 0.822670
0.700968 0.230130 0.819451
0.824593 0.234646 0.816609
0.914422 0.287423 0.784845
0.986958 0.344754 0.753697
1.000000 0.426731 0.739524
0.290987 0.480181 0.822163
0.300721 0.461077 0.822625
0.405323 0.435183 0.820449
0.556543 0.421720 0.816616
0.697769 0.410538 0.814133
0.818560 0.406852 0.811756
0.908312 0.426595 0.783043
0.980824 0.458236 0.757134
1.000000 0.507732 0.746660
0.356142 0.624426 0.808406
0.395067 0.624230 0.808629
0.492464 0.619580 0.807333
0.573737 0.588513 0.807353
0.695026 0.577455 0.805951
0.809971 0.567563 0.804532
0.899277 0.569979 0.782133
0.971163 0.586800 0.765618
1.000000 0.609955 0.760253
0.318267 0.718309 0.802115
0.365774 0.718671 0.802617
0.478288 0.716438 0.799814
0.606432 0.717828 0.796283
0.701411 0.707297 0.797165
0.801780 0.695333 0.797139
0.888640 0.692109 0.784028
0.960282 0.698974 0.778205
1.000000 0.708490 0.778523
0.258250 0.819709 0.796714
0.316095 0.819529 0.797903
0.441217 0.813998 0.796179
0.578319 0.806966 0.794352
0.696475 0.800066 0.792234
0.794668 0.793937 0.791073
0.873533 0.784958 0.783085
0.948075 0.776897 0.776725
1.000000 0.771587 0.773191
0.213591 0.906128 0.768831
0.279037 0.905986 0.770418
0.413104 0.900945 0.771386
0.569715 0.893110 0.778616
0.711173 0.885901 0.796885
0.822108 0.884193 0.827735
0.863132 0.870096 0.815951
0.929774 0.851732 0.775714
1.000000 0.837927 0.763485
0.421194 0.969950 0.767884
0.457685 0.969495 0.772191
0.547331 0.964450 0.782122
0.656715 0.957877 0.800862
0.759616 0.952078 0.827302
0.847333 0.949108 0.859222
0.898921 0.948158 0.882462
0.921965 0.933736 0.845185
0.991444 0.934380 0.819092
0.586900 1.000000 0.798852
0.607173 1.000000 0.804014
0.657415 1.000000 0.815592
0.726844 1.000000 0.834494
0.803367 1.000000 0.860100
0.868583 0.997359 0.884855
0.911174 0.993083 0.903005
0.941871 0.991081 0.905702
0.979488 0.993111 0.890375
0.200869 0.294156 0.902892
0.260200 0.293159 0.902144
0.395503 0.290053 0.900192
0.538557 0.286517 0.898120
0.669494 0.285366 0.895766
0.786355 0.289595 0.893164
0.895125 0.297578 0.890223
0.976371 0.339278 0.861110
1.000000 0.360289 0.829496
0.241925 0.349620 0.901030
0.289947 0.348520 0.900456
0.408611 0.343924 0.898633
0.543146 0.339573 0.896722
0.670218 0.337145 0.894431
0.785764 0.337843 0.891866
0.893590 0.341368 0.889054
0.974969 0.373588 0.860656
1.000000 0.388332 0.829664
0.336101 0.488287 0.894890
0.357118 0.481728 0.894880
0.445070 0.476763 0.893368
0.558311 0.471320 0.891880
0.673472 0.465364 0.890097
0.784564 0.458978 0.888027
0.889482 0.454108 0.885770
0.970782 0.468232 0.859831
1.000000 0.471655 0.831235
0.466897 0.643408 0.884144
0.489719 0.644528 0.884306
0.536670 0.636103 0.884085
0.587716 0.609401 0.884812
0.683357 0.601665 0.883722
0.784717 0.591382 0.882488
0.883746 0.581099 0.881045
0.964564 0.581845 0.859505
1.000000 0.582247 0.836660
0.466941 0.726226 0.876780
0.492281 0.728164 0.877007
0.560946 0.732232 0.875200
0.643500 0.734382 0.875334
0.700822 0.714807 0.877199
0.785868 0.704236 0.876850
0.878293 0.691827 0.876217
0.958057 0.686644 0.860023
1.000000 0.689761 0.846006
0.434007 0.801555 0.873903
0.461430 0.802168 0.874456
0.534372 0.801751 0.873258
0.629021 0.803240 0.871981
0.718519 0.805870 0.870409
0.789867 0.796696 0.871590
0.873473 0.785843 0.871683
0.950994 0.781648 0.862068
1.000000 0.785616 0.857741
0.387667 0.890463 0.871380
0.418576 0.890413 0.872237
0.497658 0.887305 0.871615
0.598749 0.883329 0.871082
0.695993 0.879202 0.870422
0.786024 0.874327 0.868896
0.869022 0.869159 0.867766
0.939645 0.861571 0.861356
1.000000 0.856981 0.858566
0.341513 0.969254 0.846989
0.376116 0.969175 0.848345
0.459088 0.965963 0.849021
0.564874 0.961437 0.850952
0.681310 0.955437 0.857642
0.799288 0.949080 0.874360
0.897146 0.947663 0.902921
0.931414 0.937557 0.893260
0.998937 0.930347 0.864747
0.444991 1.000000 0.835607
0.474776 1.000000 0.838607
0.550679 1.000000 0.845562
0.649039 1.000000 0.858322
0.747990 1.000000 0.876192
0.840094 1.000000 0.899074
0.915288 0.997048 0.925444
0.955131 0.992943 0.942618
0.985153 0.994751 0.924369
0.362787 0.409701 0.963737
0.387674 0.409704 0.963473
0.460616 0.410285 0.962566
0.556769 0.410651 0.961119
0.658011 0.410142 0.959283
0.759575 0.408854 0.957597
0.858626 0.408625 0.956382
0.957890 0.404283 0.955112
1.000000 0.424422 0.930282
0.384284 0.448072 0.962425
0.406409 0.447903 0.962245
0.472522 0.446893 0.961356
0.562984 0.445238 0.959956
0.660540 0.442349 0.958145
0.760034 0.438915 0.956576
0.858310 0.436389 0.955461
0.956953 0.430119 0.954341
1.000000 0.445970 0.929984
0.440290 0.545260 0.958133
0.457147 0.545051 0.958096
0.508129 0.542200 0.957371
0.583555 0.537893 0.956278
0.670162 0.531663 0.954819
0.762924 0.524414 0.953632
0.858205 0.516728 0.952892
0.954213 0.506424 0.952141
1.000000 0.511633 0.929414
0.562595 0.682398 0.949933
0.565354 0.677737 0.950495
0.570777 0.656926 0.951293
0.618758 0.646098 0.951013
0.689137 0.638510 0.950060
0.770388 0.629101 0.949410
0.859519 0.617599 0.949205
0.950447 0.603493 0.949017
1.000000 0.599420 0.929070
0.581529 0.755089 0.943664
0.594941 0.756531 0.944108
0.631349 0.757733 0.943961
0.680120 0.756189 0.944418
0.711199 0.731788 0.945467
0.779774 0.722198 0.945320
0.861844 0.709979 0.945602
0.946759 0.696850 0.945765
1.000000 0.689588 0.929270
0.565824 0.812121 0.941215
0.581647 0.813865 0.941529
0.624151 0.816808 0.940698
0.683219 0.821389 0.939537
0.744232 0.821796 0.939433
0.790663 0.804221 0.941524
0.863005 0.794703 0.942129
0.943417 0.783556 0.942688
1.000000 0.775864 0.930064
0.530981 0.876618 0.940364
0.548569 0.877490 0.940898
0.594586 0.877687 0.940368
0.658464 0.878202 0.939586
0.729956 0.878977 0.938322
0.804244 0.880884 0.937042
0.866410 0.872997 0.938746
0.940501 0.864048 0.939895
1.000000 0.859488 0.932369
0.479608 0.956338 0.939654
0.499985 0.956469 0.940372
0.551484 0.954634 0.940071
0.623917 0.951966 0.939606
0.703227 0.948564 0.938796
0.784226 0.945119 0.938153
0.863313 0.941585 0.937669
0.938175 0.938352 0.937842
1.000000 0.934023 0.934871
0.412493 1.000000 0.918185
0.436024 1.000000 0.919032
0.496425 1.000000 0.919624
0.580315 1.000000 0.920792
0.668698 1.000000 0.922326
0.764862 1.000000 0.926640
0.874964 1.000000 0.941296
0.960823 0.998047 0.965440
0.992024 0.996673 0.962265
0.527001 0.567224 1.000000
0.536812 0.566899 1.000000
0.569917 0.566186 1.000000
0.622419 0.564603 1.000000
0.687633 0.561181 1.000000
0.761730 0.554528 1.000000
0.843938 0.541726 1.000000
0.926879 0.525185 1.000000
1.000000 0.501518 1.000000
0.538967 0.587598 1.000000
0.548144 0.587168 1.000000
0.579011 0.585968 1.000000
0.628784 0.583620 1.000000
0.691630 0.579334 1.000000
0.763829 0.571749 1.000000
0.844690 0.558324 1.000000
0.926854 0.541198 1.000000
1.000000 0.517116 1.000000
0.576143 0.646662 1.000000
0.583650 0.646266 1.000000
0.608720 0.644186 1.000000
0.650722 0.640537 1.000000
0.706058 0.634711 1.000000
0.772116 0.625538 1.000000
0.848026 0.610802 1.000000
0.927448 0.592132 1.000000
1.000000 0.567453 1.000000
0.639727 0.729904 1.000000
0.640875 0.726413 1.000000
0.648176 0.715790 1.000000
0.681326 0.711526 1.000000
0.727197 0.704778 1.000000
0.784717 0.694632 1.000000
0.853306 0.679440 1.000000
0.928651 0.659892 1.000000
1.000000 0.636637 1.000000
0.683620 0.800885 1.000000
0.689997 0.801347 1.000000
0.709270 0.801293 1.000000
0.719726 0.785826 1.000000
0.747089 0.771344 1.000000
0.797021 0.761925 1.000000
0.858812 0.748604 1.000000
0.930495 0.731626 1.000000
1.000000 0.712565 1.000000
0.689211 0.852236 1.000000
0.696507 0.853335 1.000000
0.716750 0.854429 1.000000
0.746312 0.852842 1.000000
0.785094 0.849435 1.000000
0.810386 0.828356 1.000000
0.865381 0.818049 1.000000
0.933064 0.804234 1.000000
1.000000 0.789486 1.000000
0.662669 0.893332 1.000000
0.670205 0.893870 1.000000
0.694467 0.895262 1.000000
0.734231 0.897885 1.000000
0.784626 0.901625 0.999622
0.836202 0.902086 0.999900
0.873972 0.885722 1.000000
0.934598 0.875923 1.000000
1.000000 0.864965 1.000000
0.623591 0.947505 1.000000
0.631949 0.947582 1.000000
0.659661 0.947716 1.000000
0.704392 0.948162 1.000000
0.760348 0.948827 1.000000
0.822156 0.949815 1.000000
0.886120 0.951667 0.999980
0.939477 0.945011 1.000000
1.000000 0.936706 1.000000
0.560662 1.000000 1.000000
0.570951 1.000000 1.000000
0.605005 1.000000 1.000000
0.658335 1.000000 1.000000
0.723186 1.000000 1.000000
0.793618 1.000000 1.000000
0.865117 1.000000 1.000000
0.936427 1.000000 1.000000
1.000000 1.000000 1.000000
