app/src/main/assets/lut_presets/#U660e#U4eae#U6e05#U65b0.cube
TITLE "明亮清新 (33)"
# Resampled from 64 to 33 by scripts/resample_cube_luts.py
# Source: 明亮清新.cube
LUT_3D_SIZE 33
0.021912 0.021485 0.019318
0.048608 0.021609 0.018596
0.066482 0.021789 0.019801
0.091760 0.023326 0.019578
0.133456 0.015022 0.018780
0.188895 0.000000 0.014932
0.251049 0.000000 0.009060
0.315619 0.000000 0.000828
0.380232 0.000000 0.000000
0.443498 0.000000 0.000000
0.506961 0.000000 0.000000
0.569710 0.000000 0.000000
0.624433 0.000000 0.000000
0.671681 0.000000 0.000000
0.713224 0.000000 0.000000
0.749913 0.000000 0.000000
0.782132 0.000000 0.000000
0.809908 0.000000 0.000000
0.834081 0.000000 0.000000
0.855979 0.000000 0.000000
0.876676 0.000000 0.000000
0.896555 0.000000 0.000000
0.915866 0.000000 0.000000
0.934537 0.000000 0.000000
0.952445 0.000000 0.000000
0.969659 0.000000 0.000000
0.986158 0.000000 0.000000
1.000000 0.000391 0.000000
1.000000 0.077524 0.000000
1.000000 0.124785 0.001047
1.000000 0.159733 0.050066
1.000000 0.191239 0.087936
1.000000 0.226108 0.123568
0.024450 0.042890 0.022848
0.041339 0.042433 0.023454
0.064349 0.047614 0.021122
0.090905 0.051144 0.020372
0.131796 0.046735 0.018577
0.186354 0.007937 0.015833
0.247928 0.000000 0.010103
0.312211 0.000000 0.001054
0.376558 0.000000 0.000000
0.439863 0.000000 0.000000
0.504374 0.000000 0.000000
0.567091 0.000000 0.000000
0.621851 0.000000 0.000000
0.669306 0.000000 0.000000
0.710772 0.000000 0.000000
0.747601 0.000000 0.000000
0.779936 0.000000 0.000000
0.807820 0.000000 0.000000
0.832323 0.000000 0.000000
0.854502 0.000000 0.000000
0.875554 0.000000 0.000000
0.895818 0.000000 0.000000
0.915285 0.000000 0.000000
0.933960 0.000000 0.000000
0.951838 0.000000 0.000000
0.969030 0.000000 0.000000
0.985548 0.000000 0.000000
1.000000 0.009183 0.000000
1.000000 0.094365 0.000000
1.000000 0.134826 0.001059
1.000000 0.167140 0.051534
1.000000 0.197062 0.087966
1.000000 0.229795 0.122747
0.026684 0.062352 0.027768
0.042495 0.060847 0.029670
0.060309 0.061746 0.028937
0.087065 0.067879 0.024489
0.129204 0.066761 0.020216
0.182549 0.050626 0.016363
0.244094 0.003476 0.009536
0.307728 0.000000 0.000844
0.372415 0.000000 0.000000
0.436120 0.000000 0.000000
0.501999 0.000000 0.000000
0.564057 0.000000 0.000000
0.618630 0.000000 0.000000
0.666095 0.000000 0.000000
0.707802 0.000000 0.000000
0.744728 0.000000 0.000000
0.777347 0.000000 0.000000
0.805652 0.000000 0.000000
0.830495 0.000000 0.000000
0.852991 0.000000 0.000000
0.874340 0.000000 0.000000
0.894791 0.000000 0.000000
0.914302 0.000000 0.000000
0.932977 0.000000 0.000000
0.950819 0.000000 0.000000
0.967924 0.000000 0.000000
0.984399 0.000000 0.000000
0.999311 0.050764 0.000000
1.000000 0.110863 0.000000
1.000000 0.146250 0.000695
1.000000 0.176191 0.047762
1.000000 0.203943 0.087516
1.000000 0.234242 0.120933
0.031361 0.085173 0.039537
0.048110 0.084380 0.039299
0.062813 0.082709 0.044255
0.080946 0.084299 0.040621
0.120013 0.091854 0.031360
0.176324 0.088053 0.016571
0.236920 0.072177 0.008402
0.300967 0.019574 0.000735
0.365774 0.000000 0.000000
0.430857 0.000000 0.000000
0.497716 0.000000 0.000000
0.559179 0.000000 0.000000
0.613472 0.000000 0.000000
0.660976 0.000000 0.000000
0.702949 0.000000 0.000000
0.740253 0.000000 0.000000
0.773537 0.000000 0.000000
0.802449 0.000000 0.000000
0.827888 0.000000 0.000000
0.850852 0.000000 0.000000
0.872550 0.000000 0.000000
0.893058 0.000000 0.000000
0.912586 0.000000 0.000000
0.931202 0.000000 0.000000
0.948971 0.000000 0.000000
0.966087 0.000000 0.000000
0.982571 0.051926 0.000000
0.997813 0.106673 0.000000
1.000000 0.140339 0.000000
1.000000 0.168378 0.000380
1.000000 0.193705 0.043779
1.000000 0.218743 0.086621
1.000000 0.245851 0.119835
0.029424 0.124403 0.051949
0.040283 0.123488 0.044696
0.062010 0.121217 0.050836
0.081880 0.118966 0.055689
0.110954 0.120404 0.049223
0.163577 0.129526 0.032567
0.229860 0.127820 0.008592
0.296928 0.112743 0.000000
0.363219 0.086383 0.000000
0.432625 0.039760 0.000000
0.499576 0.000000 0.000000
0.560164 0.000000 0.000000
0.613969 0.000000 0.000000
0.661194 0.000000 0.000000
0.703023 0.000000 0.000000
0.740274 0.000000 0.000000
0.773396 0.000000 0.000000
0.802022 0.000000 0.000000
0.827136 0.000000 0.000000
0.849747 0.000000 0.000000
0.871073 0.000000 0.000000
0.891551 0.000000 0.000000
0.911217 0.000000 0.000000
0.930216 0.010935 0.000000
0.948441 0.072046 0.000000
0.965953 0.105443 0.000000
0.982755 0.137188 0.000000
0.998104 0.161548 0.000000
1.000000 0.182853 0.000000
1.000000 0.202273 0.001061
1.000000 0.221862 0.053929
1.000000 0.242449 0.089571
1.000000 0.266529 0.123831
0.004961 0.175139 0.053738
0.013134 0.177148 0.046827
0.037259 0.175658 0.045353
0.077496 0.170322 0.057844
0.109795 0.167697 0.058365
0.149989 0.166764 0.048054
0.210202 0.174553 0.023601
0.283762 0.177328 0.000327
0.356781 0.165800 0.000000
0.426252 0.149962 0.000000
0.492402 0.131007 0.000000
0.553053 0.103351 0.000000
0.607029 0.082765 0.000000
0.654762 0.064534 0.000000
0.696933 0.047387 0.000000
0.734642 0.029468 0.000000
0.768095 0.028376 0.000000
0.797195 0.045047 0.000000
0.822746 0.057685 0.000000
0.845940 0.068996 0.000000
0.867815 0.083516 0.000000
0.888785 0.100512 0.000000
0.908865 0.124865 0.000000
0.928167 0.143436 0.000000
0.946566 0.160871 0.000000
0.964291 0.177570 0.000000
0.981285 0.192671 0.000000
0.996948 0.208124 0.000000
1.000000 0.222619 0.000000
1.000000 0.237213 0.001695
1.000000 0.252261 0.056773
1.000000 0.269453 0.092707
1.000000 0.289896 0.126185
0.000000 0.234428 0.048276
0.000000 0.237216 0.037384
0.000810 0.236258 0.025185
0.055648 0.231706 0.041106
0.104685 0.225172 0.062164
0.148731 0.224087 0.054988
0.199182 0.223368 0.036038
0.266394 0.230606 0.004348
0.342462 0.235174 0.000000
0.414474 0.226419 0.000000
0.481359 0.211638 0.000000
0.542235 0.201002 0.000000
0.596933 0.192101 0.000000
0.645078 0.184661 0.000000
0.687954 0.179266 0.000000
0.726279 0.176353 0.000000
0.760473 0.175748 0.000000
0.790523 0.176974 0.000000
0.816926 0.179114 0.000000
0.840772 0.182806 0.000000
0.863419 0.188348 0.000000
0.884851 0.195591 0.000000
0.905301 0.203756 0.000000
0.924848 0.212226 0.000000
0.943436 0.221729 0.000000
0.961334 0.231093 0.000000
0.978440 0.241119 0.000000
0.994726 0.251173 0.000000
1.000000 0.261362 0.000000
1.000000 0.272623 0.001882
1.000000 0.284559 0.059484
1.000000 0.298001 0.094255
1.000000 0.314977 0.127089
0.000000 0.297931 0.038601
0.000000 0.301904 0.025317
0.000000 0.301936 0.009205
0.004186 0.299841 0.011955
0.092975 0.296492 0.048923
0.148430 0.292929 0.065889
0.200583 0.289910 0.052471
0.254537 0.284243 0.023600
0.321949 0.287980 0.001037
0.397160 0.293623 0.000000
0.466605 0.288116 0.000000
0.528777 0.275851 0.000000
0.583954 0.264279 0.000000
0.633143 0.259961 0.000000
0.676981 0.256830 0.000000
0.716222 0.254983 0.000000
0.751505 0.254288 0.000000
0.782741 0.254407 0.000000
0.810206 0.254793 0.000000
0.835050 0.255659 0.000000
0.858243 0.257965 0.000000
0.880207 0.261193 0.000000
0.900919 0.265159 0.000000
0.920692 0.269537 0.000000
0.939480 0.274282 0.000000
0.957532 0.280089 0.000000
0.974872 0.286087 0.000000
0.991717 0.292706 0.000000
1.000000 0.300189 0.000000
1.000000 0.308649 0.002041
1.000000 0.317789 0.061061
1.000000 0.328522 0.096611
1.000000 0.342133 0.129275
0.000000 0.384551 0.040238
0.000000 0.385513 0.024134
0.000000 0.385040 0.001025
0.000000 0.383873 0.000000
0.071174 0.380268 0.031537
0.151634 0.374783 0.077481
0.209029 0.368598 0.081096
0.263219 0.360830 0.063197
0.317168 0.350421 0.027969
0.382898 0.350950 0.000489
0.453487 0.355160 0.000000
0.518076 0.351566 0.000000
0.574905 0.341715 0.000000
0.624316 0.329862 0.000000
0.668646 0.323856 0.000000
0.708660 0.322439 0.000000
0.744664 0.321554 0.000000
0.776540 0.320580 0.000000
0.804515 0.319318 0.000000
0.829613 0.318086 0.000000
0.853065 0.317888 0.000000
0.875267 0.318590 0.000000
0.896429 0.320019 0.000000
0.916738 0.322103 0.000000
0.936143 0.324758 0.000000
0.954756 0.328002 0.000000
0.972603 0.331640 0.000000
0.989857 0.336063 0.000000
1.000000 0.340761 0.000000
1.000000 0.346256 0.005832
1.000000 0.352647 0.069272
1.000000 0.360959 0.101924
1.000000 0.371954 0.134722
0.000000 0.460496 0.068994
0.000000 0.468387 0.062571
0.000000 0.468324 0.046888
0.000000 0.464968 0.004538
0.046592 0.459134 0.042516
0.151253 0.452043 0.086133
0.218442 0.443868 0.115651
0.271842 0.434090 0.104825
0.324158 0.422786 0.085189
0.375095 0.409644 0.055503
0.435317 0.405814 0.008178
0.502237 0.410988 0.000000
0.561975 0.409190 0.000000
0.613493 0.401843 0.000000
0.658288 0.391053 0.000000
0.698191 0.381109 0.000000
0.734789 0.378354 0.000000
0.767650 0.377037 0.000000
0.796500 0.375006 0.000000
0.822504 0.372831 0.000000
0.846824 0.371485 0.000000
0.869871 0.370758 0.000000
0.891710 0.370733 0.000000
0.912636 0.371053 0.000000
0.932592 0.371853 0.000000
0.951705 0.373110 0.000000
0.969933 0.374906 0.000000
0.987429 0.377081 0.000000
1.000000 0.379655 0.000000
1.000000 0.382857 0.013816
1.000000 0.387362 0.076118
1.000000 0.393431 0.108504
1.000000 0.402933 0.142015
0.000000 0.522395 0.099941
0.000000 0.530793 0.099127
0.000000 0.530953 0.091819
0.000000 0.528074 0.072681
0.004006 0.523006 0.071622
0.148342 0.516655 0.103185
0.223258 0.509531 0.134069
0.282519 0.500804 0.149851
0.332896 0.489910 0.133741
0.381988 0.477261 0.113355
0.429694 0.463200 0.088580
0.483008 0.456008 0.048584
0.545149 0.461474 0.007742
0.599246 0.460471 0.000000
0.645921 0.454488 0.000000
0.686837 0.445138 0.000000
0.723303 0.434038 0.000000
0.756423 0.426056 0.000000
0.786563 0.423684 0.000000
0.813778 0.421193 0.000000
0.839148 0.419176 0.000000
0.863062 0.417600 0.000000
0.885621 0.416273 0.000000
0.907039 0.415323 0.000000
0.927383 0.414639 0.000000
0.946881 0.414381 0.000000
0.965488 0.414374 0.000000
0.983380 0.414951 0.000000
0.999284 0.416059 0.000000
1.000000 0.417950 0.029619
1.000000 0.420682 0.083190
1.000000 0.425168 0.114185
1.000000 0.432569 0.147011
0.000000 0.573443 0.133785
0.000000 0.582696 0.134943
0.000000 0.583542 0.131067
0.000000 0.581266 0.117822
0.000000 0.577598 0.103666
0.149907 0.572441 0.126792
0.228020 0.566542 0.154315
0.293061 0.559697 0.183888
0.345007 0.550286 0.184322
0.391561 0.538614 0.165781
0.436921 0.525653 0.144725
0.480214 0.511150 0.119790
0.526430 0.501183 0.092157
0.582929 0.506015 0.047059
0.631753 0.505425 0.000000
0.674583 0.500299 0.000000
0.712503 0.492183 0.000000
0.746382 0.481815 0.000000
0.776586 0.470800 0.000000
0.804626 0.464998 0.000000
0.831047 0.462720 0.000000
0.855714 0.460520 0.000000
0.878850 0.458253 0.000000
0.900766 0.456199 0.000000
0.921540 0.454399 0.000000
0.941407 0.452793 0.000000
0.960358 0.451686 0.000000
0.978675 0.450958 0.000000
0.995925 0.450912 0.000000
1.000000 0.451704 0.045262
1.000000 0.453255 0.089109
1.000000 0.456347 0.120045
1.000000 0.461958 0.151693
0.000000 0.626070 0.174590
0.000000 0.629554 0.173711
0.000000 0.629867 0.169731
0.000000 0.628638 0.160159
0.040803 0.626656 0.144545
0.157748 0.623004 0.156213
0.235952 0.618119 0.180020
0.302069 0.612122 0.206624
0.360409 0.605046 0.231806
0.405323 0.594732 0.219640
0.448072 0.582811 0.200291
0.489300 0.569681 0.178219
0.528320 0.555471 0.153867
0.568139 0.544186 0.128037
0.619651 0.548579 0.099247
0.663727 0.547817 0.047022
0.703265 0.543330 0.000000
0.738399 0.535908 0.000000
0.769248 0.525721 0.000000
0.796947 0.513780 0.000000
0.822990 0.504069 0.000000
0.848079 0.499984 0.000000
0.871864 0.497274 0.000000
0.894440 0.494735 0.000000
0.915902 0.492276 0.000000
0.936426 0.490042 0.000000
0.956072 0.488291 0.000000
0.974992 0.486896 0.000000
0.992983 0.485846 0.003564
1.000000 0.485526 0.064482
1.000000 0.485998 0.099385
1.000000 0.487856 0.129558
1.000000 0.491997 0.160582
0.000000 0.666725 0.209614
0.000000 0.677519 0.216828
0.019997 0.679473 0.215701
0.066351 0.677565 0.206975
0.115293 0.674156 0.192472
0.174113 0.669986 0.189445
0.247686 0.664662 0.209168
0.312540 0.658702 0.232646
0.371360 0.652259 0.258841
0.421123 0.644430 0.272191
0.461262 0.633857 0.255282
0.500023 0.622170 0.235146
0.537080 0.609592 0.213555
0.571807 0.595914 0.189412
0.607132 0.584415 0.164142
0.652223 0.586250 0.143559
0.692853 0.585701 0.107178
0.729220 0.581508 0.051340
0.761116 0.573854 0.007930
0.789792 0.564128 0.000000
0.816322 0.553296 0.000000
0.841289 0.542132 0.000000
0.865384 0.534366 0.000000
0.888770 0.531666 0.000000
0.911031 0.529006 0.000000
0.932275 0.526406 0.000000
0.952457 0.523994 0.000000
0.971740 0.521796 0.000000
0.990059 0.519739 0.027411
1.000000 0.518398 0.082331
1.000000 0.517798 0.111513
1.000000 0.518665 0.140409
1.000000 0.522137 0.172302
0.041131 0.703277 0.245177
0.090532 0.713506 0.253498
0.109508 0.715514 0.252793
0.130961 0.713981 0.245226
0.157746 0.711085 0.233490
0.192353 0.708031 0.221579
0.259215 0.703547 0.237454
0.321798 0.698392 0.258366
0.380169 0.692745 0.282545
0.433400 0.686953 0.309213
0.474749 0.678610 0.308775
0.510391 0.668159 0.289920
0.544901 0.656703 0.269320
0.577780 0.644212 0.246922
0.608540 0.630659 0.222598
0.639561 0.618473 0.197464
0.679500 0.618223 0.179436
0.717232 0.617857 0.150918
0.750670 0.613496 0.117439
0.780670 0.606491 0.073340
0.808277 0.597907 0.036387
0.834080 0.588139 0.000000
0.858394 0.577494 0.000000
0.881625 0.567335 0.000000
0.904259 0.561865 0.000000
0.926071 0.558998 0.000000
0.946767 0.556054 0.000000
0.966542 0.553416 0.000861
0.985412 0.550956 0.055303
1.000000 0.549011 0.093550
1.000000 0.547817 0.121674
1.000000 0.547907 0.148894
1.000000 0.550394 0.180961
0.124704 0.734866 0.278551
0.148984 0.743838 0.287221
0.160974 0.745853 0.286967
0.175710 0.744748 0.281093
0.195826 0.742485 0.271040
0.220722 0.740335 0.259175
0.272317 0.737026 0.265913
0.332164 0.732606 0.285049
0.388383 0.727759 0.306741
0.440474 0.722491 0.331271
0.486467 0.716774 0.353443
0.520448 0.707971 0.342021
0.552174 0.697804 0.322605
0.583103 0.686630 0.301641
0.612592 0.674516 0.279031
0.640507 0.661346 0.254684
0.668374 0.649014 0.229467
0.704763 0.647829 0.212851
0.739568 0.647135 0.189735
0.771196 0.643304 0.163605
0.799920 0.637064 0.137675
0.826545 0.629170 0.110787
0.851379 0.619985 0.069103
0.874956 0.609970 0.037497
0.897478 0.599107 0.000000
0.919329 0.590519 0.000000
0.940467 0.586282 0.000000
0.960843 0.583332 0.006038
0.980402 0.580697 0.072770
0.998494 0.578371 0.104953
1.000000 0.576616 0.131107
1.000000 0.576106 0.158411
1.000000 0.577742 0.189379
0.175494 0.762325 0.311025
0.188129 0.766453 0.314837
0.197258 0.767558 0.314623
0.209412 0.767361 0.310292
0.227491 0.766572 0.303092
0.249903 0.765609 0.294513
0.286157 0.763883 0.293071
0.342134 0.760490 0.310412
0.395983 0.756523 0.330865
0.446242 0.752098 0.353456
0.492322 0.747470 0.378097
0.530405 0.741754 0.390481
0.559926 0.733461 0.374678
0.588831 0.724160 0.355632
0.617114 0.713988 0.335093
0.644451 0.702750 0.312644
0.670413 0.690600 0.288418
0.696208 0.678724 0.263530
0.730296 0.677257 0.246933
0.761990 0.675786 0.228810
0.791568 0.671841 0.205661
0.818763 0.665744 0.184148
0.844143 0.658129 0.163517
0.868153 0.649436 0.141806
0.891119 0.639837 0.117201
0.913325 0.629750 0.081089
0.934795 0.619401 0.048391
0.955741 0.612597 0.038550
0.975830 0.609754 0.088889
0.994939 0.607298 0.118763
1.000000 0.605379 0.144981
1.000000 0.604521 0.171482
1.000000 0.605295 0.201725
0.214334 0.783498 0.338818
0.231805 0.790184 0.347472
0.241120 0.792257 0.349051
0.250929 0.792043 0.345410
0.264800 0.790893 0.339105
0.283064 0.789725 0.331246
0.306817 0.788470 0.324074
0.355608 0.785462 0.337682
0.405803 0.781909 0.356018
0.453565 0.778110 0.377093
0.497883 0.774311 0.400016
0.538509 0.770483 0.424871
0.569404 0.764740 0.425313
0.595774 0.757211 0.408497
0.622103 0.748777 0.390102
0.648049 0.739380 0.369733
0.673333 0.729015 0.347458
0.697807 0.717890 0.323672
0.721842 0.706511 0.298835
0.753405 0.704247 0.282223
0.783548 0.703038 0.268073
0.811704 0.699343 0.247709
0.837952 0.693673 0.229111
0.862704 0.686665 0.212007
0.886322 0.678558 0.195403
0.909033 0.669691 0.177908
0.930817 0.660177 0.159777
0.951925 0.650151 0.139705
0.972245 0.640764 0.123466
0.991829 0.635853 0.136099
1.000000 0.633393 0.159393
1.000000 0.631995 0.184770
1.000000 0.632779 0.216529
0.256342 0.805699 0.370348
0.272287 0.811603 0.378900
0.280359 0.813418 0.380482
0.288578 0.813119 0.377739
0.299954 0.812014 0.372165
0.315438 0.810976 0.365806
0.334532 0.809998 0.358944
0.371312 0.807833 0.365251
0.417706 0.804690 0.382198
0.462132 0.801369 0.401258
0.503976 0.797968 0.422341
0.542780 0.794479 0.444683
0.577473 0.790669 0.464452
0.602249 0.784507 0.455217
0.625699 0.777221 0.438742
0.649363 0.769015 0.420028
0.673079 0.760080 0.399812
0.696572 0.750443 0.377961
0.719783 0.740251 0.354891
0.742664 0.729687 0.330452
0.772392 0.727100 0.314849
0.802167 0.726930 0.304131
0.829277 0.723636 0.286224
0.854772 0.718417 0.269600
0.878913 0.711795 0.254624
0.902053 0.704216 0.239947
0.924221 0.695764 0.225487
0.945608 0.686807 0.210358
0.966373 0.677393 0.195069
0.986661 0.667697 0.178470
1.000000 0.660394 0.175021
1.000000 0.658011 0.196542
1.000000 0.658438 0.227594
0.294880 0.825569 0.400220
0.309080 0.830696 0.408094
0.316584 0.832307 0.410157
0.323594 0.832028 0.407956
0.333230 0.831095 0.403478
0.346833 0.830223 0.398580
0.363734 0.829407 0.393145
0.389440 0.828036 0.393130
0.430844 0.825345 0.407911
0.471726 0.822351 0.425237
0.510837 0.819145 0.444145
0.547445 0.815864 0.464304
0.581689 0.812508 0.485642
0.610029 0.808297 0.496181
0.630841 0.802112 0.482715
0.651999 0.795129 0.466292
0.673682 0.787554 0.448294
0.695757 0.779428 0.428930
0.718184 0.770802 0.408354
0.740646 0.761824 0.386637
0.762924 0.752447 0.363774
0.791285 0.749754 0.348314
0.820507 0.750250 0.339628
0.846151 0.746754 0.324356
0.870833 0.741751 0.309121
0.894374 0.735482 0.295351
0.916916 0.728242 0.282226
0.938739 0.720405 0.269816
0.959805 0.712059 0.257184
0.980331 0.703286 0.244638
0.999244 0.694417 0.232564
1.000000 0.686137 0.222600
1.000000 0.683209 0.238424
0.330884 0.843789 0.428420
0.340042 0.846728 0.433088
0.345850 0.847766 0.434459
0.352448 0.847846 0.433080
0.362275 0.847549 0.430672
0.375199 0.847246 0.427633
0.390636 0.846918 0.423952
0.409349 0.846360 0.421009
0.445249 0.844290 0.433196
0.483024 0.841751 0.449203
0.519472 0.839009 0.466578
0.554266 0.836156 0.485291
0.587093 0.833207 0.505042
0.617784 0.830209 0.525531
0.640127 0.825771 0.525617
0.658564 0.820034 0.511502
0.677836 0.813699 0.495817
0.697924 0.806813 0.478850
0.718604 0.799472 0.460701
0.739736 0.791691 0.441129
0.761156 0.783451 0.420352
0.782565 0.774680 0.398101
0.809400 0.771592 0.381976
0.838038 0.772506 0.375438
0.862526 0.768958 0.362139
0.886557 0.764319 0.348480
0.909524 0.758404 0.336051
0.931670 0.751789 0.325076
0.953154 0.744588 0.314526
0.974196 0.737182 0.305525
0.994647 0.729588 0.297130
1.000000 0.722387 0.291100
1.000000 0.715874 0.288758
0.362655 0.859923 0.453609
0.373129 0.863321 0.459712
0.379434 0.864752 0.461988
0.385660 0.864969 0.461489
0.394282 0.864718 0.459668
0.405742 0.864532 0.457566
0.419701 0.864292 0.455445
0.435795 0.863999 0.453282
0.462847 0.862766 0.459799
0.497585 0.860715 0.474845
0.531733 0.858577 0.491480
0.564764 0.856371 0.509243
0.596396 0.854086 0.528226
0.626144 0.851726 0.547858
0.652832 0.848971 0.564506
0.670398 0.844655 0.557582
0.686914 0.839478 0.544025
0.704361 0.833731 0.528926
0.722782 0.827418 0.512757
0.741961 0.820688 0.495374
0.761871 0.813577 0.476868
0.782298 0.806106 0.457329
0.803122 0.798147 0.436350
0.828541 0.794658 0.420052
0.856725 0.795974 0.415908
0.880807 0.792999 0.405082
0.904088 0.788677 0.393474
0.926421 0.783102 0.382830
0.947842 0.776787 0.373370
0.968697 0.769970 0.364583
0.989104 0.762916 0.357205
1.000000 0.756468 0.352953
1.000000 0.751515 0.355234
0.397696 0.877050 0.481580
0.407164 0.880043 0.487256
0.412695 0.881226 0.489427
0.418082 0.881341 0.489145
0.425199 0.881013 0.487600
0.435116 0.880731 0.486200
0.447374 0.880527 0.484715
0.461788 0.880270 0.483489
0.481524 0.879636 0.485961
0.512398 0.877896 0.499102
0.543784 0.875928 0.514242
0.574417 0.873854 0.530600
0.603945 0.871635 0.547815
0.632009 0.869291 0.565670
0.658528 0.866786 0.583939
0.680109 0.863694 0.593402
0.694204 0.859314 0.582039
0.709111 0.854431 0.568665
0.725230 0.849168 0.554313
0.742513 0.843578 0.539037
0.760818 0.837748 0.523155
0.780032 0.831533 0.506196
0.799833 0.824961 0.488099
0.820175 0.817890 0.468747
0.844119 0.813891 0.452602
0.872306 0.816067 0.450567
0.895887 0.813630 0.441638
0.918555 0.809734 0.431846
0.940322 0.804761 0.423103
0.961338 0.799031 0.415442
0.981902 0.793109 0.409723
0.999917 0.787676 0.407252
1.000000 0.783738 0.411160
0.430739 0.893075 0.508401
0.438660 0.895429 0.513196
0.443649 0.896449 0.515280
0.448065 0.896474 0.514939
0.454373 0.896137 0.513959
0.462946 0.895890 0.512891
0.473831 0.895671 0.512157
0.486857 0.895438 0.511864
0.501504 0.895124 0.511730
0.527738 0.893624 0.522310
0.556313 0.891740 0.536101
0.584439 0.889702 0.550794
0.611827 0.887514 0.566387
0.638231 0.885236 0.582709
0.663408 0.882822 0.599497
0.687399 0.880295 0.616793
0.703729 0.877033 0.617228
0.716308 0.873109 0.605483
0.730242 0.868870 0.593115
0.745474 0.864394 0.579997
0.761912 0.859663 0.566206
0.779417 0.854598 0.551491
0.797772 0.849124 0.535710
0.816893 0.843217 0.518791
0.836597 0.836828 0.500477
0.858980 0.832250 0.483932
0.887903 0.835790 0.482857
0.910418 0.833599 0.477312
0.932393 0.830105 0.469197
0.953622 0.825705 0.462279
0.974339 0.820972 0.457563
0.994986 0.816687 0.456623
1.000000 0.813770 0.461861
0.463416 0.908560 0.535225
0.468527 0.909921 0.538186
0.472288 0.910562 0.539650
0.476235 0.910568 0.539595
0.482015 0.910325 0.539003
0.489826 0.910160 0.538613
0.499850 0.909995 0.538679
0.511583 0.909778 0.538937
0.524759 0.909520 0.539443
0.544630 0.908540 0.545700
0.570666 0.906817 0.558438
0.596574 0.904924 0.572032
0.622081 0.902906 0.586458
0.646939 0.900776 0.601632
0.670939 0.898509 0.617381
0.693788 0.896193 0.633257
0.714397 0.893839 0.646662
0.727062 0.890831 0.641382
0.738902 0.887454 0.630849
0.751940 0.883803 0.619480
0.766112 0.879894 0.607253
0.781468 0.875672 0.594220
0.797836 0.871107 0.580266
0.815241 0.866169 0.565288
0.833501 0.860756 0.549089
0.852508 0.854917 0.531582
0.873217 0.849770 0.514484
0.902983 0.854842 0.514391
0.924469 0.852900 0.512427
0.946259 0.850508 0.507403
0.967538 0.847531 0.504426
0.988498 0.844656 0.504982
1.000000 0.842450 0.510162
0.494741 0.923247 0.561464
0.500999 0.924885 0.565567
0.505379 0.925738 0.567799
0.508839 0.925751 0.567848
0.513565 0.925377 0.567374
0.520244 0.925082 0.567181
0.529039 0.924869 0.567579
0.539443 0.924677 0.568224
0.551746 0.924457 0.569801
0.567193 0.924025 0.573674
0.590480 0.922724 0.585308
0.614840 0.921268 0.598727
0.639000 0.919696 0.612879
0.662489 0.918008 0.627489
0.685004 0.916167 0.642174
0.706445 0.914195 0.656769
0.726761 0.912123 0.671126
0.743351 0.909843 0.678927
0.753346 0.906994 0.670640
0.764090 0.903908 0.660928
0.775990 0.900640 0.650544
0.789041 0.897135 0.639333
0.803279 0.893411 0.627266
0.818652 0.889435 0.614456
0.835073 0.885148 0.600510
0.852500 0.880485 0.585528
0.870762 0.875304 0.569223
0.890389 0.870310 0.552444
0.919270 0.875394 0.552542
0.940221 0.874287 0.553452
0.961073 0.872303 0.550126
0.981911 0.870522 0.550764
1.000000 0.870042 0.558304
0.523525 0.936490 0.585912
0.528401 0.937671 0.589066
0.531801 0.938288 0.590708
0.534976 0.938237 0.591061
0.539163 0.937904 0.590738
0.545373 0.937658 0.591063
0.553417 0.937519 0.591839
0.563262 0.937379 0.593288
0.574595 0.937230 0.595232
0.587189 0.937024 0.597912
0.607025 0.935946 0.607432
0.629136 0.934540 0.619662
0.651073 0.932996 0.632360
0.672539 0.931337 0.645383
0.693268 0.929515 0.658387
0.713141 0.927568 0.671376
0.732239 0.925540 0.684295
0.750591 0.923520 0.697218
0.763129 0.921311 0.698196
0.772573 0.918873 0.690154
0.783165 0.916323 0.681820
0.794827 0.913661 0.672822
0.807528 0.910790 0.663159
0.821278 0.907699 0.652783
0.836020 0.904344 0.641446
0.851757 0.900674 0.628983
