app/src/main/assets/lut_presets/#U6d6a#U6f2b#U67d4#U7f8e.cube
TITLE "Generated by Resolve (33)"
# Resampled from 65 to 33 by scripts/resample_cube_luts.py
# Source: 浪漫.cube
LUT_3D_SIZE 9
0.000000 0.000000 0.000000
0.127199 0.000000 0.000000
0.264286 0.000000 0.000000
0.399893 0.000000 0.000000
0.529198 0.000000 0.000000
0.660105 0.000000 0.000000
0.790341 0.000000 0.000000
0.922728 0.000000 0.000000
1.000000 0.000000 0.000000
0.168109 0.040314 0.059632
0.225620 0.049058 0.208148
0.270649 0.093172 0.000000
0.399298 0.082078 0.000000
0.527596 0.071733 0.000000
0.658534 0.065110 0.000000
0.789578 0.059754 0.000000
0.920180 0.054948 0.000000
1.000000 0.050553 0.000000
0.331273 0.093278 0.120699
0.392721 0.113558 0.264256
0.462776 0.130816 0.428962
0.417914 0.228061 0.000000
0.539132 0.212512 0.000000
0.660533 0.197574 0.000000
0.786862 0.187854 0.000000
0.915206 0.180728 0.000000
1.000000 0.174975 0.000000
0.483604 0.141329 0.172961
0.535271 0.168154 0.312245
0.640162 0.202319 0.491035
0.705470 0.226917 0.655711
0.570367 0.374136 0.000000
0.688319 0.358251 0.000000
0.803601 0.338476 0.000000
0.922774 0.322972 0.000000
1.000000 0.311955 0.000000
0.635447 0.192020 0.226307
0.677562 0.216983 0.359045
0.780545 0.260395 0.531624
0.886030 0.302556 0.721645
0.945418 0.326467 0.879988
0.719158 0.518822 0.000000
0.835752 0.507179 0.000000
0.950607 0.487846 0.000000
1.000000 0.468620 0.000000
0.792142 0.250080 0.285908
0.828092 0.272892 0.413840
0.910979 0.311696 0.570153
1.000000 0.363424 0.763287
1.000000 0.401221 0.944976
1.000000 0.423133 1.000000
0.865705 0.664347 0.004440
0.981064 0.657145 0.000000
1.000000 0.640528 0.000000
0.947997 0.309483 0.345571
0.980987 0.331807 0.471244
1.000000 0.366384 0.616632
1.000000 0.417121 0.797543
1.000000 0.466743 0.991043
1.000000 0.500664 1.000000
1.000000 0.522057 1.000000
1.000000 0.811582 0.012024
1.000000 0.807630 0.000000
1.000000 0.370016 0.405264
1.000000 0.392096 0.529381
1.000000 0.423880 0.667903
1.000000 0.470390 0.835096
1.000000 0.525216 1.000000
1.000000 0.570397 1.000000
1.000000 0.601770 1.000000
1.000000 0.622873 1.000000
1.000000 0.953582 0.031754
1.000000 0.431510 0.465003
1.000000 0.453468 0.587961
1.000000 0.483375 0.721950
1.000000 0.525689 0.878096
1.000000 0.580072 1.000000
1.000000 0.633371 1.000000
1.000000 0.674739 1.000000
1.000000 0.704387 1.000000
1.000000 0.725322 1.000000
0.000000 0.055116 0.107256
0.117510 0.000000 0.118746
0.250034 0.000000 0.117006
0.385443 0.000000 0.111192
0.517540 0.000000 0.103395
0.649805 0.000000 0.097734
0.781262 0.000000 0.092760
0.911925 0.000000 0.088136
1.000000 0.000000 0.083833
0.000000 0.117082 0.180377
0.126421 0.096544 0.126421
0.263981 0.089647 0.118791
0.394842 0.079851 0.107668
0.522362 0.068925 0.095064
0.651286 0.060777 0.085496
0.782544 0.056016 0.079728
0.915419 0.050019 0.082017
1.000000 0.047501 0.069062
0.131060 0.182208 0.000000
0.296544 0.156512 0.191699
0.358923 0.171923 0.341817
0.399115 0.214542 0.111498
0.521248 0.198428 0.092958
0.645365 0.184756 0.077836
0.775235 0.177752 0.070237
0.906020 0.172641 0.064744
1.000000 0.168185 0.059937
0.418555 0.189136 0.039506
0.451896 0.208072 0.245533
0.521660 0.238270 0.395117
0.598550 0.263905 0.565133
0.550576 0.360784 0.123339
0.664698 0.338842 0.098329
0.780621 0.318853 0.075502
0.904341 0.306996 0.061906
1.000000 0.298970 0.052781
0.582605 0.228855 0.134752
0.597192 0.252796 0.290974
0.655848 0.288029 0.435401
0.773770 0.337453 0.626078
0.844236 0.368643 0.794903
0.706035 0.515206 0.140612
0.818143 0.493858 0.115816
0.927520 0.468208 0.087221
1.000000 0.448859 0.065095
0.739010 0.284047 0.209506
0.745556 0.302739 0.340948
0.791836 0.332921 0.476280
0.906798 0.390539 0.659892
1.000000 0.445502 0.859663
1.000000 0.473335 1.000000
0.854978 0.664012 0.151110
0.967529 0.648676 0.129870
1.000000 0.624506 0.103349
0.892866 0.343389 0.274983
0.901595 0.362554 0.399969
0.940002 0.388632 0.529015
1.000000 0.436774 0.692119
1.000000 0.502281 0.895949
1.000000 0.548074 1.000000
1.000000 0.572335 1.000000
1.000000 0.812268 0.159152
1.000000 0.802548 0.140993
1.000000 0.404364 0.336431
1.000000 0.423423 0.459113
1.000000 0.448188 0.585382
1.000000 0.489082 0.734997
1.000000 0.550988 0.924376
1.000000 0.610971 1.000000
1.000000 0.650126 1.000000
1.000000 0.673213 1.000000
1.000000 0.961669 0.166476
1.000000 0.466194 0.397192
1.000000 0.485222 0.518380
1.000000 0.509224 0.642802
1.000000 0.545586 0.784115
1.000000 0.600504 0.957427
1.000000 0.665644 1.000000
1.000000 0.718242 1.000000
1.000000 0.753307 1.000000
1.000000 0.775708 1.000000
0.000000 0.131487 0.223117
0.021286 0.125719 0.218906
0.238224 0.000000 0.240650
0.362860 0.000000 0.237934
0.493706 0.000000 0.235691
0.628428 0.000000 0.233707
0.762737 0.000000 0.231128
0.895476 0.000000 0.227939
1.000000 0.000000 0.224628
0.000000 0.170703 0.270939
0.001038 0.162097 0.237308
0.250034 0.092134 0.251255
0.379171 0.083238 0.249134
0.510704 0.070237 0.241382
0.640253 0.059174 0.232441
0.772656 0.053300 0.228138
0.904524 0.048539 0.224567
1.000000 0.044129 0.221134
0.000000 0.242405 0.344030
0.018708 0.236896 0.313191
0.257877 0.217746 0.257877
0.392355 0.210101 0.251392
0.518761 0.196704 0.238758
0.642237 0.181903 0.224537
0.769589 0.172137 0.215549
0.901274 0.167697 0.212192
1.000000 0.163531 0.209110
0.000000 0.388357 0.027619
0.249744 0.304677 0.018646
0.423026 0.279088 0.320180
0.490059 0.300603 0.473198
0.526665 0.341482 0.244831
0.642420 0.319722 0.221653
0.762295 0.302327 0.203738
0.890959 0.294713 0.196109
1.000000 0.289677 0.191196
0.235142 0.375479 0.000000
0.532677 0.301976 0.162142
0.571206 0.327062 0.367666
0.649119 0.367086 0.523995
0.732708 0.401007 0.699611
0.682795 0.497749 0.262989
0.789975 0.469032 0.232639
0.900435 0.443671 0.205829
1.000000 0.429435 0.190829
0.591974 0.368872 0.000000
0.692485 0.339940 0.250828
0.709789 0.367330 0.406851
0.775326 0.410925 0.556909
0.906111 0.475761 0.759594
0.981689 0.513497 0.932708
0.841474 0.659770 0.284627
0.947921 0.632792 0.255589
1.000000 0.601022 0.222629
0.811765 0.399084 0.075334
0.848020 0.396506 0.324102
0.854841 0.415915 0.453803
0.905226 0.451255 0.592111
1.000000 0.523201 0.786847
1.000000 0.591089 0.996414
1.000000 0.622797 1.000000
0.990723 0.812192 0.296391
1.000000 0.793088 0.272541
0.988357 0.447608 0.190570
1.000000 0.457313 0.388846
1.000000 0.477104 0.512474
1.000000 0.506386 0.642924
1.000000 0.563928 0.812940
1.000000 0.643351 1.000000
1.000000 0.697154 1.000000
1.000000 0.723705 1.000000
1.000000 0.962798 0.304891
1.000000 0.503624 0.282460
1.000000 0.519539 0.449729
1.000000 0.539178 0.571313
1.000000 0.566323 0.698390
1.000000 0.613550 0.852338
1.000000 0.686717 1.000000
1.000000 0.757107 1.000000
1.000000 0.801511 1.000000
1.000000 0.826230 1.000000
0.000000 0.202029 0.329137
0.000000 0.220493 0.356664
0.137499 0.112886 0.352117
0.354757 0.000000 0.358328
0.476402 0.000000 0.355581
0.604807 0.000000 0.356481
0.737697 0.000000 0.357794
0.871885 0.000000 0.358007
1.000000 0.000000 0.357153
0.000000 0.222232 0.342763
0.000000 0.223148 0.340475
0.099107 0.231067 0.339162
0.366323 0.083726 0.368688
0.487877 0.074983 0.364767
0.616297 0.063447 0.361471
0.750973 0.055680 0.360540
0.885817 0.049943 0.359411
1.000000 0.044907 0.357458
0.000000 0.294713 0.437873
0.000000 0.281636 0.392554
0.060426 0.286183 0.371511
0.378271 0.213016 0.379461
0.503334 0.201709 0.375250
0.630335 0.184985 0.364416
0.756954 0.171481 0.353704
0.889250 0.165972 0.350240
1.000000 0.161822 0.347753
0.000000 0.357855 0.493156
0.000000 0.352789 0.467475
0.086564 0.361898 0.453742
0.387228 0.344427 0.387228
0.518349 0.335927 0.378729
0.639643 0.319005 0.361700
0.758267 0.300526 0.343008
0.883177 0.289448 0.331716
1.000000 0.285725 0.327855
0.000000 0.517143 0.309560
0.000000 0.499260 0.145449
0.369650 0.423789 0.146593
0.548196 0.405539 0.446723
0.619806 0.432990 0.603128
0.653254 0.471870 0.375250
0.762783 0.444144 0.347158
0.878462 0.422812 0.326116
1.000000 0.414481 0.318181
0.000000 0.625422 0.000000
0.340841 0.492714 0.000000
0.646128 0.417960 0.280858
0.689555 0.448951 0.488151
0.775509 0.498833 0.651514
0.865721 0.541054 0.832883
0.814298 0.637568 0.399603
0.914656 0.601846 0.363622
1.000000 0.570932 0.332464
0.342016 0.593210 0.000000
0.699809 0.480735 0.040635
0.801724 0.453437 0.364630
0.821637 0.484169 0.521294
0.893980 0.536156 0.677226
1.000000 0.616541 0.891981
1.000000 0.660822 1.000000
0.976333 0.806790 0.425605
1.000000 0.774014 0.392065
0.736629 0.573938 0.000000
0.919661 0.512917 0.193194
0.956420 0.511009 0.436927
0.963500 0.531014 0.565408
1.000000 0.571496 0.706889
1.000000 0.657908 0.912795
1.000000 0.738811 1.000000
1.000000 0.774350 1.000000
1.000000 0.962478 0.438636
1.000000 0.590845 0.000000
1.000000 0.562829 0.305684
1.000000 0.573007 0.501213
1.000000 0.593332 0.623850
1.000000 0.625803 0.755886
1.000000 0.692790 0.932876
1.000000 0.786236 1.000000
1.000000 0.848081 1.000000
1.000000 0.876905 1.000000
0.000000 0.264744 0.423743
0.000000 0.287510 0.460655
0.025483 0.281804 0.422583
0.268925 0.126268 0.457435
0.470802 0.000000 0.475532
0.592660 0.000000 0.474800
0.718547 0.000000 0.476387
0.848356 0.000000 0.478752
0.980667 0.000000 0.480766
0.000000 0.277134 0.424552
0.000000 0.283360 0.435813
0.011658 0.311833 0.454810
0.245136 0.199619 0.484672
0.478676 0.073396 0.482185
0.598688 0.066636 0.479164
0.727138 0.060685 0.481163
0.860517 0.054719 0.483848
0.995163 0.048829 0.485298
0.000000 0.338872 0.502632
0.000000 0.327337 0.462745
0.001953 0.335821 0.463188
0.200702 0.336355 0.464439
0.489342 0.200961 0.491691
0.607309 0.189578 0.485557
0.732815 0.175616 0.480430
0.867124 0.167941 0.480064
1.000000 0.162905 0.480110
0.000000 0.402945 0.580011
0.000000 0.394461 0.547585
0.032013 0.399130 0.522759
0.151461 0.419776 0.514092
0.504768 0.338552 0.505943
0.625925 0.324346 0.499275
0.748348 0.303548 0.485054
0.871916 0.287358 0.472251
1.000000 0.282109 0.469337
0.000000 0.473289 0.639933
0.000000 0.462577 0.610361
0.028168 0.467185 0.596841
0.232120 0.486809 0.589410
0.515175 0.474708 0.515175
0.643656 0.464775 0.505623
0.761135 0.443168 0.487633
0.874556 0.421073 0.463127
0.997391 0.408286 0.450614
0.000000 0.631418 0.551553
0.000000 0.629297 0.418448
0.004486 0.610925 0.257176
0.488685 0.546075 0.269764
0.672374 0.534798 0.571939
0.748516 0.568154 0.731991
0.779019 0.604868 0.503914
0.882445 0.570962 0.470771
0.993988 0.545525 0.446494
0.000000 0.803769 0.040452
0.000000 0.737453 0.000000
0.450065 0.605417 0.000000
0.758923 0.536248 0.397543
0.807157 0.573098 0.607462
0.901076 0.632883 0.778012
0.997864 0.683406 0.965240
0.945129 0.779644 0.534386
1.000000 0.736736 0.492638
0.000000 0.848875 0.000000
0.451514 0.707454 0.000000
0.807553 0.594980 0.159472
0.910384 0.568841 0.476951
0.932860 0.602838 0.634699
1.000000 0.663249 0.796628
1.000000 0.759350 1.000000
1.000000 0.810178 1.000000
1.000000 0.955825 0.564721
0.451926 0.809445 0.000000
0.844053 0.689281 0.000000
1.000000 0.628611 0.307851
1.000000 0.627176 0.548486
1.000000 0.647700 0.676036
1.000000 0.693324 0.820829
1.000000 0.794324 1.000000
1.000000 0.888334 1.000000
1.000000 0.927718 1.000000
0.000000 0.320012 0.506798
0.000000 0.342657 0.546044
0.000000 0.364752 0.547372
0.140749 0.296818 0.514122
0.388190 0.145876 0.561730
0.588373 0.000000 0.594263
0.709331 0.000000 0.593896
0.833234 0.000000 0.595560
0.960525 0.000000 0.598337
0.000000 0.328862 0.503380
0.000000 0.337942 0.521309
0.000000 0.366567 0.546883
0.096269 0.365972 0.513436
0.379919 0.210498 0.576745
0.593256 0.066392 0.597894
0.715099 0.063478 0.598230
0.841306 0.059297 0.601038
0.971511 0.054185 0.604517
0.000000 0.379599 0.560739
0.000000 0.374334 0.537881
0.000000 0.384970 0.547158
0.078401 0.414343 0.564324
0.352560 0.286076 0.608850
0.596811 0.186557 0.600305
0.714870 0.178546 0.596384
0.843015 0.172824 0.598978
0.976669 0.167483 0.602701
0.000000 0.442756 0.642680
0.000000 0.437629 0.611414
0.000000 0.443030 0.591073
0.063340 0.457145 0.597009
0.299016 0.456809 0.591318
0.610712 0.322194 0.613031
0.725093 0.307851 0.604410
0.847578 0.291264 0.597192
0.981369 0.283528 0.597116
0.000000 0.500542 0.706218
0.000000 0.497871 0.684611
0.005707 0.500313 0.664607
0.111955 0.527184 0.664973
0.354971 0.530861 0.653605
0.630060 0.467292 0.631220
0.747448 0.449928 0.621927
0.865354 0.424826 0.604181
0.985870 0.405783 0.589151
0.000000 0.581155 0.776303
0.000000 0.577798 0.756863
0.000000 0.572778 0.734722
0.098466 0.591104 0.738796
0.422217 0.600580 0.698161
0.642069 0.607675 0.642069
0.768078 0.596124 0.631312
0.880278 0.570809 0.607462
0.990143 0.543770 0.581842
0.000000 0.756603 0.782300
0.000000 0.744121 0.661433
0.000000 0.742809 0.525948
0.124346 0.724956 0.367407
0.606943 0.670680 0.390860
0.795743 0.666285 0.696147
0.876387 0.705516 0.859983
0.904112 0.739971 0.631327
1.000000 0.699702 0.593057
0.000000 0.947372 0.328771
0.000000 0.918410 0.155917
0.048005 0.848325 0.008118
0.558312 0.719753 0.116457
0.871168 0.656382 0.512886
0.924102 0.699077 0.725841
1.000000 0.768826 0.903685
1.000000 0.827695 1.000000
1.000000 0.923613 0.667842
0.000000 1.000000 0.000000
0.037217 0.961486 0.000000
0.560006 0.823117 0.000000
0.915068 0.711070 0.274250
1.000000 0.685832 0.588159
1.000000 0.723064 0.747250
1.000000 0.791959 0.915282
1.000000 0.903883 1.000000
1.000000 0.961273 1.000000
0.000000 0.367742 0.578286
0.000000 0.388830 0.618448
0.000000 0.415457 0.631647
0.030945 0.403861 0.592782
0.240787 0.280369 0.636896
0.502495 0.160143 0.668925
0.705501 0.000000 0.712535
0.825864 0.000000 0.712566
0.948333 0.000000 0.714260
0.000000 0.375097 0.574060
0.000000 0.385565 0.596323
0.000000 0.411902 0.621363
0.030381 0.438529 0.628641
0.228229 0.360876 0.628138
0.500145 0.221912 0.679744
0.711467 0.063935 0.717235
0.832258 0.061448 0.717632
0.956420 0.058015 0.720302
0.000000 0.418357 0.619455
0.000000 0.417044 0.608087
0.000000 0.428519 0.620249
0.006195 0.455589 0.643854
0.187884 0.451011 0.620615
0.486275 0.288731 0.691402
0.709300 0.178088 0.713909
0.831067 0.175753 0.715038
0.957351 0.172107 0.718654
0.000000 0.475624 0.690486
0.000000 0.476722 0.667597
0.000000 0.483604 0.658686
0.002350 0.495460 0.668681
0.169589 0.534981 0.687449
0.453819 0.388312 0.735195
0.713268 0.303288 0.716716
0.829313 0.293797 0.711681
0.957031 0.288197 0.714595
0.000000 0.529976 0.758251
0.000000 0.533822 0.742580
0.000000 0.544579 0.729793
0.026718 0.564721 0.727550
0.155154 0.593057 0.744747
0.476890 0.534340 0.757549
0.730983 0.446265 0.733272
0.841825 0.428763 0.722042
0.961288 0.409369 0.712596
0.000000 0.588327 0.818570
0.000000 0.593072 0.808118
0.000000 0.599481 0.797070
0.066575 0.615259 0.792645
0.197360 0.668482 0.822232
0.536187 0.637232 0.791058
0.754421 0.598474 0.755566
0.868132 0.577783 0.743557
0.981582 0.548211 0.722210
0.000000 0.680888 0.901869
0.000000 0.685832 0.893385
0.000000 0.689204 0.882628
0.035370 0.689097 0.867872
0.177264 0.728939 0.898787
0.548775 0.729366 0.821363
0.768124 0.742794 0.768124
0.892195 0.729213 0.757229
1.000000 0.699123 0.730999
0.000000 0.879072 1.000000
0.000000 0.871183 0.892744
0.000000 0.857984 0.770474
0.000000 0.856855 0.631754
0.239277 0.841947 0.477775
0.724529 0.797162 0.510628
0.918425 0.799603 0.819547
1.000000 0.844724 0.987259
1.000000 0.876829 0.757748
0.000000 1.000000 0.592187
0.000000 1.000000 0.437491
0.000000 1.000000 0.267216
0.162066 0.962463 0.125216
0.666468 0.836179 0.231327
0.982910 0.778088 0.627207
1.000000 0.826627 0.843458
1.000000 0.906386 1.000000
1.000000 0.973648 1.000000
0.000000 0.408331 0.638956
0.000000 0.427604 0.676936
0.000000 0.453223 0.695583
0.000000 0.469902 0.691844
0.129122 0.425605 0.650950
0.355825 0.248737 0.781201
0.614359 0.169711 0.776684
0.822248 0.000000 0.830427
0.942229 0.000000 0.830854
0.000000 0.415076 0.635218
0.000000 0.426200 0.661326
0.000000 0.449638 0.683604
0.000000 0.482063 0.703075
0.101213 0.474220 0.665049
0.327626 0.320455 0.764630
0.615198 0.229862 0.786206
0.829084 0.062348 0.835996
0.949218 0.059754 0.836591
0.000000 0.453178 0.674983
0.000000 0.454200 0.670497
0.000000 0.465782 0.683162
0.000000 0.492149 0.708217
0.110292 0.528618 0.721660
0.312200 0.426322 0.743313
0.606714 0.294194 0.792523
0.827680 0.176303 0.833387
0.948409 0.174411 0.834485
0.000000 0.505592 0.733745
0.000000 0.510430 0.720241
0.000000 0.517327 0.718318
0.000000 0.529610 0.731151
0.077089 0.559869 0.755657
0.276478 0.554925 0.735897
0.588922 0.382834 0.808774
0.823545 0.293065 0.828107
0.945144 0.291203 0.829831
0.000000 0.555352 0.798627
0.000000 0.565545 0.788830
0.000000 0.583062 0.785214
0.000000 0.601053 0.789410
0.069932 0.617441 0.803388
0.256153 0.670314 0.822507
0.548135 0.502815 0.859815
0.828641 0.422568 0.832059
0.942687 0.411490 0.825788
0.000000 0.604532 0.855787
0.000000 0.616098 0.852369
0.000000 0.632700 0.851652
0.008103 0.658198 0.856489
0.107454 0.700633 0.881056
0.241810 0.743908 0.908980
0.702098 0.595712 0.938170
0.850385 0.572549 0.852674
0.957763 0.551736 0.838743
0.000000 0.667323 0.918883
0.000000 0.679240 0.918593
0.000000 0.692775 0.918639
0.023606 0.707790 0.918120
0.151293 0.745876 0.937499
0.371878 0.793988 0.964920
0.652506 0.774151 0.930190
0.878019 0.731640 0.879164
0.988159 0.707485 0.864378
0.000000 0.772457 1.000000
0.000000 0.785992 1.000000
0.000000 0.798611 1.000000
0.000855 0.808316 1.000000
0.107057 0.820203 1.000000
0.333211 0.855299 1.000000
0.655848 0.866377 0.953292
0.893462 0.879728 0.893462
1.000000 0.864576 0.880018
0.000000 1.000000 1.000000
0.000000 1.000000 1.000000
0.000000 0.983093 0.997574
0.000000 0.972519 0.878691
0.086381 0.970672 0.735454
0.352346 0.960800 0.587732
0.841535 0.925231 0.629389
1.000000 0.934508 0.942260
1.000000 0.985504 1.000000
0.000000 0.442512 0.690028
0.000000 0.459632 0.723384
0.000000 0.483101 0.747311
0.000000 0.514443 0.760616
0.034363 0.497368 0.722942
0.225757 0.422431 0.748989
0.482582 0.260731 0.867506
0.724544 0.175463 0.884276
0.938674 0.000000 0.947982
0.000000 0.448920 0.687007
0.000000 0.459968 0.712764
0.000000 0.480842 0.736080
0.000000 0.510994 0.756954
0.042145 0.532433 0.758618
0.210666 0.480735 0.747356
0.464805 0.305547 0.892668
0.727443 0.234714 0.893416
0.946288 0.061204 0.954330
0.000000 0.482521 0.720088
0.000000 0.485679 0.724712
0.000000 0.496803 0.736645
0.000000 0.520790 0.759793
0.032593 0.558465 0.784878
0.179980 0.552743 0.748928
0.422980 0.373007 0.891905
0.721965 0.297902 0.897993
0.945617 0.174899 0.952438
0.000000 0.532326 0.774517
0.000000 0.538186 0.767498
0.000000 0.544701 0.769116
0.000000 0.556710 0.782254
0.005707 0.581674 0.805478
0.197131 0.639963 0.831861
0.398367 0.514290 0.861372
0.710338 0.384451 0.907057
0.941909 0.291890 0.947585
0.000000 0.578271 0.832822
0.000000 0.593637 0.829648
0.000000 0.612238 0.832349
0.000000 0.626871 0.839506
0.004211 0.638880 0.851698
0.170367 0.685115 0.886183
0.362692 0.676005 0.858030
0.687877 0.488045 0.929824
0.936675 0.410437 0.941222
0.000000 0.621042 0.886534
0.000000 0.638453 0.888930
0.000000 0.663935 0.897169
0.000000 0.697841 0.913130
0.027558 0.726680 0.930816
0.163546 0.758999 0.958190
0.413291 0.790845 0.979141
0.738216 0.594537 0.986130
0.943191 0.543877 0.946609
0.000000 0.669352 0.939605
0.000000 0.687343 0.945968
0.000000 0.709926 0.955612
0.000000 0.739010 0.969604
0.077485 0.785351 0.999374
0.193729 0.856764 1.000000
0.453758 0.859541 1.000000
0.824811 0.720088 1.000000
0.969100 0.700648 0.971374
0.000000 0.738430 1.000000
0.000000 0.757076 1.000000
0.000000 0.777676 1.000000
0.000000 0.799893 1.000000
0.099916 0.832288 1.000000
0.229953 0.894377 1.000000
0.580957 0.892805 1.000000
0.765377 0.915297 1.000000
1.000000 0.866499 1.000000
0.000000 0.856123 1.000000
0.000000 0.878172 1.000000
0.000000 0.900313 1.000000
0.000000 0.921553 1.000000
0.055314 0.940337 1.000000
0.181720 0.972717 1.000000
0.525887 0.953613 1.000000
0.758526 1.000000 1.000000
1.000000 1.000000 1.000000
