app/src/main/assets/lut_presets/#U6d6a#U6f2b#U67d4#U7f8e.cube
TITLE "Generated by Resolve (33)"
# Resampled from 65 to 33 by scripts/resample_cube_luts.py
# Source: 浪漫.cube
LUT_3D_SIZE 33
0.000000 0.000000 0.000000
0.010605 0.000000 0.000000
0.060777 0.000000 0.000000
0.092195 0.000000 0.000000
0.127199 0.000000 0.000000
0.160754 0.000000 0.000000
0.196796 0.000000 0.000000
0.231510 0.000000 0.000000
0.264286 0.000000 0.000000
0.298436 0.000000 0.000000
0.332403 0.000000 0.000000
0.366125 0.000000 0.000000
0.399893 0.000000 0.000000
0.432547 0.000000 0.000000
0.465202 0.000000 0.000000
0.497902 0.000000 0.000000
0.529198 0.000000 0.000000
0.561990 0.000000 0.000000
0.594736 0.000000 0.000000
0.629252 0.000000 0.000000
0.660105 0.000000 0.000000
0.692714 0.000000 0.000000
0.727398 0.000000 0.000000
0.757839 0.000000 0.000000
0.790341 0.000000 0.000000
0.825208 0.000000 0.000000
0.855253 0.000000 0.000000
0.890242 0.000000 0.000000
0.922728 0.000000 0.000000
0.952392 0.000000 0.000000
0.987594 0.000000 0.000000
1.000000 0.000000 0.000000
1.000000 0.000000 0.000000
0.036728 0.000381 0.007858
0.050263 0.000793 0.045609
0.055955 0.014664 0.000000
0.090974 0.014115 0.000000
0.127398 0.012634 0.000000
0.163378 0.010391 0.000000
0.198871 0.007507 0.000000
0.233906 0.004089 0.000000
0.268528 0.000229 0.000000
0.302144 0.000000 0.000000
0.335073 0.000000 0.000000
0.367803 0.000000 0.000000
0.400397 0.000000 0.000000
0.432883 0.000000 0.000000
0.465339 0.000000 0.000000
0.497826 0.000000 0.000000
0.530449 0.000000 0.000000
0.563210 0.000000 0.000000
0.595956 0.000000 0.000000
0.628611 0.000000 0.000000
0.661158 0.000000 0.000000
0.693629 0.000000 0.000000
0.726131 0.000000 0.000000
0.758618 0.000000 0.000000
0.791089 0.000000 0.000000
0.823545 0.000000 0.000000
0.855970 0.000000 0.000000
0.888365 0.000000 0.000000
0.920729 0.000000 0.000000
0.953079 0.000000 0.000000
0.985397 0.000000 0.000000
1.000000 0.000000 0.000000
1.000000 0.000000 0.000000
0.081376 0.013077 0.025421
0.094118 0.014679 0.059907
0.108827 0.015259 0.099809
0.097520 0.039384 0.000000
0.132418 0.037781 0.000000
0.167178 0.035660 0.000000
0.201404 0.033448 0.000000
0.235096 0.031342 0.000000
0.268498 0.029145 0.000000
0.301625 0.026871 0.000000
0.334539 0.024567 0.000000
0.367239 0.022217 0.000000
0.399817 0.019867 0.000000
0.432288 0.017563 0.000000
0.464759 0.015366 0.000000
0.497292 0.013306 0.000000
0.529931 0.011459 0.000000
0.562783 0.009903 0.000000
0.595712 0.008499 0.000000
0.628595 0.007141 0.000000
0.661418 0.005798 0.000000
0.694179 0.004501 0.000000
0.726909 0.003235 0.000000
0.759564 0.001984 0.000000
0.792187 0.000763 0.000000
0.824765 0.000000 0.000000
0.857313 0.000000 0.000000
0.889799 0.000000 0.000000
0.922240 0.000000 0.000000
0.954665 0.000000 0.000000
0.987045 0.000000 0.000000
1.000000 0.000000 0.000000
1.000000 0.000000 0.000000
0.125170 0.026581 0.042771
0.135180 0.029557 0.075868
0.154299 0.029816 0.114534
0.167178 0.031479 0.153903
0.134554 0.068101 0.000000
0.168643 0.066728 0.000000
0.202319 0.064790 0.000000
0.235599 0.062592 0.000000
0.268650 0.060258 0.000000
0.301518 0.057832 0.000000
0.334188 0.055344 0.000000
0.366705 0.052796 0.000000
0.399100 0.050248 0.000000
0.431418 0.047746 0.000000
0.463722 0.045319 0.000000
0.496086 0.043061 0.000000
0.528588 0.041016 0.000000
0.561303 0.039261 0.000000
0.594247 0.037797 0.000000
0.627176 0.036393 0.000000
0.660044 0.035020 0.000000
0.692897 0.033692 0.000000
0.725689 0.032395 0.000000
0.758450 0.031128 0.000000
0.791165 0.029892 0.000000
0.823835 0.028687 0.000000
0.856458 0.027497 0.000000
0.889067 0.026337 0.000000
0.921614 0.025208 0.000000
0.954131 0.024109 0.000000
0.986618 0.023026 0.000000
1.000000 0.021958 0.000000
1.000000 0.020905 0.000000
0.168109 0.040314 0.059632
0.176989 0.044038 0.092409
0.194858 0.045655 0.128557
0.213230 0.046708 0.169375
0.225620 0.049058 0.208148
0.171237 0.098131 0.000000
0.204456 0.097368 0.000000
0.237888 0.095537 0.000000
0.270649 0.093172 0.000000
0.303014 0.090516 0.000000
0.335210 0.087755 0.000000
0.367285 0.084917 0.000000
0.399298 0.082078 0.000000
0.431266 0.079286 0.000000
0.463264 0.076585 0.000000
0.495354 0.074052 0.000000
0.527596 0.071733 0.000000
0.560067 0.069719 0.000000
0.592859 0.068071 0.000000
0.625696 0.066560 0.000000
0.658534 0.065110 0.000000
0.691341 0.063706 0.000000
0.724117 0.062348 0.000000
0.756863 0.061021 0.000000
0.789578 0.059754 0.000000
0.822278 0.058503 0.000000
0.854932 0.057298 0.000000
0.887572 0.056107 0.000000
0.920180 0.054948 0.000000
0.952743 0.053819 0.000000
0.985290 0.052705 0.000000
1.000000 0.051621 0.000000
1.000000 0.050553 0.000000
0.210163 0.054002 0.075898
0.218585 0.058228 0.108614
0.233982 0.061219 0.143328
0.255436 0.062806 0.183139
0.271931 0.064958 0.224353
0.284306 0.067842 0.262699
0.208392 0.129259 0.000000
0.240772 0.129122 0.000000
0.274083 0.127565 0.000000
0.306554 0.125170 0.000000
0.338384 0.122240 0.000000
0.369894 0.119066 0.000000
0.401297 0.115816 0.000000
0.432700 0.112612 0.000000
0.464179 0.109499 0.000000
0.495781 0.106554 0.000000
0.527565 0.103853 0.000000
0.559640 0.101472 0.000000
0.592081 0.099504 0.000000
0.624720 0.097780 0.000000
0.657374 0.096147 0.000000
0.690044 0.094606 0.000000
0.722728 0.093141 0.000000
0.755398 0.091722 0.000000
0.788067 0.090364 0.000000
0.820706 0.089036 0.000000
0.853346 0.087770 0.000000
0.885939 0.086534 0.000000
0.918532 0.085313 0.000000
0.951095 0.084138 0.000000
0.983627 0.082994 0.000000
1.000000 0.081865 0.000000
1.000000 0.080781 0.000000
0.251362 0.067430 0.091493
0.259602 0.072084 0.124254
0.273289 0.076036 0.158343
0.294255 0.078904 0.196643
0.315404 0.081376 0.238376
0.330800 0.084398 0.279622
0.343374 0.087770 0.317662
0.245991 0.161501 0.000000
0.277852 0.161852 0.000000
0.310765 0.160708 0.000000
0.343160 0.158450 0.000000
0.374670 0.155398 0.000000
0.405646 0.151873 0.000000
0.436393 0.148180 0.000000
0.467124 0.144503 0.000000
0.498054 0.141024 0.000000
0.529183 0.137774 0.000000
0.560632 0.134874 0.000000
0.592493 0.132403 0.000000
0.624689 0.130312 0.000000
0.657023 0.128374 0.000000
0.689418 0.126589 0.000000
0.721874 0.124895 0.000000
0.754376 0.123308 0.000000
0.786892 0.121798 0.000000
0.819425 0.120348 0.000000
0.851957 0.118959 0.000000
0.884489 0.117632 0.000000
0.917006 0.116335 0.000000
0.949523 0.115099 0.000000
0.982025 0.113878 0.000000
1.000000 0.112703 0.000000
1.000000 0.111559 0.000000
0.291722 0.080537 0.106432
0.299886 0.085542 0.139239
0.312520 0.090211 0.173068
0.331853 0.094301 0.210208
0.355337 0.097795 0.251606
0.375204 0.101244 0.294072
0.389990 0.104982 0.335302
0.402869 0.108782 0.373083
0.288762 0.193057 0.000000
0.315694 0.195499 0.000000
0.347997 0.194858 0.000000
0.380346 0.192828 0.000000
0.411704 0.189776 0.000000
0.442313 0.186038 0.000000
0.472541 0.181979 0.000000
0.502678 0.177859 0.000000
0.532952 0.173907 0.000000
0.563607 0.170336 0.000000
0.594644 0.167178 0.000000
0.626169 0.164492 0.000000
0.657923 0.162081 0.000000
0.689876 0.159884 0.000000
0.721950 0.157855 0.000000
0.754131 0.155978 0.000000
0.786389 0.154223 0.000000
0.818708 0.152575 0.000000
0.851057 0.151019 0.000000
0.883436 0.149523 0.000000
0.915831 0.148104 0.000000
0.948241 0.146746 0.000000
0.980652 0.145418 0.000000
1.000000 0.144167 0.000000
1.000000 0.142931 0.000000
0.331273 0.093278 0.120699
0.339437 0.098558 0.153582
0.351400 0.103792 0.187335
0.369116 0.108827 0.223697
0.392721 0.113558 0.264256
0.416312 0.117968 0.307439
0.435111 0.122286 0.350179
0.449592 0.126635 0.391409
0.462776 0.130816 0.428962
0.348760 0.219318 0.000000
0.354086 0.230015 0.000000
0.385779 0.229847 0.000000
0.417914 0.228061 0.000000
0.449256 0.225147 0.000000
0.479652 0.221332 0.000000
0.509499 0.217014 0.000000
0.539132 0.212512 0.000000
0.568872 0.208148 0.000000
0.598962 0.204135 0.000000
0.629526 0.200626 0.000000
0.660533 0.197574 0.000000
0.691814 0.194797 0.000000
0.723308 0.192279 0.000000
0.755016 0.189975 0.000000
0.786862 0.187854 0.000000
0.818830 0.185901 0.000000
0.850889 0.184070 0.000000
0.883024 0.182345 0.000000
0.915206 0.180728 0.000000
0.947433 0.179187 0.000000
0.979690 0.177722 0.000000
1.000000 0.176318 0.000000
1.000000 0.174975 0.000000
0.370108 0.105653 0.134371
0.378271 0.111162 0.167300
0.389776 0.116823 0.201038
0.406332 0.122591 0.236957
0.428855 0.128405 0.276600
0.454444 0.134051 0.319814
0.477241 0.139361 0.363867
0.495262 0.144396 0.406699
0.509606 0.149248 0.447929
0.523095 0.153780 0.485267
0.423926 0.240711 0.030533
0.392844 0.265339 0.000000
0.424109 0.265507 0.000000
0.455833 0.264057 0.000000
0.487098 0.261280 0.000000
0.517403 0.257465 0.000000
0.546975 0.252979 0.000000
0.576288 0.248249 0.000000
0.605524 0.243473 0.000000
0.635126 0.239094 0.000000
0.665125 0.235126 0.000000
0.695521 0.231556 0.000000
0.726314 0.228428 0.000000
0.757351 0.225544 0.000000
0.788617 0.222919 0.000000
0.820096 0.220523 0.000000
0.851743 0.218311 0.000000
0.883497 0.216266 0.000000
0.915373 0.214359 0.000000
0.947341 0.212558 0.000000
0.979355 0.210880 0.000000
1.000000 0.209277 0.000000
1.000000 0.207767 0.000000
0.408347 0.117708 0.147539
0.416495 0.123400 0.180484
0.427665 0.129381 0.214206
0.443259 0.135698 0.249821
0.464469 0.142351 0.288701
0.490425 0.149187 0.331472
0.516396 0.155749 0.376379
0.538216 0.161837 0.420752
0.555703 0.167468 0.463600
0.569955 0.172747 0.504814
0.583719 0.177554 0.541909
0.510414 0.258030 0.077455
0.431846 0.301335 0.000000
0.462821 0.301717 0.000000
0.493965 0.300557 0.000000
0.525017 0.297887 0.000000
0.555276 0.294148 0.000000
0.584680 0.289570 0.000000
0.613642 0.284581 0.000000
0.642618 0.279622 0.000000
0.671748 0.274846 0.000000
0.701259 0.270481 0.000000
0.731136 0.266484 0.000000
0.761349 0.262867 0.000000
0.791943 0.259632 0.000000
0.822782 0.256672 0.000000
0.853864 0.253971 0.000000
0.885130 0.251484 0.000000
0.916579 0.249180 0.000000
0.948150 0.247044 0.000000
0.979843 0.245060 0.000000
1.000000 0.243198 0.000000
1.000000 0.241443 0.000000
0.446128 0.129549 0.160342
0.454200 0.135348 0.193240
0.465080 0.141558 0.226917
0.479912 0.148257 0.262303
0.499901 0.155520 0.300557
0.525231 0.163333 0.342657
0.552880 0.171206 0.387762
0.578256 0.178561 0.433494
0.599313 0.185260 0.478004
0.616388 0.191363 0.520806
0.630594 0.196994 0.561975
0.644572 0.201999 0.598779
0.601678 0.273152 0.138460
0.470924 0.337819 0.000000
0.501656 0.338293 0.000000
0.532219 0.337346 0.000000
0.562890 0.334798 0.000000
0.592950 0.331014 0.000000
0.622263 0.326421 0.000000
0.651026 0.321294 0.000000
0.679774 0.316167 0.000000
0.708659 0.311223 0.000000
0.737774 0.306508 0.000000
0.767208 0.302159 0.000000
0.796948 0.298146 0.000000
0.827024 0.294469 0.000000
0.857389 0.291112 0.000000
0.888121 0.288151 0.000000
0.919005 0.285359 0.000000
0.950103 0.282780 0.000000
0.981353 0.280400 0.000000
1.000000 0.278187 0.000000
1.000000 0.276127 0.000000
0.483604 0.141329 0.172961
0.491569 0.147143 0.205722
0.502144 0.153490 0.239322
0.516335 0.160449 0.274479
0.535271 0.168154 0.312245
0.559472 0.176638 0.353552
0.587549 0.185595 0.398398
0.615641 0.194339 0.444999
0.640162 0.202319 0.491035
0.660502 0.209491 0.535515
0.677241 0.215930 0.578210
0.691341 0.221805 0.619272
0.705470 0.226917 0.655711
0.693172 0.287419 0.210941
0.509896 0.374578 0.000000
0.540383 0.375021 0.000000
0.570367 0.374136 0.000000
0.600488 0.371649 0.000000
0.630259 0.367834 0.000000
0.659510 0.363256 0.000000
0.688319 0.358251 0.000000
0.716976 0.353109 0.000000
0.745678 0.348028 0.000000
0.774517 0.343114 0.000000
0.803601 0.338476 0.000000
0.832959 0.334127 0.000000
0.862623 0.330098 0.000000
0.892561 0.326375 0.000000
0.922774 0.322972 0.000000
0.953353 0.319936 0.000000
0.984070 0.317067 0.000000
1.000000 0.314412 0.000000
1.000000 0.311955 0.000000
0.521019 0.153216 0.185595
0.528786 0.158968 0.218158
0.539025 0.165316 0.251575
0.552621 0.172412 0.286473
0.570550 0.180377 0.323766
0.593500 0.189303 0.364294
0.621195 0.199054 0.408545
0.650675 0.209003 0.455360
0.678279 0.218372 0.502678
0.702007 0.226810 0.548806
0.721706 0.234318 0.593149
0.738109 0.241001 0.635676
0.752056 0.246983 0.676570
0.766247 0.252094 0.712551
0.782544 0.301396 0.293339
0.549279 0.411093 0.000000
0.578714 0.411658 0.000000
0.608164 0.410697 0.000000
0.637583 0.408164 0.000000
0.667140 0.404471 0.000000
0.696452 0.400107 0.000000
0.725460 0.395377 0.000000
0.754147 0.390311 0.000000
0.782757 0.385183 0.000000
0.811414 0.380148 0.000000
0.840238 0.375280 0.000000
0.869261 0.370672 0.000000
0.898558 0.366339 0.000000
0.928115 0.362310 0.000000
0.957961 0.358557 0.000000
0.988052 0.355093 0.000000
1.000000 0.351934 0.000000
1.000000 0.349065 0.000000
0.558618 0.165438 0.198505
0.566079 0.171008 0.230747
0.575936 0.177279 0.263890
0.588922 0.184360 0.298466
0.605920 0.192416 0.335256
0.627665 0.201526 0.375036
0.654353 0.211826 0.418509
0.684215 0.222675 0.465064
0.714076 0.233341 0.513146
0.740856 0.243122 0.560678
0.763699 0.251850 0.606653
0.782788 0.259541 0.650721
0.798825 0.266316 0.692988
0.812543 0.272297 0.733608
0.826673 0.277287 0.769055
0.865339 0.316945 0.376516
0.596002 0.444465 0.006531
0.616388 0.447913 0.000000
0.645335 0.446738 0.000000
0.674388 0.444480 0.000000
0.703853 0.441169 0.000000
0.733257 0.437095 0.000000
0.762448 0.432609 0.000000
0.791196 0.427680 0.000000
0.819791 0.422599 0.000000
0.848356 0.417517 0.000000
0.876997 0.412497 0.000000
0.905776 0.407691 0.000000
0.934768 0.403113 0.000000
0.964004 0.398779 0.000000
0.993484 0.394736 0.000000
1.000000 0.390967 0.000000
1.000000 0.387472 0.000000
0.596643 0.178271 0.211963
0.603708 0.183536 0.243763
0.613092 0.189593 0.276524
0.625437 0.196536 0.310689
0.641520 0.204532 0.346929
0.662104 0.213748 0.386007
0.687449 0.224186 0.428489
0.716945 0.235599 0.474449
0.747890 0.247257 0.522622
0.777371 0.258350 0.571283
0.803143 0.268360 0.618677
0.825101 0.277195 0.664332
0.843565 0.284901 0.708049
0.859174 0.291630 0.749935
0.872557 0.297459 0.790188
0.886488 0.302190 0.824964
0.941543 0.334081 0.456153
0.650523 0.474128 0.020081
0.653346 0.483696 0.000000
0.682292 0.482719 0.000000
0.711177 0.480827 0.000000
0.740475 0.477913 0.000000
0.769924 0.474144 0.000000
0.799130 0.469825 0.000000
0.828122 0.465187 0.000000
0.856748 0.460197 0.000000
0.885283 0.455116 0.000000
0.913802 0.450050 0.000000
0.942412 0.445106 0.000000
0.971176 0.440314 0.000000
1.000000 0.435767 0.000000
1.000000 0.431449 0.000000
1.000000 0.427390 0.000000
0.635447 0.192020 0.226307
0.641993 0.196857 0.257542
0.650797 0.202548 0.289769
0.662425 0.209201 0.323415
0.677562 0.216983 0.359045
0.696925 0.226047 0.397314
0.720851 0.236439 0.438758
0.749401 0.248096 0.483803
0.780545 0.260395 0.531624
0.811673 0.272541 0.580713
0.840146 0.283772 0.629343
0.864973 0.293797 0.676478
0.886030 0.302556 0.721645
0.903822 0.310124 0.764874
0.918898 0.316625 0.806271
0.931823 0.322164 0.846052
0.945418 0.326467 0.879988
1.000000 0.351537 0.535958
0.712810 0.500496 0.039307
0.690166 0.519585 0.000687
0.719158 0.518822 0.000000
0.747936 0.517250 0.000000
0.777050 0.514687 0.000000
0.806439 0.511254 0.000000
0.835752 0.507179 0.000000
0.864881 0.502785 0.000000
0.893599 0.497932 0.000000
0.922148 0.492912 0.000000
0.950607 0.487846 0.000000
0.979110 0.482811 0.000000
1.000000 0.477897 0.000000
1.000000 0.473152 0.000000
1.000000 0.468620 0.000000
0.674708 0.206394 0.241199
0.681071 0.211109 0.272221
0.689342 0.216464 0.303960
0.700175 0.222690 0.336950
0.714321 0.230091 0.371847
0.732448 0.238804 0.409232
0.755016 0.248936 0.449653
0.782086 0.260502 0.493523
0.812711 0.273060 0.540536
0.844556 0.285893 0.589517
0.875196 0.298207 0.638972
0.902464 0.309316 0.687190
0.926146 0.319142 0.733776
0.946273 0.327642 0.778332
0.963272 0.334890 0.820935
0.977707 0.341009 0.861708
0.990173 0.346212 0.900969
1.000000 0.350393 0.934432
1.000000 0.369940 0.615885
0.782376 0.524163 0.065186
0.726879 0.555596 0.002533
0.755932 0.555047 0.000000
0.784649 0.553719 0.000000
0.813611 0.551507 0.000000
0.842878 0.548409 0.000000
0.872236 0.544610 0.000000
0.901366 0.540322 0.000000
0.930312 0.535775 0.000000
0.958907 0.530861 0.000000
0.987381 0.525826 0.000000
1.000000 0.520775 0.000000
1.000000 0.515770 0.000000
1.000000 0.510933 0.000000
0.713909 0.220859 0.256092
0.720226 0.225605 0.287037
0.728298 0.230930 0.318639
0.738689 0.237018 0.351324
0.751995 0.244099 0.385580
0.768902 0.252369 0.422065
0.789990 0.262058 0.461372
0.815412 0.273213 0.503883
0.844953 0.285679 0.549783
0.876692 0.298772 0.598138
0.908431 0.311742 0.647669
0.937896 0.323796 0.696788
0.963958 0.334630 0.744472
0.986435 0.344060 0.790295
1.000000 0.352163 0.834165
1.000000 0.359121 0.876188
1.000000 0.365118 0.916640
1.000000 0.370306 0.955718
1.000000 0.374487 0.988800
1.000000 0.389807 0.691875
0.858244 0.545342 0.098192
0.763500 0.591760 0.004395
0.792615 0.591363 0.000549
0.821332 0.590280 0.000000
0.850095 0.588388 0.000000
0.879255 0.585611 0.000000
0.908598 0.582071 0.000000
0.937804 0.578012 0.000000
0.966842 0.573632 0.000000
0.995575 0.568902 0.000000
1.000000 0.563943 0.000000
1.000000 0.558923 0.000000
1.000000 0.553887 0.000000
0.753048 0.235431 0.271000
0.759319 0.240192 0.301869
0.767239 0.245487 0.333333
0.777295 0.251514 0.365774
0.790005 0.258427 0.399664
0.805966 0.266453 0.435477
0.825772 0.275776 0.473854
0.849561 0.286473 0.515099
0.877714 0.298573 0.559686
0.908705 0.311574 0.607034
0.940734 0.324819 0.656123
0.971756 0.337606 0.705638
0.999832 0.349264 0.754131
1.000000 0.359670 0.801144
1.000000 0.368765 0.846311
1.000000 0.376638 0.889647
1.000000 0.383459 0.931304
1.000000 0.389364 0.971466
1.000000 0.394553 1.000000
1.000000 0.398733 1.000000
1.000000 0.410529 0.766995
0.938979 0.564492 0.138369
0.800565 0.627848 0.006546
0.829190 0.627802 0.002502
0.857954 0.626917 0.000000
0.886610 0.625284 0.000000
0.915587 0.622827 0.000000
0.944854 0.619593 0.000000
0.974121 0.615763 0.000000
1.000000 0.611505 0.000000
1.000000 0.607034 0.000000
1.000000 0.602197 0.000000
1.000000 0.597208 0.000000
0.792142 0.250080 0.285908
0.798367 0.254856 0.316701
0.806149 0.260151 0.348058
0.815900 0.266102 0.380301
0.828092 0.272892 0.413840
0.843244 0.280705 0.449104
0.861936 0.289708 0.486641
0.884535 0.300053 0.526925
0.910979 0.311696 0.570153
0.940932 0.324468 0.616373
0.972702 0.337774 0.664698
1.000000 0.350988 0.714076
1.000000 0.363424 0.763287
1.000000 0.374701 0.811170
1.000000 0.384741 0.857527
1.000000 0.393545 0.902098
1.000000 0.401221 0.944976
1.000000 0.407919 0.986282
1.000000 0.413779 1.000000
1.000000 0.418936 1.000000
1.000000 0.423133 1.000000
1.000000 0.432120 0.839826
1.000000 0.581125 0.187808
0.840909 0.662837 0.010956
0.865705 0.664347 0.004440
0.894484 0.663630 0.000351
0.923079 0.662257 0.000000
0.951949 0.660075 0.000000
0.981064 0.657145 0.000000
1.000000 0.653559 0.000000
1.000000 0.649500 0.000000
1.000000 0.645121 0.000000
1.000000 0.640528 0.000000
0.831174 0.264805 0.300816
0.837369 0.269612 0.331548
0.845029 0.274891 0.362799
0.854505 0.280797 0.394858
0.866239 0.287480 0.428092
0.880720 0.295094 0.462898
0.898421 0.303822 0.499733
0.919753 0.313802 0.539071
0.944732 0.325032 0.581094
0.973495 0.337499 0.626154
1.000000 0.350698 0.673579
1.000000 0.364157 0.722545
1.000000 0.377188 0.771969
1.000000 0.389227 0.820569
1.000000 0.400153 0.867918
1.000000 0.409873 0.913664
1.000000 0.418418 0.957717
1.000000 0.425925 1.000000
1.000000 0.432502 1.000000
1.000000 0.438315 1.000000
1.000000 0.443473 1.000000
1.000000 0.447669 1.000000
1.000000 0.454490 0.909575
1.000000 0.597070 0.242679
0.886870 0.695872 0.019058
0.902113 0.701015 0.006332
0.930953 0.700450 0.002426
0.959518 0.699275 0.000000
0.988205 0.697383 0.000000
1.000000 0.694728 0.000000
1.000000 0.691386 0.000000
1.000000 0.687541 0.000000
1.000000 0.683314 0.000000
0.870161 0.279622 0.315740
0.876326 0.284443 0.346395
0.883864 0.289723 0.377554
0.893126 0.295583 0.409461
0.904463 0.302159 0.442420
0.918318 0.309606 0.476799
0.935149 0.318090 0.513039
0.955367 0.327749 0.551537
0.979065 0.338552 0.592523
1.000000 0.350713 0.636439
1.000000 0.363760 0.682872
1.000000 0.377234 0.731151
1.000000 0.390631 0.780392
1.000000 0.403403 0.829618
1.000000 0.415061 0.877638
1.000000 0.425635 0.924407
1.000000 0.435050 0.969589
1.000000 0.443381 1.000000
1.000000 0.450721 1.000000
1.000000 0.457221 1.000000
1.000000 0.462989 1.000000
1.000000 0.468147 1.000000
1.000000 0.472343 1.000000
1.000000 0.477363 0.978561
1.000000 0.611856 0.304738
0.938079 0.727092 0.030655
0.938460 0.737774 0.008225
0.967330 0.737362 0.004471
0.995911 0.736355 0.000168
1.000000 0.734722 0.000000
1.000000 0.732326 0.000000
1.000000 0.729244 0.000000
1.000000 0.725628 0.000000
0.909102 0.294514 0.330648
0.915251 0.299351 0.361257
0.922683 0.304616 0.392325
0.931716 0.310445 0.424079
0.942702 0.316945 0.456794
0.956039 0.324254 0.490837
0.972107 0.332509 0.526528
0.991318 0.341878 0.564294
1.000000 0.352422 0.604456
1.000000 0.364126 0.647166
1.000000 0.376913 0.692576
1.000000 0.390249 0.739971
1.000000 0.403906 0.788891
1.000000 0.417151 0.838148
1.000000 0.429465 0.886900
1.000000 0.440894 0.934478
1.000000 0.451148 0.980682
1.000000 0.460304 1.000000
1.000000 0.468421 1.000000
1.000000 0.475639 1.000000
1.000000 0.482063 1.000000
1.000000 0.487785 1.000000
1.000000 0.492943 1.000000
1.000000 0.497139 1.000000
1.000000 0.500618 1.000000
1.000000 0.626291 0.372015
0.995987 0.755917 0.046998
0.974731 0.774624 0.010117
1.000000 0.774350 0.006485
1.000000 0.773526 0.002335
1.000000 0.772091 0.000000
1.000000 0.769940 0.000000
1.000000 0.767147 0.000000
0.947997 0.309483 0.345571
0.954116 0.314336 0.376120
0.961456 0.319600 0.407095
0.970321 0.325383 0.438727
0.980987 0.331807 0.471244
0.993835 0.338994 0.504952
1.000000 0.347066 0.540185
1.000000 0.356161 0.577295
1.000000 0.366384 0.616632
1.000000 0.377722 0.658320
1.000000 0.390204 0.702693
1.000000 0.403479 0.749294
1.000000 0.417121 0.797543
1.000000 0.430655 0.846616
1.000000 0.443687 0.895796
1.000000 0.455695 0.943954
1.000000 0.466743 0.991043
1.000000 0.476707 1.000000
1.000000 0.485618 1.000000
1.000000 0.493568 1.000000
1.000000 0.500664 1.000000
1.000000 0.507012 1.000000
1.000000 0.512718 1.000000
1.000000 0.517861 1.000000
1.000000 0.522057 1.000000
1.000000 0.524483 1.000000
1.000000 0.640604 0.444038
1.000000 0.782757 0.067750
1.000000 0.811582 0.012024
1.000000 0.811429 0.008469
1.000000 0.810758 0.004486
1.000000 0.809506 0.000061
1.000000 0.807630 0.000000
0.986847 0.324514 0.360494
0.992950 0.329381 0.390982
1.000000 0.334646 0.421897
1.000000 0.340414 0.453407
1.000000 0.346761 0.485725
1.000000 0.353841 0.519158
1.000000 0.361746 0.553979
1.000000 0.370596 0.590509
1.000000 0.380529 0.629114
1.000000 0.391455 0.669856
1.000000 0.403677 0.713237
1.000000 0.416724 0.758892
1.000000 0.430182 0.806302
1.000000 0.444038 0.855146
1.000000 0.457465 0.904311
1.000000 0.470146 0.953140
1.000000 0.481880 1.000000
1.000000 0.492607 1.000000
1.000000 0.502297 1.000000
1.000000 0.510994 1.000000
1.000000 0.518807 1.000000
1.000000 0.525795 1.000000
1.000000 0.532082 1.000000
1.000000 0.537758 1.000000
1.000000 0.542901 1.000000
1.000000 0.547097 1.000000
1.000000 0.548623 1.000000
1.000000 0.654978 0.520180
1.000000 0.808377 0.091753
1.000000 0.848524 0.014084
1.000000 0.848600 0.010422
1.000000 0.848066 0.006577
1.000000 0.846998 0.002289
1.000000 0.339620 0.375418
1.000000 0.344503 0.405859
1.000000 0.349767 0.436698
1.000000 0.355505 0.468086
1.000000 0.361807 0.500252
1.000000 0.368765 0.533410
1.000000 0.376516 0.567864
1.000000 0.385183 0.603906
1.000000 0.394827 0.641840
1.000000 0.405570 0.681880
1.000000 0.417319 0.724178
1.000000 0.430106 0.768902
1.000000 0.443580 0.815641
1.000000 0.457359 0.863828
1.000000 0.471061 0.912779
1.000000 0.484291 0.961883
1.000000 0.496620 1.000000
1.000000 0.508064 1.000000
1.000000 0.518502 1.000000
1.000000 0.527947 1.000000
1.000000 0.536461 1.000000
1.000000 0.544121 1.000000
1.000000 0.551019 1.000000
1.000000 0.557260 1.000000
1.000000 0.562905 1.000000
1.000000 0.568048 1.000000
