app/src/main/assets/lut_presets/#U6d6a#U6f2b#U67d4#U7f8e.cube
TITLE "Generated by Resolve (33)"
# Resampled from 65 to 33 by scripts/resample_cube_luts.py
# Source: 浪漫.cube
LUT_3D_SIZE 5
0.000000 0.000000 0.000000
0.264286 0.000000 0.000000
0.529198 0.000000 0.000000
0.790341 0.000000 0.000000
1.000000 0.000000 0.000000
0.331273 0.093278 0.120699
0.462776 0.130816 0.428962
0.539132 0.212512 0.000000
0.786862 0.187854 0.000000
1.000000 0.174975 0.000000
0.635447 0.192020 0.226307
0.780545 0.260395 0.531624
0.945418 0.326467 0.879988
0.835752 0.507179 0.000000
1.000000 0.468620 0.000000
0.947997 0.309483 0.345571
1.000000 0.366384 0.616632
1.000000 0.466743 0.991043
1.000000 0.522057 1.000000
1.000000 0.807630 0.000000
1.000000 0.431510 0.465003
1.000000 0.483375 0.721950
1.000000 0.580072 1.000000
1.000000 0.674739 1.000000
1.000000 0.725322 1.000000
0.000000 0.131487 0.223117
0.238224 0.000000 0.240650
0.493706 0.000000 0.235691
0.762737 0.000000 0.231128
1.000000 0.000000 0.224628
0.000000 0.242405 0.344030
0.257877 0.217746 0.257877
0.518761 0.196704 0.238758
0.769589 0.172137 0.215549
1.000000 0.163531 0.209110
0.235142 0.375479 0.000000
0.571206 0.327062 0.367666
0.732708 0.401007 0.699611
0.789975 0.469032 0.232639
1.000000 0.429435 0.190829
0.811765 0.399084 0.075334
0.854841 0.415915 0.453803
1.000000 0.523201 0.786847
1.000000 0.622797 1.000000
1.000000 0.793088 0.272541
1.000000 0.503624 0.282460
1.000000 0.539178 0.571313
1.000000 0.613550 0.852338
1.000000 0.757107 1.000000
1.000000 0.826230 1.000000
0.000000 0.264744 0.423743
0.025483 0.281804 0.422583
0.470802 0.000000 0.475532
0.718547 0.000000 0.476387
0.980667 0.000000 0.480766
0.000000 0.338872 0.502632
0.001953 0.335821 0.463188
0.489342 0.200961 0.491691
0.732815 0.175616 0.480430
1.000000 0.162905 0.480110
0.000000 0.473289 0.639933
0.028168 0.467185 0.596841
0.515175 0.474708 0.515175
0.761135 0.443168 0.487633
0.997391 0.408286 0.450614
0.000000 0.803769 0.040452
0.450065 0.605417 0.000000
0.807157 0.573098 0.607462
0.997864 0.683406 0.965240
1.000000 0.736736 0.492638
0.451926 0.809445 0.000000
1.000000 0.628611 0.307851
1.000000 0.647700 0.676036
1.000000 0.794324 1.000000
1.000000 0.927718 1.000000
0.000000 0.367742 0.578286
0.000000 0.415457 0.631647
0.240787 0.280369 0.636896
0.705501 0.000000 0.712535
0.948333 0.000000 0.714260
0.000000 0.418357 0.619455
0.000000 0.428519 0.620249
0.187884 0.451011 0.620615
0.709300 0.178088 0.713909
0.957351 0.172107 0.718654
0.000000 0.529976 0.758251
0.000000 0.544579 0.729793
0.155154 0.593057 0.744747
0.730983 0.446265 0.733272
0.961288 0.409369 0.712596
0.000000 0.680888 0.901869
0.000000 0.689204 0.882628
0.177264 0.728939 0.898787
0.768124 0.742794 0.768124
1.000000 0.699123 0.730999
0.000000 1.000000 0.592187
0.000000 1.000000 0.267216
0.666468 0.836179 0.231327
1.000000 0.826627 0.843458
1.000000 0.973648 1.000000
0.000000 0.442512 0.690028
0.000000 0.483101 0.747311
0.034363 0.497368 0.722942
0.482582 0.260731 0.867506
0.938674 0.000000 0.947982
0.000000 0.482521 0.720088
0.000000 0.496803 0.736645
0.032593 0.558465 0.784878
0.422980 0.373007 0.891905
0.945617 0.174899 0.952438
0.000000 0.578271 0.832822
0.000000 0.612238 0.832349
0.004211 0.638880 0.851698
0.362692 0.676005 0.858030
0.936675 0.410437 0.941222
0.000000 0.669352 0.939605
0.000000 0.709926 0.955612
0.077485 0.785351 0.999374
0.453758 0.859541 1.000000
0.969100 0.700648 0.971374
0.000000 0.856123 1.000000
0.000000 0.900313 1.000000
0.055314 0.940337 1.000000
0.525887 0.953613 1.000000
1.000000 1.000000 1.000000
