app/src/main/assets/lut_presets/#U8272#U5f69#U8fd8#U539f.cube
TITLE "Copyright GRADEFRUIT 2024, https://gradefruit.com"
LUT_3D_SIZE 5
0.0000000000 0.0000000000 0.0000000000
0.3732810000 0.0000000000 0.0000000000
0.8111090000 0.0000000000 0.0000000000
1.0000000000 0.0000000000 0.0000000000
1.0000000000 0.0000000000 0.0000000000
0.0000000000 0.3395440000 0.0000000000
0.2784160000 0.3079880000 0.0000000000
0.7727170000 0.1980160000 0.0000000000
1.0000000000 0.0000000000 0.0000000000
1.0000000000 0.0000000000 0.0000000000
0.0000000000 0.7541010000 0.0000000000
0.0000000000 0.7405810000 0.0000000000
0.6527810000 0.7014270000 0.0000000000
1.0000000000 0.6464480000 0.0000000000
1.0000000000 0.6171660000 0.0000000000
0.0000000000 1.0000000000 0.0000000000
0.0000000000 1.0000000000 0.0000000000
0.4470280000 1.0000000000 0.0000000000
0.9333640000 0.9981840000 0.0000000000
1.0000000000 0.9801790000 0.0000000000
0.0000000000 1.0000000000 0.0000000000
0.0000000000 1.0000000000 0.0000000000
0.2952320000 1.0000000000 0.0000000000
0.8731060000 1.0000000000 0.0000000000
1.0000000000 1.0000000000 0.0000000000
0.0000000000 0.0000000000 0.3081560000
0.3596400000 0.0000000000 0.2998250000
0.8050810000 0.0000000000 0.2753950000
1.0000000000 0.0000000000 0.2401920000
1.0000000000 0.0000000000 0.2208900000
0.0000000000 0.2965130000 0.2696880000
0.2602580000 0.2602580000 0.2602580000
0.7663540000 0.1208360000 0.2321810000
1.0000000000 0.0000000000 0.1904480000
1.0000000000 0.0000000000 0.1666440000
0.0000000000 0.7359120000 0.1192190000
0.0000000000 0.7220420000 0.1006180000
0.6451360000 0.6817270000 0.0396124000
1.0000000000 0.6249180000 0.0000000000
1.0000000000 0.5944910000 0.0000000000
0.0000000000 1.0000000000 0.0000000000
0.0000000000 1.0000000000 0.0000000000
0.4356450000 1.0000000000 0.0000000000
0.9281910000 0.9848940000 0.0000000000
1.0000000000 0.9666130000 0.0000000000
0.0000000000 1.0000000000 0.0000000000
0.0000000000 1.0000000000 0.0000000000
0.2780650000 1.0000000000 0.0000000000
0.8675520000 1.0000000000 0.0000000000
1.0000000000 1.0000000000 0.0000000000
0.0000000000 0.0000000000 0.7017170000
0.3186690000 0.0000000000 0.6981000000
0.7879760000 0.0000000000 0.6879380000
1.0000000000 0.0000000000 0.6744030000
1.0000000000 0.0000000000 0.6675670000
0.0000000000 0.1242080000 0.6856490000
0.2024110000 0.0409094000 0.6819410000
0.7482870000 0.0000000000 0.6715190000
1.0000000000 0.0000000000 0.6576180000
1.0000000000 0.0000000000 0.6505990000
0.0000000000 0.6824450000 0.6385600000
0.0000000000 0.6673840000 0.6345770000
0.6233010000 0.6233010000 0.6233010000
1.0000000000 0.5602350000 0.6082400000
1.0000000000 0.5259170000 0.6005950000
0.0000000000 1.0000000000 0.5709160000
0.0000000000 1.0000000000 0.5664150000
0.4022580000 0.9839020000 0.5536890000
0.9136030000 0.9467150000 0.5365830000
1.0000000000 0.9276110000 0.5278550000
0.0000000000 1.0000000000 0.5339130000
0.0000000000 1.0000000000 0.5290910000
0.2241860000 1.0000000000 0.5154040000
0.8518200000 1.0000000000 0.4969560000
1.0000000000 1.0000000000 0.4874950000
0.0000000000 0.0000000000 0.9985660000
0.2563360000 0.0000000000 0.9961090000
0.7650260000 0.0000000000 0.9892420000
1.0000000000 0.0000000000 0.9801940000
1.0000000000 0.0000000000 0.9756470000
0.0000000000 0.0000000000 0.9877010000
0.0952926000 0.0000000000 0.9852290000
0.7239640000 0.0000000000 0.9782710000
1.0000000000 0.0000000000 0.9691000000
1.0000000000 0.0000000000 0.9645080000
0.0000000000 0.6050510000 0.9566950000
0.0000000000 0.5878690000 0.9541310000
0.5935000000 0.5369500000 0.9469140000
1.0000000000 0.4617990000 0.9374070000
1.0000000000 0.4193480000 0.9326470000
0.0000000000 0.9728850000 0.9144580000
0.0000000000 0.9627070000 0.9117570000
0.3540700000 0.9336540000 0.9041730000
0.8941630000 0.8941630000 0.8941630000
1.0000000000 0.8737620000 0.8891280000
0.0000000000 1.0000000000 0.8926070000
0.0000000000 1.0000000000 0.8898300000
0.1302820000 1.0000000000 0.8820480000
0.8307770000 1.0000000000 0.8717480000
1.0000000000 1.0000000000 0.8665750000
0.0000000000 0.0000000000 1.0000000000
0.2196380000 0.0000000000 1.0000000000
0.7533230000 0.0000000000 1.0000000000
1.0000000000 0.0000000000 1.0000000000
1.0000000000 0.0000000000 1.0000000000
0.0000000000 0.0000000000 1.0000000000
0.0169833000 0.0000000000 1.0000000000
0.7115430000 0.0000000000 1.0000000000
1.0000000000 0.0000000000 1.0000000000
1.0000000000 0.0000000000 1.0000000000
0.0000000000 0.5623560000 1.0000000000
0.0000000000 0.5437700000 1.0000000000
0.5780880000 0.4881060000 1.0000000000
0.9998780000 0.4038610000 1.0000000000
1.0000000000 0.3546810000 1.0000000000
0.0000000000 0.9479360000 1.0000000000
0.0000000000 0.9374530000 1.0000000000
0.3275650000 0.9075150000 1.0000000000
0.8843060000 0.8666820000 1.0000000000
1.0000000000 0.8455630000 1.0000000000
0.0000000000 1.0000000000 1.0000000000
0.0000000000 1.0000000000 1.0000000000
0.0595560000 1.0000000000 1.0000000000
0.8200810000 1.0000000000 1.0000000000
1.0000000000 1.0000000000 1.0000000000
