app/src/main/assets/lut_presets/#U8272#U5f69#U8fd8#U539f.cube
TITLE "Copyright GRADEFRUIT 2024, https://gradefruit.com"
LUT_3D_SIZE 33
0.0000000000 0.0000000000 0.0000000000
0.0000000000 0.0000000000 0.0000000000
0.0179446000 0.0000000000 0.0000000000
0.0917372000 0.0000000000 0.0000000000
0.1561760000 0.0000000000 0.0000000000
0.2131530000 0.0000000000 0.0000000000
0.2672160000 0.0000000000 0.0000000000
0.3202720000 0.0000000000 0.0000000000
0.3732810000 0.0000000000 0.0000000000
0.4267490000 0.0000000000 0.0000000000
0.4808880000 0.0000000000 0.0000000000
0.5357140000 0.0000000000 0.0000000000
0.5910890000 0.0000000000 0.0000000000
0.6467540000 0.0000000000 0.0000000000
0.7023120000 0.0000000000 0.0000000000
0.7572750000 0.0000000000 0.0000000000
0.8111090000 0.0000000000 0.0000000000
0.8632790000 0.0000000000 0.0000000000
0.9132070000 0.0000000000 0.0000000000
0.9604030000 0.0000000000 0.0000000000
1.0000000000 0.0000000000 0.0000000000
1.0000000000 0.0000000000 0.0000000000
1.0000000000 0.0000000000 0.0000000000
1.0000000000 0.0000000000 0.0000000000
1.0000000000 0.0000000000 0.0000000000
1.0000000000 0.0000000000 0.0000000000
1.0000000000 0.0000000000 0.0000000000
1.0000000000 0.0000000000 0.0000000000
1.0000000000 0.0000000000 0.0000000000
1.0000000000 0.0000000000 0.0000000000
1.0000000000 0.0000000000 0.0000000000
1.0000000000 0.0000000000 0.0000000000
1.0000000000 0.0000000000 0.0000000000
0.0000000000 0.0000000000 0.0000000000
0.0000000000 0.0000000000 0.0000000000
0.0000000000 0.0000000000 0.0000000000
0.0682841000 0.0000000000 0.0000000000
0.1401390000 0.0000000000 0.0000000000
0.2007930000 0.0000000000 0.0000000000
0.2571150000 0.0000000000 0.0000000000
0.3117570000 0.0000000000 0.0000000000
0.3659420000 0.0000000000 0.0000000000
0.4203250000 0.0000000000 0.0000000000
0.4751960000 0.0000000000 0.0000000000
0.5306170000 0.0000000000 0.0000000000
0.5864960000 0.0000000000 0.0000000000
0.6425730000 0.0000000000 0.0000000000
0.6984820000 0.0000000000 0.0000000000
0.7537500000 0.0000000000 0.0000000000
0.8078430000 0.0000000000 0.0000000000
0.8602270000 0.0000000000 0.0000000000
0.9103380000 0.0000000000 0.0000000000
0.9576870000 0.0000000000 0.0000000000
1.0000000000 0.0000000000 0.0000000000
1.0000000000 0.0000000000 0.0000000000
1.0000000000 0.0000000000 0.0000000000
1.0000000000 0.0000000000 0.0000000000
1.0000000000 0.0000000000 0.0000000000
1.0000000000 0.0000000000 0.0000000000
1.0000000000 0.0000000000 0.0000000000
1.0000000000 0.0000000000 0.0000000000
1.0000000000 0.0000000000 0.0000000000
1.0000000000 0.0000000000 0.0000000000
1.0000000000 0.0000000000 0.0000000000
1.0000000000 0.0000000000 0.0000000000
1.0000000000 0.0000000000 0.0000000000
0.0000000000 0.0000000000 0.0000000000
0.0000000000 0.0000000000 0.0000000000
0.0000000000 0.0000000000 0.0000000000
0.0442512000 0.0000000000 0.0000000000
0.1223010000 0.0000000000 0.0000000000
0.1875180000 0.0000000000 0.0000000000
0.2464640000 0.0000000000 0.0000000000
0.3028460000 0.0000000000 0.0000000000
0.3583120000 0.0000000000 0.0000000000
0.4136720000 0.0000000000 0.0000000000
0.4693220000 0.0000000000 0.0000000000
0.5253830000 0.0000000000 0.0000000000
0.5817810000 0.0000000000 0.0000000000
0.6383000000 0.0000000000 0.0000000000
0.6945600000 0.0000000000 0.0000000000
0.7501340000 0.0000000000 0.0000000000
0.8045010000 0.0000000000 0.0000000000
0.8570990000 0.0000000000 0.0000000000
0.9073930000 0.0000000000 0.0000000000
0.9549100000 0.0000000000 0.0000000000
0.9992370000 0.0000000000 0.0000000000
1.0000000000 0.0000000000 0.0000000000
1.0000000000 0.0000000000 0.0000000000
1.0000000000 0.0000000000 0.0000000000
1.0000000000 0.0000000000 0.0000000000
1.0000000000 0.0000000000 0.0000000000
1.0000000000 0.0000000000 0.0000000000
1.0000000000 0.0000000000 0.0000000000
1.0000000000 0.0000000000 0.0000000000
1.0000000000 0.0000000000 0.0000000000
1.0000000000 0.0000000000 0.0000000000
1.0000000000 0.0000000000 0.0000000000
1.0000000000 0.0000000000 0.0000000000
0.0000000000 0.0639353000 0.0000000000
0.0000000000 0.0561532000 0.0000000000
0.0000000000 0.0482032000 0.0000000000
0.0197147000 0.0401007000 0.0000000000
0.1020520000 0.0309300000 0.0000000000
0.1731290000 0.0200656000 0.0000000000
0.2351420000 0.0072327800 0.0000000000
0.2934920000 0.0000000000 0.0000000000
0.3503470000 0.0000000000 0.0000000000
0.4067600000 0.0000000000 0.0000000000
0.4632490000 0.0000000000 0.0000000000
0.5199660000 0.0000000000 0.0000000000
0.5769130000 0.0000000000 0.0000000000
0.6338900000 0.0000000000 0.0000000000
0.6905320000 0.0000000000 0.0000000000
0.7464260000 0.0000000000 0.0000000000
0.8010680000 0.0000000000 0.0000000000
0.8538950000 0.0000000000 0.0000000000
0.9043870000 0.0000000000 0.0000000000
0.9520710000 0.0000000000 0.0000000000
0.9965210000 0.0000000000 0.0000000000
1.0000000000 0.0000000000 0.0000000000
1.0000000000 0.0000000000 0.0000000000
1.0000000000 0.0000000000 0.0000000000
1.0000000000 0.0000000000 0.0000000000
1.0000000000 0.0000000000 0.0000000000
1.0000000000 0.0000000000 0.0000000000
1.0000000000 0.0000000000 0.0000000000
1.0000000000 0.0000000000 0.0000000000
1.0000000000 0.0000000000 0.0000000000
1.0000000000 0.0000000000 0.0000000000
1.0000000000 0.0000000000 0.0000000000
1.0000000000 0.0000000000 0.0000000000
0.0000000000 0.1291370000 0.0000000000
0.0000000000 0.1232010000 0.0000000000
0.0000000000 0.1169300000 0.0000000000
0.0000000000 0.1102920000 0.0000000000
0.0755169000 0.1024800000 0.0000000000
0.1556570000 0.0926833000 0.0000000000
0.2217440000 0.0800336000 0.0000000000
0.2825820000 0.0649729000 0.0000000000
0.3411460000 0.0473945000 0.0000000000
0.3988250000 0.0270542000 0.0000000000
0.4562750000 0.0037232000 0.0000000000
0.5137870000 0.0000000000 0.0000000000
0.5713740000 0.0000000000 0.0000000000
0.6288700000 0.0000000000 0.0000000000
0.6859540000 0.0000000000 0.0000000000
0.7422140000 0.0000000000 0.0000000000
0.7971620000 0.0000000000 0.0000000000
0.8502630000 0.0000000000 0.0000000000
0.9009840000 0.0000000000 0.0000000000
0.9488520000 0.0000000000 0.0000000000
0.9934690000 0.0000000000 0.0000000000
1.0000000000 0.0000000000 0.0000000000
1.0000000000 0.0000000000 0.0000000000
1.0000000000 0.0000000000 0.0000000000
1.0000000000 0.0000000000 0.0000000000
1.0000000000 0.0000000000 0.0000000000
1.0000000000 0.0000000000 0.0000000000
1.0000000000 0.0000000000 0.0000000000
1.0000000000 0.0000000000 0.0000000000
1.0000000000 0.0000000000 0.0000000000
1.0000000000 0.0000000000 0.0000000000
1.0000000000 0.0000000000 0.0000000000
1.0000000000 0.0000000000 0.0000000000
0.0000000000 0.1853510000 0.0000000000
0.0000000000 0.1808500000 0.0000000000
0.0000000000 0.1761500000 0.0000000000
0.0000000000 0.1712520000 0.0000000000
0.0426337000 0.1655910000 0.0000000000
0.1328300000 0.1586630000 0.0000000000
0.2049290000 0.1501950000 0.0000000000
0.2691230000 0.1397730000 0.0000000000
0.3299000000 0.1268790000 0.0000000000
0.3891970000 0.1107190000 0.0000000000
0.4478680000 0.0900587000 0.0000000000
0.5063400000 0.0635386000 0.0000000000
0.5647210000 0.0337530000 0.0000000000
0.6228580000 0.0007324330 0.0000000000
0.6804760000 0.0000000000 0.0000000000
0.7371940000 0.0000000000 0.0000000000
0.7925080000 0.0000000000 0.0000000000
0.8459300000 0.0000000000 0.0000000000
0.8969100000 0.0000000000 0.0000000000
0.9450060000 0.0000000000 0.0000000000
0.9898070000 0.0000000000 0.0000000000
1.0000000000 0.0000000000 0.0000000000
1.0000000000 0.0000000000 0.0000000000
1.0000000000 0.0000000000 0.0000000000
1.0000000000 0.0000000000 0.0000000000
1.0000000000 0.0000000000 0.0000000000
1.0000000000 0.0000000000 0.0000000000
1.0000000000 0.0000000000 0.0000000000
1.0000000000 0.0000000000 0.0000000000
1.0000000000 0.0000000000 0.0000000000
1.0000000000 0.0000000000 0.0000000000
1.0000000000 0.0000000000 0.0000000000
1.0000000000 0.0000000000 0.0000000000
0.0000000000 0.2378270000 0.0000000000
0.0000000000 0.2341650000 0.0000000000
0.0000000000 0.2303960000 0.0000000000
0.0000000000 0.2264740000 0.0000000000
0.0037995000 0.2219730000 0.0000000000
0.1017170000 0.2165410000 0.0000000000
0.1834740000 0.2099790000 0.0000000000
0.2524150000 0.2020450000 0.0000000000
0.3161670000 0.1924620000 0.0000000000
0.3775230000 0.1808650000 0.0000000000
0.4377360000 0.1667810000 0.0000000000
0.4974290000 0.1495840000 0.0000000000
0.5567560000 0.1283440000 0.0000000000
0.6156710000 0.1015340000 0.0000000000
0.6739450000 0.0665446000 0.0000000000
0.7312120000 0.0276799000 0.0000000000
0.7869840000 0.0000000000 0.0000000000
0.8407720000 0.0000000000 0.0000000000
0.8920880000 0.0000000000 0.0000000000
0.9404440000 0.0000000000 0.0000000000
0.9854890000 0.0000000000 0.0000000000
1.0000000000 0.0000000000 0.0000000000
1.0000000000 0.0000000000 0.0000000000
1.0000000000 0.0000000000 0.0000000000
1.0000000000 0.0000000000 0.0000000000
1.0000000000 0.0000000000 0.0000000000
1.0000000000 0.0000000000 0.0000000000
1.0000000000 0.0000000000 0.0000000000
1.0000000000 0.0000000000 0.0000000000
1.0000000000 0.0000000000 0.0000000000
1.0000000000 0.0000000000 0.0000000000
1.0000000000 0.0000000000 0.0000000000
1.0000000000 0.0000000000 0.0000000000
0.0000000000 0.2888530000 0.0000000000
0.0000000000 0.2857860000 0.0000000000
0.0000000000 0.2826120000 0.0000000000
0.0000000000 0.2793470000 0.0000000000
0.0000000000 0.2756240000 0.0000000000
0.0572824000 0.2711380000 0.0000000000
0.1554280000 0.2657510000 0.0000000000
0.2314640000 0.2593120000 0.0000000000
0.2992750000 0.2516210000 0.0000000000
0.3633480000 0.2424350000 0.0000000000
0.4255440000 0.2315250000 0.0000000000
0.4867320000 0.2185550000 0.0000000000
0.5472500000 0.2031740000 0.0000000000
0.6071410000 0.1849090000 0.0000000000
0.6662090000 0.1631490000 0.0000000000
0.7241170000 0.1369340000 0.0000000000
0.7804380000 0.1046010000 0.0000000000
0.8346840000 0.0633707000 0.0000000000
0.8863810000 0.0196384000 0.0000000000
0.9350730000 0.0000000000 0.0000000000
0.9803770000 0.0000000000 0.0000000000
1.0000000000 0.0000000000 0.0000000000
1.0000000000 0.0000000000 0.0000000000
1.0000000000 0.0000000000 0.0000000000
1.0000000000 0.0000000000 0.0000000000
1.0000000000 0.0000000000 0.0000000000
1.0000000000 0.0000000000 0.0000000000
1.0000000000 0.0000000000 0.0000000000
1.0000000000 0.0000000000 0.0000000000
1.0000000000 0.0000000000 0.0000000000
1.0000000000 0.0000000000 0.0000000000
1.0000000000 0.0000000000 0.0000000000
1.0000000000 0.0000000000 0.0000000000
0.0000000000 0.3395440000 0.0000000000
0.0000000000 0.3369040000 0.0000000000
0.0000000000 0.3341880000 0.0000000000
0.0000000000 0.3313950000 0.0000000000
0.0000000000 0.3282220000 0.0000000000
0.0041199400 0.3244070000 0.0000000000
0.1169910000 0.3198600000 0.0000000000
0.2047760000 0.3144270000 0.0000000000
0.2784160000 0.3079880000 0.0000000000
0.3461200000 0.3003740000 0.0000000000
0.4108640000 0.2914170000 0.0000000000
0.4739600000 0.2809190000 0.0000000000
0.5359580000 0.2686810000 0.0000000000
0.5970090000 0.2545200000 0.0000000000
0.6570380000 0.2381780000 0.0000000000
0.7157400000 0.2194400000 0.0000000000
0.7727170000 0.1980160000 0.0000000000
0.8275270000 0.1734950000 0.0000000000
0.8796830000 0.1453120000 0.0000000000
0.9287560000 0.1123520000 0.0000000000
0.9743800000 0.0722515000 0.0000000000
1.0000000000 0.0306096000 0.0000000000
1.0000000000 0.0000000000 0.0000000000
1.0000000000 0.0000000000 0.0000000000
1.0000000000 0.0000000000 0.0000000000
1.0000000000 0.0000000000 0.0000000000
1.0000000000 0.0000000000 0.0000000000
1.0000000000 0.0000000000 0.0000000000
1.0000000000 0.0000000000 0.0000000000
1.0000000000 0.0000000000 0.0000000000
1.0000000000 0.0000000000 0.0000000000
1.0000000000 0.0000000000 0.0000000000
1.0000000000 0.0000000000 0.0000000000
0.0000000000 0.3904780000 0.0000000000
0.0000000000 0.3881740000 0.0000000000
0.0000000000 0.3857940000 0.0000000000
0.0000000000 0.3833680000 0.0000000000
0.0000000000 0.3806060000 0.0000000000
0.0000000000 0.3772950000 0.0000000000
0.0595254000 0.3733580000 0.0000000000
0.1697720000 0.3686880000 0.0000000000
0.2523380000 0.3631650000 0.0000000000
0.3251090000 0.3566640000 0.0000000000
0.3931940000 0.3490650000 0.0000000000
0.4587170000 0.3402300000 0.0000000000
0.5225600000 0.3300370000 0.0000000000
0.5850770000 0.3183950000 0.0000000000
0.6462650000 0.3051800000 0.0000000000
0.7059130000 0.2903330000 0.0000000000
0.7636840000 0.2738380000 0.0000000000
0.8191350000 0.2556650000 0.0000000000
0.8718390000 0.2358430000 0.0000000000
0.9213860000 0.2144200000 0.0000000000
0.9673910000 0.1914400000 0.0000000000
1.0000000000 0.1669030000 0.0000000000
1.0000000000 0.1407340000 0.0000000000
1.0000000000 0.1127030000 0.0000000000
1.0000000000 0.0822156000 0.0000000000
1.0000000000 0.0513466000 0.0000000000
1.0000000000 0.0239872000 0.0000000000
1.0000000000 0.0000000000 0.0000000000
1.0000000000 0.0000000000 0.0000000000
1.0000000000 0.0000000000 0.0000000000
1.0000000000 0.0000000000 0.0000000000
1.0000000000 0.0000000000 0.0000000000
1.0000000000 0.0000000000 0.0000000000
0.0000000000 0.4419010000 0.0000000000
0.0000000000 0.4398570000 0.0000000000
0.0000000000 0.4377660000 0.0000000000
0.0000000000 0.4356300000 0.0000000000
0.0000000000 0.4331880000 0.0000000000
0.0000000000 0.4302740000 0.0000000000
0.0000000000 0.4268250000 0.0000000000
0.1210500000 0.4227210000 0.0000000000
0.2191650000 0.4178990000 0.0000000000
0.2993060000 0.4122380000 0.0000000000
0.3719230000 0.4056460000 0.0000000000
0.4405740000 0.3980320000 0.0000000000
0.5067370000 0.3893190000 0.0000000000
0.5710380000 0.3794000000 0.0000000000
0.6336610000 0.3682770000 0.0000000000
0.6944530000 0.3559320000 0.0000000000
0.7531700000 0.3423970000 0.0000000000
0.8094150000 0.3277490000 0.0000000000
0.8627600000 0.3121390000 0.0000000000
0.9128400000 0.2957200000 0.0000000000
0.9593040000 0.2787060000 0.0000000000
1.0000000000 0.2613260000 0.0000000000
1.0000000000 0.2438390000 0.0000000000
1.0000000000 0.2264900000 0.0000000000
1.0000000000 0.2094910000 0.0000000000
1.0000000000 0.1930570000 0.0000000000
1.0000000000 0.1773560000 0.0000000000
1.0000000000 0.1625390000 0.0000000000
1.0000000000 0.1486840000 0.0000000000
1.0000000000 0.1358820000 0.0000000000
1.0000000000 0.1241630000 0.0000000000
1.0000000000 0.1135420000 0.0000000000
1.0000000000 0.1039900000 0.0000000000
0.0000000000 0.4938890000 0.0000000000
0.0000000000 0.4920580000 0.0000000000
0.0000000000 0.4901960000 0.0000000000
0.0000000000 0.4882730000 0.0000000000
0.0000000000 0.4861070000 0.0000000000
0.0000000000 0.4835130000 0.0000000000
0.0000000000 0.4804460000 0.0000000000
0.0459754000 0.4768140000 0.0000000000
0.1754020000 0.4725410000 0.0000000000
0.2672470000 0.4675360000 0.0000000000
0.3462270000 0.4617380000 0.0000000000
0.4190130000 0.4550550000 0.0000000000
0.4881210000 0.4474400000 0.0000000000
0.5546500000 0.4388190000 0.0000000000
0.6189970000 0.4292210000 0.0000000000
0.6811930000 0.4186310000 0.0000000000
0.7410390000 0.4071110000 0.0000000000
0.7981990000 0.3947970000 0.0000000000
0.8523080000 0.3818110000 0.0000000000
0.9030290000 0.3683530000 0.0000000000
0.9500270000 0.3546350000 0.0000000000
0.9931030000 0.3408710000 0.0000000000
1.0000000000 0.3273210000 0.0000000000
1.0000000000 0.3141990000 0.0000000000
1.0000000000 0.3016710000 0.0000000000
1.0000000000 0.2899060000 0.0000000000
1.0000000000 0.2790110000 0.0000000000
1.0000000000 0.2690780000 0.0000000000
1.0000000000 0.2601210000 0.0000000000
1.0000000000 0.2521400000 0.0000000000
1.0000000000 0.2451060000 0.0000000000
1.0000000000 0.2389560000 0.0000000000
1.0000000000 0.2336310000 0.0000000000
0.0000000000 0.5463040000 0.0000000000
0.0000000000 0.5446560000 0.0000000000
0.0000000000 0.5429770000 0.0000000000
0.0000000000 0.5412530000 0.0000000000
0.0000000000 0.5393000000 0.0000000000
0.0000000000 0.5369800000 0.0000000000
0.0000000000 0.5342180000 0.0000000000
0.0000000000 0.5309680000 0.0000000000
0.1128560000 0.5271380000 0.0000000000
0.2265660000 0.5226670000 0.0000000000
0.3150220000 0.5174940000 0.0000000000
0.3934080000 0.5115590000 0.0000000000
0.4663160000 0.5047990000 0.0000000000
0.5356220000 0.4971850000 0.0000000000
0.6020900000 0.4887310000 0.0000000000
0.6659650000 0.4794690000 0.0000000000
0.7271380000 0.4694590000 0.0000000000
0.7853970000 0.4587930000 0.0000000000
0.8404060000 0.4476540000 0.0000000000
0.8918590000 0.4361940000 0.0000000000
0.9394830000 0.4246280000 0.0000000000
0.9830630000 0.4131530000 0.0000000000
1.0000000000 0.4019530000 0.0000000000
1.0000000000 0.3912410000 0.0000000000
1.0000000000 0.3811400000 0.0000000000
1.0000000000 0.3717560000 0.0000000000
1.0000000000 0.3631950000 0.0000000000
1.0000000000 0.3554740000 0.0000000000
1.0000000000 0.3485770000 0.0000000000
1.0000000000 0.3425190000 0.0000000000
1.0000000000 0.3372240000 0.0000000000
1.0000000000 0.3326470000 0.0000000000
1.0000000000 0.3287100000 0.0000000000
0.0000000000 0.5989320000 0.0000000000
0.0000000000 0.5974360000 0.0000000000
0.0000000000 0.5959110000 0.0000000000
0.0000000000 0.5943540000 0.0000000000
0.0000000000 0.5925840000 0.0000000000
0.0000000000 0.5904780000 0.0000000000
0.0000000000 0.5879760000 0.0000000000
0.0000000000 0.5850310000 0.0000000000
0.0160678000 0.5815670000 0.0000000000
0.1725950000 0.5775390000 0.0000000000
0.2766460000 0.5728690000 0.0000000000
0.3629660000 0.5675290000 0.0000000000
0.4408790000 0.5614710000 0.0000000000
0.5136800000 0.5546650000 0.0000000000
0.5827420000 0.5471270000 0.0000000000
0.6486150000 0.5388720000 0.0000000000
0.7113910000 0.5300070000 0.0000000000
0.7709320000 0.5206230000 0.0000000000
0.8269930000 0.5108420000 0.0000000000
0.8793010000 0.5008470000 0.0000000000
0.9276260000 0.4908220000 0.0000000000
0.9718010000 0.4809190000 0.0000000000
1.0000000000 0.4713360000 0.0000000000
1.0000000000 0.4622260000 0.0000000000
1.0000000000 0.4536810000 0.0000000000
1.0000000000 0.4458230000 0.0000000000
1.0000000000 0.4386820000 0.0000000000
1.0000000000 0.4322730000 0.0000000000
1.0000000000 0.4265960000 0.0000000000
1.0000000000 0.4216220000 0.0000000000
1.0000000000 0.4173040000 0.0000000000
1.0000000000 0.4135960000 0.0000000000
1.0000000000 0.4104070000 0.0000000000
0.0000000000 0.6514080000 0.0000000000
0.0000000000 0.6500500000 0.0000000000
0.0000000000 0.6486460000 0.0000000000
0.0000000000 0.6472270000 0.0000000000
0.0000000000 0.6455940000 0.0000000000
0.0000000000 0.6436710000 0.0000000000
0.0000000000 0.6413980000 0.0000000000
0.0000000000 0.6387120000 0.0000000000
0.0000000000 0.6355540000 0.0000000000
0.0920577000 0.6318910000 0.0000000000
0.2282900000 0.6276490000 0.0000000000
0.3265890000 0.6227970000 0.0000000000
0.4112610000 0.6173040000 0.0000000000
0.4885180000 0.6111390000 0.0000000000
0.5608000000 0.6043340000 0.0000000000
0.6290840000 0.5969180000 0.0000000000
0.6937360000 0.5889520000 0.0000000000
0.7547720000 0.5805450000 0.0000000000
0.8120390000 0.5718320000 0.0000000000
0.8653390000 0.5629510000 0.0000000000
0.9144730000 0.5540700000 0.0000000000
0.9593040000 0.5453570000 0.0000000000
0.9998020000 0.5369500000 0.0000000000
1.0000000000 0.5289840000 0.0000000000
1.0000000000 0.5215690000 0.0000000000
1.0000000000 0.5147480000 0.0000000000
1.0000000000 0.5085830000 0.0000000000
1.0000000000 0.5030750000 0.0000000000
1.0000000000 0.4982220000 0.0000000000
1.0000000000 0.4939800000 0.0000000000
1.0000000000 0.4903030000 0.0000000000
1.0000000000 0.4871440000 0.0000000000
1.0000000000 0.4844430000 0.0000000000
0.0000000000 0.7033040000 0.0000000000
0.0000000000 0.7020370000 0.0000000000
0.0000000000 0.7007550000 0.0000000000
0.0000000000 0.6994430000 0.0000000000
0.0000000000 0.6979480000 0.0000000000
0.0000000000 0.6961780000 0.0000000000
0.0000000000 0.6940870000 0.0000000000
0.0000000000 0.6916150000 0.0000000000
0.0000000000 0.6887160000 0.0000000000
0.0000000000 0.6853440000 0.0000000000
0.1638360000 0.6814680000 0.0000000000
0.2826280000 0.6770120000 0.0000000000
0.3768370000 0.6719920000 0.0000000000
0.4598920000 0.6663620000 0.0000000000
0.5361100000 0.6601660000 0.0000000000
0.6073090000 0.6534070000 0.0000000000
0.6741740000 0.6461740000 0.0000000000
0.7369340000 0.6385750000 0.0000000000
0.7956050000 0.6306860000 0.0000000000
0.8500190000 0.6226900000 0.0000000000
0.9000840000 0.6147100000 0.0000000000
0.9456630000 0.6069120000 0.0000000000
0.9867860000 0.5994050000 0.0000000000
1.0000000000 0.5923090000 0.0000000000
1.0000000000 0.5857180000 0.0000000000
1.0000000000 0.5796750000 0.0000000000
1.0000000000 0.5742430000 0.0000000000
1.0000000000 0.5693900000 0.0000000000
1.0000000000 0.5651180000 0.0000000000
1.0000000000 0.5613790000 0.0000000000
1.0000000000 0.5581600000 0.0000000000
1.0000000000 0.5553980000 0.0000000000
1.0000000000 0.5530480000 0.0000000000
0.0000000000 0.7541010000 0.0000000000
0.0000000000 0.7529260000 0.0000000000
0.0000000000 0.7517360000 0.0000000000
0.0000000000 0.7505150000 0.0000000000
0.0000000000 0.7491420000 0.0000000000
0.0000000000 0.7474940000 0.0000000000
0.0000000000 0.7455560000 0.0000000000
0.0000000000 0.7432670000 0.0000000000
0.0000000000 0.7405810000 0.0000000000
0.0000000000 0.7374690000 0.0000000000
0.0627756000 0.7338830000 0.0000000000
0.2280610000 0.7297780000 0.0000000000
0.3367060000 0.7251390000 0.0000000000
0.4274660000 0.7199660000 0.0000000000
0.5086440000 0.7142600000 0.0000000000
0.5833070000 0.7080490000 0.0000000000
0.6527810000 0.7014270000 0.0000000000
0.7175400000 0.6944530000 0.0000000000
0.7777830000 0.6872660000 0.0000000000
0.8334780000 0.6799730000 0.0000000000
0.8845500000 0.6727090000 0.0000000000
0.9309830000 0.6656140000 0.0000000000
0.9727780000 0.6588080000 0.0000000000
1.0000000000 0.6523990000 0.0000000000
1.0000000000 0.6464480000 0.0000000000
1.0000000000 0.6410160000 0.0000000000
1.0000000000 0.6361330000 0.0000000000
1.0000000000 0.6317690000 0.0000000000
1.0000000000 0.6279390000 0.0000000000
1.0000000000 0.6246130000 0.0000000000
1.0000000000 0.6217290000 0.0000000000
1.0000000000 0.6192570000 0.0000000000
1.0000000000 0.6171660000 0.0000000000
0.0000000000 0.8032960000 0.0000000000
0.0000000000 0.8021970000 0.0000000000
0.0000000000 0.8010830000 0.0000000000
0.0000000000 0.7999540000 0.0000000000
0.0000000000 0.7986570000 0.0000000000
0.0000000000 0.7971310000 0.0000000000
0.0000000000 0.7953160000 0.0000000000
0.0000000000 0.7931790000 0.0000000000
0.0000000000 0.7906920000 0.0000000000
0.0000000000 0.7877930000 0.0000000000
0.0000000000 0.7844510000 0.0000000000
0.1558560000 0.7806360000 0.0000000000
0.2895090000 0.7763180000 0.0000000000
0.3909210000 0.7715110000 0.0000000000
0.4783550000 0.7662170000 0.0000000000
0.5572140000 0.7604640000 0.0000000000
0.6296940000 0.7543300000 0.0000000000
0.6967570000 0.7478900000 0.0000000000
0.7587700000 0.7412530000 0.0000000000
0.8158690000 0.7345390000 0.0000000000
0.8680860000 0.7278550000 0.0000000000
0.9154340000 0.7213400000 0.0000000000
0.9579770000 0.7151140000 0.0000000000
0.9958650000 0.7092390000 0.0000000000
1.0000000000 0.7038070000 0.0000000000
1.0000000000 0.6988480000 0.0000000000
1.0000000000 0.6943770000 0.0000000000
1.0000000000 0.6904250000 0.0000000000
1.0000000000 0.6869310000 0.0000000000
1.0000000000 0.6839090000 0.0000000000
1.0000000000 0.6812850000 0.0000000000
1.0000000000 0.6790570000 0.0000000000
1.0000000000 0.6771500000 0.0000000000
0.0000000000 0.8503550000 0.0000000000
0.0000000000 0.8493320000 0.0000000000
0.0000000000 0.8482950000 0.0000000000
0.0000000000 0.8472110000 0.0000000000
0.0000000000 0.8460060000 0.0000000000
0.0000000000 0.8445720000 0.0000000000
0.0000000000 0.8428630000 0.0000000000
0.0000000000 0.8408640000 0.0000000000
0.0000000000 0.8385290000 0.0000000000
0.0000000000 0.8358130000 0.0000000000
0.0000000000 0.8326700000 0.0000000000
0.0425879000 0.8290990000 0.0000000000
0.2326540000 0.8250710000 0.0000000000
0.3497980000 0.8205690000 0.0000000000
0.4452580000 0.8156100000 0.0000000000
0.5291830000 0.8102540000 0.0000000000
0.6051730000 0.8045170000 0.0000000000
0.6748150000 0.7985200000 0.0000000000
0.7387960000 0.7923400000 0.0000000000
