app/src/main/assets/lut_presets/#U8d5b#U535a#U670b#U514b.cube
TITLE "Generated by 3D LUT Creator Pro (c) Oleg Sharonov (33)"
# Resampled from 64 to 33 by scripts/resample_cube_luts.py
# Source: 赛博朋克.cube
LUT_3D_SIZE 5
0.000000 0.000000 0.000000
0.157059 0.018334 0.157314
0.438635 0.000000 0.439409
0.702182 0.000000 0.703354
0.878600 0.000000 0.880063
0.058435 0.210713 0.255965
0.406557 0.000000 0.385648
0.558127 0.000000 0.554113
0.774208 0.000000 0.773017
0.933705 0.000000 0.933434
0.183899 0.509062 0.605125
0.356010 0.477886 0.721922
0.928847 0.000000 0.886000
1.000000 0.243194 0.984473
1.000000 0.442316 0.992111
0.299743 0.785111 0.928310
0.464619 0.768727 0.947124
0.873411 0.695472 0.950047
1.000000 0.717034 0.977249
1.000000 0.790250 0.989041
0.692845 0.893150 0.977891
0.749438 0.886033 0.972864
0.894754 0.875105 0.970600
0.997056 0.899673 0.986150
0.987692 0.959646 0.985261
0.014194 0.012617 0.020503
0.169200 0.000296 0.223102
0.439491 0.000000 0.455337
0.702735 0.000000 0.712044
0.879061 0.000000 0.886575
0.000000 0.222935 0.224060
0.307131 0.170574 0.296504
0.544726 0.075691 0.542196
0.776355 0.000000 0.775923
0.935312 0.000000 0.935638
0.073104 0.519784 0.584709
0.317314 0.498210 0.648964
0.920371 0.079113 0.878006
1.000000 0.246641 0.985075
1.000000 0.444016 0.992497
0.248445 0.791697 0.915308
0.400510 0.779100 0.943977
0.857195 0.703893 0.943542
1.000000 0.718028 0.977295
1.000000 0.791132 0.989165
0.667560 0.898735 0.981137
0.732287 0.890547 0.975126
0.890560 0.877126 0.971032
0.996780 0.900522 0.985951
0.987692 0.960319 0.985336
0.135780 0.000000 0.311243
0.194460 0.000000 0.400981
0.426941 0.000000 0.597715
0.703897 0.000000 0.781597
0.880872 0.000000 0.937353
0.114942 0.025648 0.721897
0.267919 0.197301 0.441150
0.465526 0.208393 0.582675
0.753899 0.133169 0.809802
0.938349 0.000000 0.979488
0.000000 0.537719 0.543772
0.000000 0.546663 0.550883
0.663301 0.467363 0.644610
0.912650 0.401984 0.904747
1.000000 0.457131 0.995823
0.000000 0.815926 0.837758
0.000000 0.819247 0.859939
0.737069 0.755923 0.911940
0.968251 0.743661 0.949114
1.000000 0.797761 0.990173
0.319885 0.948521 1.000000
0.469360 0.938712 1.000000
0.849742 0.894658 0.972739
0.994584 0.907185 0.984326
0.987815 0.965502 0.985890
0.267427 0.000000 0.563515
0.298297 0.000000 0.613097
0.435697 0.000000 0.808469
0.651700 0.101578 1.000000
0.806465 0.269002 1.000000
0.366304 0.000000 0.769820
0.389522 0.000000 0.802230
0.494583 0.091842 0.906097
0.676600 0.232010 1.000000
0.824809 0.336712 1.000000
0.000000 0.527925 0.839520
0.168256 0.525106 0.868272
0.572232 0.521935 0.752507
0.734484 0.554990 0.861596
0.915875 0.548581 1.000000
0.000000 0.833187 0.848860
0.000000 0.838252 0.853326
0.375908 0.848760 0.856801
0.895688 0.799499 0.885217
1.000000 0.816200 0.994123
0.000000 0.976632 0.985622
0.000000 0.980789 0.988972
0.233841 0.997907 1.000000
0.958105 0.935340 0.979238
0.989823 0.979375 0.988918
0.395182 0.000000 0.808720
0.415067 0.000000 0.840897
0.511556 0.000000 0.989151
0.613324 0.314096 1.000000
0.695833 0.444016 1.000000
0.464622 0.000000 0.950841
0.481522 0.000000 0.976492
0.539536 0.198777 1.000000
0.632777 0.376137 1.000000
0.712734 0.486856 1.000000
0.589407 0.452327 1.000000
0.607474 0.456866 1.000000
0.646635 0.502558 1.000000
0.721691 0.584736 1.000000
0.791336 0.654450 1.000000
0.506798 0.809692 1.000000
0.535801 0.810578 1.000000
0.668307 0.815343 1.000000
0.862709 0.828360 1.000000
0.918635 0.874566 1.000000
0.496167 0.971980 1.000000
0.523970 0.972940 1.000000
0.651110 0.978139 1.000000
0.901920 0.976992 0.983102
1.000000 1.000000 1.000000
