app/src/main/assets/lut_presets/#U8d5b#U535a#U670b#U514b.cube
TITLE "Generated by 3D LUT Creator Pro (c) Oleg Sharonov (33)"
# Resampled from 64 to 33 by scripts/resample_cube_luts.py
# Source: 赛博朋克.cube
LUT_3D_SIZE 9
0.000000 0.000000 0.000000
0.008970 0.006801 0.008970
0.157059 0.018334 0.157314
0.307108 0.000000 0.307660
0.438635 0.000000 0.439409
0.570274 0.000000 0.571263
0.702182 0.000000 0.703354
0.833811 0.000000 0.835212
0.878600 0.000000 0.880063
0.022868 0.040454 0.049070
0.078158 0.028721 0.074340
0.206627 0.000172 0.205704
0.326584 0.000000 0.326501
0.451618 0.000000 0.452006
0.579772 0.000000 0.580461
0.709413 0.000000 0.710402
0.839653 0.000000 0.840885
0.884041 0.000000 0.885371
0.058435 0.210713 0.255965
0.099945 0.205801 0.276838
0.406557 0.000000 0.385648
0.470209 0.000000 0.462327
0.558127 0.000000 0.554113
0.661529 0.000000 0.659261
0.774208 0.000000 0.773017
0.892499 0.000000 0.892032
0.933705 0.000000 0.933434
0.122329 0.362053 0.432984
0.145643 0.359858 0.442413
0.425376 0.281912 0.561432
0.671431 0.000000 0.639397
0.728065 0.000000 0.711169
0.803975 0.000000 0.793964
0.894134 0.000000 0.887530
0.993382 0.008078 0.988849
1.000000 0.180130 0.996211
0.183899 0.509062 0.605125
0.199681 0.507706 0.611085
0.356010 0.477886 0.721922
0.764587 0.293842 0.797188
0.928847 0.000000 0.886000
0.983224 0.000739 0.956510
1.000000 0.243194 0.984473
1.000000 0.398250 0.990650
1.000000 0.442316 0.992111
0.243482 0.651947 0.772456
0.255258 0.650963 0.776743
0.370524 0.635746 0.838207
0.675022 0.563697 0.916921
0.991258 0.402069 0.958033
1.000000 0.457502 0.963046
1.000000 0.527022 0.977479
1.000000 0.603116 0.986948
1.000000 0.630068 0.989054
0.299743 0.785111 0.928310
0.308965 0.784357 0.931667
0.464619 0.768727 0.947124
0.693487 0.734202 0.940433
0.873411 0.695472 0.950047
1.000000 0.671597 0.967385
1.000000 0.717034 0.977249
1.000000 0.770440 0.986465
1.000000 0.790250 0.989041
0.631505 0.876352 0.974771
0.638871 0.875452 0.974146
0.705016 0.866893 0.968569
0.798682 0.855246 0.963478
0.881624 0.849196 0.965357
0.977107 0.841635 0.985005
1.000000 0.869061 0.986015
0.995215 0.913634 0.988096
0.990811 0.931490 0.986088
0.692845 0.893150 0.977891
0.698317 0.892437 0.977389
0.749438 0.886033 0.972864
0.825510 0.877744 0.968654
0.894754 0.875105 0.970600
0.971936 0.874312 0.984606
0.997056 0.899673 0.986150
0.989068 0.943761 0.984819
0.987692 0.959646 0.985261
0.000789 0.000789 0.000789
0.009758 0.007590 0.010547
0.158414 0.017028 0.161174
0.307095 0.000000 0.309132
0.438630 0.000000 0.440403
0.570394 0.000000 0.572082
0.702189 0.000000 0.703929
0.833833 0.000000 0.835652
0.878604 0.000000 0.880464
0.012962 0.045661 0.045980
0.066412 0.036163 0.065178
0.206513 0.001860 0.205847
0.327018 0.000000 0.327151
0.451828 0.000000 0.452327
0.579926 0.000000 0.580715
0.709574 0.000000 0.710601
0.839754 0.000000 0.841019
0.884124 0.000000 0.885485
0.041638 0.213065 0.251763
0.094116 0.208146 0.267433
0.406943 0.000000 0.385940
0.470535 0.000000 0.462758
0.558335 0.000000 0.554400
0.661653 0.000000 0.659471
0.774396 0.000000 0.773247
0.892651 0.000000 0.892238
0.933782 0.000000 0.933541
0.113633 0.363256 0.430565
0.142670 0.360832 0.438471
0.418185 0.285874 0.559661
0.671630 0.000000 0.639556
0.728187 0.000000 0.711367
0.804082 0.000000 0.794141
0.894240 0.000000 0.887682
0.993452 0.008138 0.988953
1.000000 0.180577 0.996238
0.178303 0.509852 0.603514
0.197806 0.508271 0.608615
0.353041 0.479627 0.715681
0.759885 0.299815 0.794187
0.928965 0.000000 0.886095
0.983299 0.000887 0.956633
1.000000 0.243407 0.984503
1.000000 0.398334 0.990688
1.000000 0.442393 0.992136
0.239554 0.652529 0.771273
0.253851 0.651409 0.774991
0.368929 0.636449 0.835401
0.672209 0.564956 0.916406
0.990374 0.403160 0.957753
1.000000 0.457630 0.963046
1.000000 0.527099 0.977490
1.000000 0.603168 0.986965
1.000000 0.630151 0.989080
0.296587 0.785577 0.927394
0.307870 0.784675 0.930296
0.460615 0.769408 0.946999
0.692167 0.734671 0.940122
0.872337 0.696053 0.949604
1.000000 0.671641 0.967380
1.000000 0.717097 0.977249
1.000000 0.770500 0.986486
1.000000 0.790294 0.989041
0.629418 0.876827 0.975004
0.637279 0.875815 0.974121
0.703945 0.867198 0.968523
0.798101 0.855475 0.963375
0.881239 0.849382 0.965255
0.976718 0.841852 0.984778
1.000000 0.869104 0.986015
0.995141 0.913720 0.988018
0.990811 0.931538 0.986067
0.691279 0.893505 0.978077
0.696799 0.892795 0.977573
0.748371 0.886309 0.973003
0.825012 0.877944 0.968688
0.894488 0.875271 0.970627
0.971723 0.874436 0.984537
0.997036 0.899734 0.986128
0.989044 0.943790 0.984819
0.987692 0.959703 0.985288
0.014194 0.012617 0.020503
0.023608 0.019419 0.038494
0.169200 0.000296 0.223102
0.307870 0.000000 0.332453
0.439491 0.000000 0.455337
0.571047 0.000000 0.582721
0.702735 0.000000 0.712044
0.834216 0.000000 0.842100
0.879061 0.000000 0.886575
0.052296 0.040195 0.113149
0.062677 0.047399 0.106764
0.188218 0.029830 0.231127
0.326553 0.004765 0.345782
0.453052 0.000000 0.465157
0.580924 0.000000 0.589792
0.710410 0.000000 0.717534
0.840433 0.000000 0.846535
0.884764 0.000000 0.890637
0.000000 0.222935 0.224060
0.000000 0.225023 0.226199
0.307131 0.170574 0.296504
0.428854 0.125260 0.423834
0.544726 0.075691 0.542196
0.660045 0.027027 0.658794
0.776355 0.000000 0.775923
0.894269 0.000000 0.894424
0.935312 0.000000 0.935638
0.000000 0.374443 0.402489
0.010185 0.374641 0.408763
0.317225 0.332474 0.525400
0.622654 0.173401 0.594410
0.709679 0.108506 0.694495
0.805889 0.000000 0.796776
0.895824 0.000000 0.889972
0.994729 0.008704 0.990819
1.000000 0.185017 0.996746
0.073104 0.519784 0.584709
0.118871 0.518259 0.587285
0.317314 0.498210 0.648964
0.697805 0.363875 0.757059
0.920371 0.079113 0.878006
0.971924 0.096925 0.946337
1.000000 0.246641 0.985075
1.000000 0.400218 0.991109
1.000000 0.444016 0.992497
0.174832 0.660131 0.756470
0.199211 0.658906 0.758647
0.347344 0.645408 0.800847
0.631926 0.581476 0.910368
0.972882 0.422760 0.950985
1.000000 0.459290 0.963022
0.997975 0.530257 0.975792
1.000000 0.604321 0.987222
1.000000 0.631220 0.989303
0.248445 0.791697 0.915308
0.265898 0.790701 0.917169
0.400510 0.779100 0.943977
0.672060 0.741536 0.935885
0.857195 0.703893 0.943542
0.998849 0.673466 0.966239
1.000000 0.718028 0.977295
0.999693 0.771508 0.986285
1.000000 0.791132 0.989165
0.595929 0.883301 0.978751
0.606362 0.882013 0.977238
0.687483 0.871654 0.968024
0.789413 0.858711 0.962034
0.875904 0.851924 0.964056
0.971180 0.844970 0.981796
0.999840 0.869911 0.985914
0.993877 0.914943 0.986970
0.990665 0.932238 0.985995
0.667560 0.898735 0.981137
0.673791 0.897970 0.980541
0.732287 0.890547 0.975126
0.817006 0.880742 0.969375
0.890560 0.877126 0.971032
0.968588 0.876338 0.983626
0.996780 0.900522 0.985951
0.988963 0.944475 0.984795
0.987692 0.960319 0.985336
0.060687 0.036472 0.117609
0.070622 0.037063 0.141314
0.165734 0.000000 0.322934
0.300578 0.000000 0.413362
0.439306 0.000000 0.502548
0.571886 0.000000 0.615528
0.703695 0.000000 0.736792
0.835199 0.000000 0.861756
0.879900 0.000000 0.904810
0.110494 0.007566 0.261328
0.114781 0.015688 0.261021
0.187398 0.000712 0.362416
0.318427 0.000000 0.431290
0.452279 0.000000 0.513233
0.581563 0.000000 0.623014
0.711274 0.000000 0.742465
0.841333 0.000000 0.866290
0.885661 0.000000 0.909021
0.000000 0.227285 0.286118
0.000323 0.228763 0.292018
0.212794 0.225072 0.278020
0.336835 0.224388 0.359869
0.475810 0.207414 0.490652
0.608815 0.190687 0.619567
0.740862 0.171758 0.749372
0.872977 0.147281 0.880184
0.938554 0.000000 0.945811
0.000000 0.382586 0.386159
0.000000 0.383718 0.387085
0.138338 0.388954 0.392639
0.487092 0.322246 0.471783
0.603636 0.293666 0.595392
0.732844 0.248158 0.727578
0.852221 0.210799 0.848791
0.970740 0.174564 0.968611
1.000000 0.198044 0.998348
0.000000 0.531033 0.539232
0.000000 0.531574 0.541784
0.185041 0.529052 0.569313
0.531653 0.463231 0.699482
0.792449 0.354815 0.761050
0.881642 0.326734 0.862160
0.983655 0.289319 0.970745
0.995874 0.410882 0.988282
1.000000 0.448894 0.993619
0.000000 0.673563 0.716747
0.000000 0.673856 0.719700
0.243926 0.667199 0.742967
0.504751 0.628454 0.859143
0.900309 0.489679 0.919997
0.971694 0.492203 0.936979
0.975973 0.552879 0.955815
0.996412 0.610368 0.984506
1.000000 0.634444 0.989984
0.000961 0.806570 0.884896
0.022241 0.806451 0.887406
0.300089 0.797356 0.903715
0.593873 0.764221 0.924530
0.812287 0.725257 0.928569
0.981542 0.687201 0.951669
0.991943 0.725577 0.970109
0.990605 0.778947 0.978191
1.000000 0.793567 0.989516
0.439625 0.906505 0.993397
0.460875 0.904623 0.991282
0.613600 0.888038 0.972812
0.758625 0.869200 0.959002
0.860660 0.859090 0.961578
0.955450 0.853746 0.973804
0.995875 0.873901 0.982557
0.990487 0.918438 0.984131
0.990255 0.934402 0.985804
0.568404 0.917344 0.992913
0.578277 0.916247 0.992045
0.666472 0.905773 0.983804
0.786429 0.890466 0.972830
0.878553 0.882764 0.972180
0.958836 0.882073 0.981021
0.995995 0.902964 0.985380
0.988696 0.946545 0.984723
0.987692 0.962244 0.985496
0.135780 0.000000 0.311243
0.141258 0.000000 0.320065
0.194460 0.000000 0.400981
0.291776 0.000000 0.513317
0.426941 0.000000 0.597715
0.569742 0.000000 0.676628
0.703897 0.000000 0.781597
0.836049 0.000000 0.896800
0.880872 0.000000 0.937353
0.158032 0.000000 0.356549
0.163068 0.000000 0.364333
0.211437 0.000000 0.434146
0.304818 0.000000 0.535524
0.438518 0.000000 0.610033
0.578857 0.000000 0.684619
0.711180 0.000000 0.787476
0.841959 0.000000 0.901355
0.886437 0.000000 0.941610
0.114942 0.025648 0.721897
0.162975 0.000000 0.724401
0.267919 0.197301 0.441150
0.318063 0.234071 0.453809
0.465526 0.208393 0.582675
0.618065 0.168334 0.694883
0.753899 0.133169 0.809802
0.886033 0.088226 0.929611
0.938349 0.000000 0.979488
0.000000 0.390596 0.411581
0.000000 0.391686 0.412854
0.154174 0.395616 0.415047
0.351536 0.392211 0.402098
0.497638 0.381622 0.501019
0.632719 0.367602 0.635627
0.765203 0.353142 0.767888
0.906927 0.322231 0.909495
0.997009 0.225394 1.000000
0.000000 0.537719 0.543772
0.000000 0.538461 0.544376
0.000000 0.546663 0.550883
0.332776 0.539797 0.556488
0.663301 0.467363 0.644610
0.773757 0.447708 0.762492
0.912650 0.401984 0.904747
0.968743 0.450766 0.963866
1.000000 0.457131 0.995823
0.000000 0.682363 0.683393
0.000000 0.682926 0.683819
0.000000 0.688333 0.695393
0.370222 0.675059 0.730230
0.730277 0.595978 0.849435
0.914834 0.547098 0.885371
0.939733 0.586990 0.923404
0.977576 0.629672 0.967700
1.000000 0.639934 0.991285
0.000000 0.815926 0.837758
0.000000 0.816221 0.839396
0.000000 0.819247 0.859939
0.409844 0.803449 0.892150
0.737069 0.755923 0.911940
0.945412 0.711095 0.935250
0.968251 0.743661 0.949114
0.979269 0.789216 0.968355
1.000000 0.797761 0.990173
0.010760 0.934524 0.985609
0.014432 0.934645 0.987266
0.228309 0.930441 0.998029
0.654625 0.894935 0.968618
0.827981 0.872530 0.959860
0.933199 0.865774 0.968186
0.993886 0.878568 0.980924
0.989173 0.922486 0.983244
0.989598 0.938110 0.985512
0.319885 0.948521 1.000000
0.335916 0.947698 1.000000
0.469360 0.938712 1.000000
0.690392 0.914524 0.985929
0.849742 0.894658 0.972739
0.940809 0.892086 0.977418
0.994584 0.907185 0.984326
0.988317 0.950092 0.984664
0.987815 0.965502 0.985890
0.196193 0.000000 0.426831
0.199989 0.000000 0.433147
0.238516 0.000000 0.493754
0.311911 0.000000 0.598140
0.416293 0.000000 0.707614
0.549830 0.000000 0.795945
0.698444 0.000000 0.862372
0.834703 0.000000 0.958054
0.880210 0.000000 0.993904
0.212214 0.000000 0.459385
0.215699 0.000000 0.464963
0.251926 0.000000 0.520457
0.322573 0.000000 0.618295
0.425096 0.000000 0.722139
0.557957 0.000000 0.805113
0.705322 0.000000 0.868756
0.840447 0.000000 0.962921
0.884311 0.014634 0.996735
0.318303 0.000000 0.689396
0.320801 0.000000 0.692633
0.322987 0.141179 0.623893
0.362643 0.191954 0.630567
0.457975 0.184868 0.737754
0.616753 0.091981 0.855211
0.768255 0.000000 0.923345
0.888329 0.047199 0.999208
0.904233 0.182449 1.000000
0.000000 0.361745 0.695352
0.000000 0.360609 0.705546
0.243468 0.347829 0.719788
0.417405 0.365959 0.579500
0.462822 0.400958 0.578091
0.600804 0.387821 0.710380
0.757017 0.359312 0.838237
0.902178 0.328586 0.965704
0.941953 0.330818 1.000000
0.000000 0.547029 0.567087
0.000000 0.547757 0.567784
0.006889 0.555462 0.575708
0.311756 0.553649 0.567439
0.494841 0.550434 0.553901
0.658835 0.533420 0.658385
0.795216 0.518024 0.795573
0.953981 0.478629 0.954755
0.998903 0.471214 0.999899
0.000000 0.689453 0.698993
0.000000 0.689992 0.699451
0.000000 0.695972 0.704435
0.179692 0.704188 0.709231
0.493484 0.689641 0.712999
0.820836 0.618453 0.800765
0.883488 0.633678 0.873254
0.972304 0.642409 0.965333
1.000000 0.648877 0.993895
0.000000 0.823787 0.828053
0.000000 0.824221 0.828396
0.000000 0.829012 0.832033
0.033000 0.839003 0.842387
0.531123 0.814154 0.872926
0.847794 0.762006 0.894215
0.932468 0.769840 0.917573
0.977492 0.797132 0.967884
1.000000 0.804678 0.991403
0.000000 0.944718 0.945373
0.000000 0.945072 0.945686
0.000000 0.948529 0.954067
0.016133 0.954421 0.986755
0.688241 0.910676 0.972322
0.892261 0.885142 0.966420
0.990694 0.886199 0.978597
0.987613 0.928975 0.982323
0.988688 0.944174 0.985166
0.000000 0.968769 0.971248
0.000000 0.969065 0.971984
0.000000 0.972127 0.982968
0.347868 0.965874 1.000000
0.721683 0.929808 0.990201
0.908497 0.908136 0.977156
0.990231 0.914622 0.984291
0.987899 0.955827 0.984787
0.988268 0.970788 0.986743
0.267427 0.000000 0.563515
0.270206 0.000000 0.568200
0.298297 0.000000 0.613097
0.355269 0.000000 0.699340
0.435697 0.000000 0.808469
0.542778 0.000000 0.917052
0.651700 0.101578 1.000000
0.776730 0.221999 1.000000
0.806465 0.269002 1.000000
0.278990 0.000000 0.586966
0.281536 0.000000 0.591049
0.308731 0.000000 0.633986
0.363984 0.000000 0.716431
0.442928 0.000000 0.822012
0.548991 0.000000 0.927487
0.654034 0.120594 1.000000
0.778640 0.230997 1.000000
0.808192 0.276178 1.000000
0.366304 0.000000 0.769820
0.368232 0.000000 0.772570
0.389522 0.000000 0.802230
0.434865 0.012365 0.857449
0.494583 0.091842 0.906097
0.596761 0.080159 1.000000
0.676600 0.232010 1.000000
0.796864 0.301495 1.000000
0.824809 0.336712 1.000000
0.425711 0.173800 1.000000
0.433098 0.170460 1.000000
0.485386 0.166407 0.992944
0.470537 0.331531 0.782663
0.507111 0.373936 0.773589
0.582897 0.392950 0.849299
0.702566 0.392953 0.953350
0.824264 0.421322 0.982544
0.859867 0.434370 1.000000
0.000000 0.527925 0.839520
0.000000 0.527935 0.843901
0.168256 0.525106 0.868272
0.408192 0.514115 0.853807
0.572232 0.521935 0.752507
0.615666 0.557889 0.737452
0.734484 0.554990 0.861596
0.877191 0.544833 0.970948
0.915875 0.548581 1.000000
0.000000 0.700591 0.730807
0.000000 0.701110 0.731396
0.000000 0.706795 0.737704
0.255353 0.710018 0.738133
0.473584 0.706456 0.726437
0.647334 0.703601 0.712853
0.798570 0.693269 0.801425
0.949019 0.671561 0.952154
0.996756 0.665081 0.999887
0.000000 0.833187 0.848860
0.000000 0.833619 0.849253
0.000000 0.838252 0.853326
0.000000 0.848710 0.862292
0.375908 0.848760 0.856801
0.595229 0.844022 0.852145
0.895688 0.799499 0.885217
0.972247 0.811402 0.965615
1.000000 0.816200 0.994123
0.000000 0.952606 0.962577
0.000000 0.952960 0.962856
0.000000 0.956900 0.966064
0.000000 0.965752 0.973033
0.000000 0.980107 0.983354
0.635802 0.951445 0.987102
0.951823 0.909955 0.973314
0.985178 0.939724 0.980918
0.987713 0.954120 0.985103
0.000000 0.976632 0.985622
0.000000 0.976968 0.985889
0.000000 0.980789 0.988972
0.000000 0.989374 0.995644
0.233841 0.997907 1.000000
0.714487 0.963192 0.997930
0.958105 0.935340 0.979238
0.987842 0.965238 0.985547
0.989823 0.979375 0.988918
0.351594 0.000000 0.725185
0.353525 0.000000 0.728292
0.374419 0.000000 0.761971
0.418244 0.000000 0.830533
0.482425 0.000000 0.925147
0.553785 0.112666 1.000000
0.618216 0.264321 1.000000
0.682279 0.375753 1.000000
0.702145 0.411841 1.000000
0.360074 0.000000 0.742208
0.361972 0.000000 0.745258
0.382313 0.000000 0.777901
0.425270 0.000000 0.844449
0.488581 0.000000 0.937012
0.555901 0.131485 1.000000
0.620066 0.272194 1.000000
0.683951 0.381030 1.000000
0.703765 0.416523 1.000000
0.429490 0.000000 0.885161
0.431131 0.000000 0.887693
0.448240 0.000000 0.913123
0.485611 0.000000 0.966270
0.529966 0.120498 1.000000
0.575918 0.244183 1.000000
0.637408 0.337463 1.000000
0.699675 0.427177 1.000000
0.718919 0.458406 1.000000
0.510729 0.218417 1.000000
0.511530 0.220125 1.000000
0.520608 0.238234 1.000000
0.536747 0.285992 0.981269
0.566709 0.337168 0.972057
0.607739 0.394633 0.968878
0.666663 0.450087 0.980354
0.730759 0.511060 0.996381
0.751252 0.534455 1.000000
0.502146 0.458311 1.000000
0.505397 0.458200 1.000000
0.540484 0.456879 1.000000
0.601138 0.465770 0.971668
0.621988 0.506020 0.927150
0.658411 0.542341 0.926197
0.706689 0.584295 0.932429
0.776852 0.618460 0.989013
0.805557 0.631725 1.000000
0.325483 0.669040 1.000000
0.331337 0.668947 1.000000
0.389482 0.667988 0.999444
0.516752 0.665883 0.967053
0.636185 0.667847 0.929162
0.731459 0.677029 0.918221
0.770449 0.711602 0.915254
0.836442 0.736976 0.976887
0.875989 0.740960 1.000000
0.000000 0.841556 0.942742
0.000000 0.841921 0.943444
0.000000 0.845988 0.951527
0.217588 0.849786 0.958535
0.523588 0.839663 0.929963
0.679612 0.838089 0.919259
0.824591 0.838276 0.911985
0.914847 0.851237 0.959719
0.958916 0.849459 1.000000
0.019229 0.964963 0.991314
0.020454 0.965278 0.991608
0.029988 0.968712 0.994758
0.143434 0.974990 1.000000
0.366403 0.978539 1.000000
0.524025 0.983916 1.000000
0.729188 0.981121 0.987283
0.980072 0.957593 0.977592
0.987877 0.969540 0.986702
0.335965 0.977973 1.000000
0.339777 0.978053 1.000000
0.378990 0.978944 1.000000
0.453308 0.980935 1.000000
0.549160 0.984225 1.000000
0.658839 0.989063 1.000000
0.815829 0.987750 0.990991
0.989091 0.979953 0.988509
0.994780 0.992450 0.994575
0.395182 0.000000 0.808720
0.396857 0.000000 0.811412
0.415067 0.000000 0.840897
0.453790 0.000000 0.902031
0.511556 0.000000 0.989151
0.557940 0.199018 1.000000
0.613324 0.314096 1.000000
0.674853 0.411965 1.000000
0.695833 0.444016 1.000000
0.402424 0.000000 0.823287
0.404148 0.000000 0.826193
0.421928 0.000000 0.854787
0.460138 0.000000 0.914643
0.516326 0.012716 0.997062
0.560122 0.209884 1.000000
0.615208 0.320620 1.000000
0.676524 0.416583 1.000000
0.697472 0.448285 1.000000
0.464622 0.000000 0.950841
0.466054 0.000000 0.952992
0.481522 0.000000 0.976492
0.508368 0.083533 1.000000
0.539536 0.198777 1.000000
0.580485 0.291239 1.000000
0.632777 0.376137 1.000000
0.692380 0.458478 1.000000
0.712734 0.486856 1.000000
0.528379 0.262484 1.000000
0.529106 0.263911 1.000000
0.537197 0.279094 1.000000
0.555313 0.310290 1.000000
0.583726 0.354252 1.000000
0.621304 0.408885 1.000000
0.668456 0.470136 1.000000
0.724908 0.535182 1.000000
0.744133 0.558728 1.000000
0.589407 0.452327 1.000000
0.591716 0.452393 1.000000
0.607474 0.456866 1.000000
0.622628 0.474868 1.000000
0.646635 0.502558 1.000000
0.680475 0.539379 1.000000
0.721691 0.584736 1.000000
0.773596 0.635431 1.000000
0.791336 0.654450 1.000000
0.555217 0.644799 1.000000
0.557374 0.644919 1.000000
0.580505 0.646187 1.000000
0.628518 0.649168 1.000000
0.699711 0.653507 1.000000
0.752770 0.672885 1.000000
0.789840 0.707504 1.000000
0.835417 0.748160 1.000000
0.851610 0.763623 1.000000
0.506798 0.809692 1.000000
0.509306 0.809760 1.000000
0.535801 0.810578 1.000000
0.590565 0.812395 1.000000
0.668307 0.815343 1.000000
0.763551 0.819755 1.000000
0.862709 0.828360 1.000000
0.903632 0.861784 1.000000
0.918635 0.874566 1.000000
0.481073 0.947261 1.000000
0.483738 0.947344 1.000000
0.510146 0.948223 1.000000
0.564736 0.950204 1.000000
0.641909 0.953414 1.000000
0.736772 0.958011 1.000000
0.856640 0.961467 0.993893
0.966635 0.970574 0.988418
0.983947 0.980166 0.991524
0.496167 0.971980 1.000000
0.498499 0.972060 1.000000
0.523970 0.972940 1.000000
0.576413 0.974913 1.000000
0.651110 0.978139 1.000000
0.743333 0.982814 1.000000
0.901920 0.976992 0.983102
0.984810 0.990753 0.991262
1.000000 1.000000 1.000000
