app/src/main/assets/lut_presets/#U8d5b#U535a#U670b#U514b.cube
TITLE "Generated by 3D LUT Creator Pro (c) Oleg Sharonov (33)"
# Resampled from 64 to 33 by scripts/resample_cube_luts.py
# Source: 赛博朋克.cube
LUT_3D_SIZE 33
0.000000 0.000000 0.000000
0.000000 0.000000 0.000000
0.000740 0.000740 0.000740
0.003721 0.003006 0.003721
0.008970 0.006801 0.008970
0.025875 0.015032 0.025875
0.058057 0.024988 0.058057
0.102133 0.029793 0.102421
0.157059 0.018334 0.157314
0.206341 0.000444 0.206851
0.240607 0.000000 0.241033
0.273859 0.000000 0.274407
0.307108 0.000000 0.307660
0.339949 0.000000 0.340586
0.372962 0.000000 0.373678
0.405695 0.000000 0.406423
0.438635 0.000000 0.439409
0.471555 0.000000 0.472368
0.504318 0.000000 0.505193
0.537388 0.000000 0.538351
0.570274 0.000000 0.571263
0.603267 0.000000 0.604287
0.636339 0.000000 0.637420
0.669236 0.000000 0.670350
0.702182 0.000000 0.703354
0.735132 0.000000 0.736385
0.767974 0.000000 0.769278
0.800931 0.000000 0.802271
0.833811 0.000000 0.835212
0.866446 0.000000 0.867878
0.878600 0.000000 0.880063
0.878600 0.000000 0.880063
0.878600 0.000000 0.880063
0.000764 0.000764 0.000764
0.000764 0.000764 0.000764
0.001505 0.001505 0.001505
0.004485 0.003771 0.004485
0.010406 0.007470 0.010406
0.026114 0.015151 0.026114
0.059696 0.025131 0.059696
0.103542 0.029793 0.103826
0.158291 0.017761 0.158647
0.207184 0.000222 0.207565
0.240917 0.000000 0.241342
0.274305 0.000000 0.274805
0.307457 0.000000 0.308053
0.340307 0.000000 0.340899
0.373330 0.000000 0.373953
0.405990 0.000000 0.406718
0.438754 0.000000 0.439568
0.471762 0.000000 0.472574
0.504575 0.000000 0.505449
0.537622 0.000000 0.538547
0.570459 0.000000 0.571428
0.603420 0.000000 0.604475
0.636480 0.000000 0.637574
0.669368 0.000000 0.670513
0.702316 0.000000 0.703520
0.735279 0.000000 0.736503
0.768122 0.000000 0.769388
0.801042 0.000000 0.802381
0.833939 0.000000 0.835315
0.866543 0.000000 0.867978
0.878693 0.000000 0.880186
0.878693 0.000000 0.880186
0.878693 0.000000 0.880186
0.003055 0.003795 0.003795
0.003843 0.003843 0.004559
0.005277 0.004583 0.005323
0.008260 0.006062 0.008260
0.015032 0.009857 0.015032
0.032684 0.017415 0.032684
0.065168 0.026014 0.065168
0.109350 0.029388 0.109374
0.163758 0.014909 0.163947
0.209818 0.000000 0.210137
0.243203 0.000000 0.243623
0.276224 0.000000 0.276637
0.309134 0.000000 0.309614
0.341737 0.000000 0.342327
0.374602 0.000000 0.375225
0.407297 0.000000 0.407981
0.439948 0.000000 0.440685
0.472716 0.000000 0.473526
0.505557 0.000000 0.506404
0.538432 0.000000 0.539331
0.571218 0.000000 0.572185
0.604268 0.000000 0.605271
0.637146 0.000000 0.638209
0.669979 0.000000 0.671122
0.702926 0.000000 0.704090
0.735821 0.000000 0.737044
0.768660 0.000000 0.769924
0.801542 0.000000 0.802880
0.834414 0.000000 0.835786
0.867097 0.000000 0.868523
0.879159 0.000000 0.880589
0.879159 0.000000 0.880589
0.879159 0.000000 0.880589
0.010670 0.014318 0.015821
0.011363 0.015009 0.017205
0.014396 0.013652 0.019453
0.023062 0.013744 0.022481
0.033459 0.017398 0.032646
0.052430 0.022857 0.051828
0.083766 0.028632 0.083352
0.128784 0.025786 0.128503
0.180732 0.005754 0.180682
0.217840 0.000000 0.217852
0.250020 0.000000 0.250280
0.282126 0.000000 0.282361
0.314317 0.000000 0.314673
0.346552 0.000000 0.346973
0.378730 0.000000 0.379251
0.411015 0.000000 0.411567
0.443476 0.000000 0.444096
0.475818 0.000000 0.476552
0.508411 0.000000 0.509154
0.541065 0.000000 0.541872
0.573852 0.000000 0.574708
0.606526 0.000000 0.607491
0.639271 0.000000 0.640286
0.671971 0.000000 0.673038
0.704793 0.000000 0.705882
0.737617 0.000000 0.738786
0.770318 0.000000 0.771545
0.803120 0.000000 0.804420
0.835913 0.000000 0.837246
0.868526 0.000000 0.869897
0.880635 0.000000 0.882061
0.880635 0.000000 0.882061
0.880635 0.000000 0.882061
0.022868 0.040454 0.049070
0.023633 0.041109 0.050771
0.026664 0.039782 0.053392
0.046415 0.036192 0.063137
0.078158 0.028721 0.074340
0.096155 0.029433 0.093384
0.128898 0.023645 0.127137
0.173699 0.006179 0.172301
0.206627 0.000172 0.205704
0.236081 0.000000 0.235586
0.265927 0.000000 0.265502
0.296106 0.000000 0.295848
0.326584 0.000000 0.326501
0.357491 0.000000 0.357575
0.388565 0.000000 0.388728
0.419942 0.000000 0.420252
0.451618 0.000000 0.452006
0.483332 0.000000 0.483799
0.515403 0.000000 0.515957
0.547420 0.000000 0.548046
0.579772 0.000000 0.580461
0.612043 0.000000 0.612833
0.644414 0.000000 0.645282
0.676909 0.000000 0.677838
0.709413 0.000000 0.710402
0.741898 0.000000 0.742945
0.774446 0.000000 0.775558
0.806951 0.000000 0.808140
0.839653 0.000000 0.840885
0.871988 0.000000 0.873283
0.884041 0.000000 0.885371
0.884041 0.000000 0.885371
0.884041 0.000000 0.885371
0.025481 0.083369 0.103627
0.026368 0.083006 0.103998
0.030803 0.082527 0.107384
0.049378 0.078137 0.121787
0.111693 0.058255 0.141011
0.179718 0.007081 0.169419
0.199297 0.001425 0.192221
0.220887 0.000000 0.216664
0.243782 0.000000 0.240935
0.268561 0.000000 0.266533
0.294588 0.000000 0.293029
0.321714 0.000000 0.320534
0.349658 0.000000 0.348776
0.378213 0.000000 0.377541
0.407386 0.000000 0.406905
0.437141 0.000000 0.436854
0.467368 0.000000 0.467234
0.497906 0.000000 0.497912
0.528776 0.000000 0.528903
0.559952 0.000000 0.560210
0.591344 0.000000 0.591683
0.622835 0.000000 0.623282
0.654548 0.000000 0.655073
0.686431 0.000000 0.687075
0.718402 0.000000 0.719110
0.750334 0.000000 0.751145
0.782476 0.000000 0.783328
0.814568 0.000000 0.815513
0.846855 0.000000 0.847856
0.878833 0.000000 0.879932
0.890793 0.000000 0.891901
0.890793 0.000000 0.891901
0.890793 0.000000 0.891901
0.025629 0.128219 0.159384
0.026536 0.128154 0.159870
0.031740 0.127545 0.162305
0.049074 0.125455 0.171808
0.095294 0.112204 0.211772
0.198670 0.065929 0.219860
0.261866 0.000000 0.246888
0.276487 0.000000 0.266156
0.294391 0.000000 0.287534
0.314258 0.000000 0.309290
0.336176 0.000000 0.332368
0.359517 0.000000 0.356549
0.383999 0.000000 0.381559
0.409800 0.000000 0.407817
0.436532 0.000000 0.434961
0.463858 0.000000 0.462563
0.491937 0.000000 0.490928
0.520825 0.000000 0.520009
0.549974 0.000000 0.549376
0.579718 0.000000 0.579288
0.609793 0.000000 0.609522
0.640202 0.000000 0.640083
0.670967 0.000000 0.670991
0.701797 0.000000 0.701918
0.732879 0.000000 0.733138
0.764120 0.000000 0.764478
0.795419 0.000000 0.795878
0.826962 0.000000 0.827528
0.858548 0.000000 0.859212
0.889996 0.000000 0.890731
0.901739 0.000000 0.902512
0.901739 0.000000 0.902512
0.901739 0.000000 0.902512
0.041390 0.170717 0.209009
0.042673 0.170777 0.209606
0.047057 0.170102 0.211216
0.061077 0.168751 0.217501
0.092720 0.163129 0.239299
0.176733 0.136566 0.281729
0.290595 0.060621 0.293194
0.336377 0.000000 0.318306
0.350084 0.000000 0.336614
0.366140 0.000000 0.356395
0.384202 0.000000 0.376867
0.404091 0.000000 0.398284
0.425438 0.000000 0.420715
0.448242 0.000000 0.444368
0.472161 0.000000 0.468897
0.497143 0.000000 0.494391
0.523117 0.000000 0.520793
0.549732 0.000000 0.547774
0.577244 0.000000 0.575585
0.605177 0.000000 0.603787
0.633813 0.000000 0.632675
0.662762 0.000000 0.661836
0.692131 0.000000 0.691419
0.721915 0.000000 0.721367
0.751923 0.000000 0.751528
0.782107 0.000000 0.781863
0.812592 0.000000 0.812499
0.843185 0.000000 0.843229
0.874116 0.000000 0.874283
0.904863 0.000000 0.905115
0.916350 0.000000 0.916675
0.916350 0.000000 0.916675
0.916350 0.000000 0.916675
0.058435 0.210713 0.255965
0.059450 0.210844 0.256318
0.063018 0.210362 0.257681
0.074309 0.209295 0.262435
0.099945 0.205801 0.276838
0.154587 0.189772 0.330266
0.270964 0.150281 0.337457
0.384869 0.020337 0.367256
0.406557 0.000000 0.385648
0.419781 0.000000 0.403289
0.434815 0.000000 0.422208
0.451608 0.000000 0.441860
0.470209 0.000000 0.462327
0.490344 0.000000 0.483855
0.511779 0.000000 0.506287
0.534392 0.000000 0.529720
0.558127 0.000000 0.554113
0.582763 0.000000 0.579293
0.608228 0.000000 0.605252
0.634527 0.000000 0.631922
0.661529 0.000000 0.659261
0.688977 0.000000 0.687037
0.717000 0.000000 0.715332
0.745366 0.000000 0.743966
0.774208 0.000000 0.773017
0.803397 0.000000 0.802410
0.832781 0.000000 0.831979
0.862531 0.000000 0.861914
0.892499 0.000000 0.892032
0.922476 0.000000 0.922174
0.933705 0.000000 0.933434
0.933705 0.000000 0.933434
0.933705 0.000000 0.933434
0.074843 0.249564 0.301254
0.075331 0.249416 0.301495
0.078643 0.249258 0.302670
0.087910 0.248240 0.306383
0.109828 0.245715 0.317295
0.152443 0.236968 0.349138
0.250552 0.205248 0.401957
0.369568 0.147068 0.400730
0.458387 0.014040 0.434208
0.474361 0.000000 0.450647
0.487130 0.000000 0.467708
0.501581 0.000000 0.486144
0.517589 0.000000 0.505315
0.535281 0.000000 0.525268
0.554405 0.000000 0.545990
0.574889 0.000000 0.567705
0.596511 0.000000 0.590318
0.619202 0.000000 0.613824
0.642858 0.000000 0.638155
0.667311 0.000000 0.663181
0.692654 0.000000 0.689004
0.718586 0.000000 0.715364
0.745102 0.000000 0.742280
0.772253 0.000000 0.769754
0.799816 0.000000 0.797626
0.827750 0.000000 0.825825
0.856115 0.000000 0.854454
0.884789 0.000000 0.883347
0.913857 0.000000 0.912627
0.942889 0.000000 0.941849
0.953776 0.000000 0.952803
0.953776 0.000000 0.952803
0.953776 0.000000 0.952803
0.090848 0.287296 0.345557
0.091263 0.287296 0.345728
0.094101 0.287049 0.346734
0.102130 0.286422 0.350003
0.120986 0.284285 0.358549
0.157091 0.278396 0.381465
0.226960 0.255568 0.453106
0.350637 0.216503 0.450110
0.465081 0.123058 0.470645
0.529675 0.000000 0.499411
0.540823 0.000000 0.514341
0.553300 0.000000 0.531046
0.567349 0.000000 0.549119
0.582754 0.000000 0.567990
0.599857 0.000000 0.587609
0.618174 0.000000 0.607789
0.637843 0.000000 0.628889
0.658700 0.000000 0.650891
0.680512 0.000000 0.673669
0.703330 0.000000 0.697286
0.726898 0.000000 0.721538
0.751308 0.000000 0.746548
0.776479 0.000000 0.772223
0.802133 0.000000 0.798329
0.828400 0.000000 0.824992
0.855166 0.000000 0.852123
0.882315 0.000000 0.879605
0.909944 0.000000 0.907522
0.937923 0.000000 0.935768
0.966059 0.000000 0.964144
0.976553 0.000000 0.974724
0.976553 0.000000 0.974724
0.976553 0.000000 0.974724
0.106644 0.324823 0.389433
0.107004 0.324754 0.389552
0.109477 0.324606 0.390422
0.116522 0.323959 0.393170
0.132921 0.322248 0.400354
0.164765 0.317836 0.418207
0.219912 0.304398 0.465960
0.330090 0.268250 0.517329
0.442635 0.221939 0.506080
0.552452 0.093981 0.539396
0.595205 0.000000 0.562181
0.606313 0.000000 0.577043
0.618699 0.000000 0.593646
0.632392 0.000000 0.611440
0.647513 0.000000 0.630159
0.664008 0.000000 0.649470
0.681808 0.000000 0.669380
0.700857 0.000000 0.690047
0.720953 0.000000 0.711490
0.742087 0.000000 0.733706
0.764114 0.000000 0.756665
0.787036 0.000000 0.780370
0.810662 0.000000 0.804672
0.834959 0.000000 0.829558
0.859902 0.000000 0.855033
0.885391 0.000000 0.881007
0.911382 0.000000 0.907410
0.937851 0.000000 0.934264
0.964791 0.000000 0.961534
0.991498 0.004339 0.988571
0.997675 0.046287 0.994868
0.997675 0.046287 0.994868
0.997675 0.046287 0.994868
0.122329 0.362053 0.432984
0.122645 0.361995 0.433139
0.124811 0.361862 0.433896
0.130958 0.361212 0.436226
0.145643 0.359858 0.442413
0.173964 0.356269 0.456940
0.221454 0.346916 0.491713
0.304471 0.316907 0.577628
0.425376 0.281912 0.561432
0.530741 0.220441 0.569141
0.636827 0.040379 0.608148
0.660263 0.000000 0.624512
0.671431 0.000000 0.639397
0.683679 0.000000 0.655856
0.697144 0.000000 0.673490
0.712019 0.000000 0.692071
0.728065 0.000000 0.711169
0.745405 0.000000 0.730846
0.763914 0.000000 0.751176
0.783473 0.000000 0.772219
0.803975 0.000000 0.793964
0.825370 0.000000 0.816398
0.847519 0.000000 0.839455
0.870527 0.000000 0.863250
0.894134 0.000000 0.887530
0.918328 0.000000 0.912305
0.943144 0.000000 0.937675
0.968487 0.000000 0.963500
0.993382 0.008078 0.988849
1.000000 0.141333 0.996000
1.000000 0.180130 0.996211
1.000000 0.180130 0.996211
1.000000 0.180130 0.996211
0.137682 0.398959 0.476184
0.138244 0.398973 0.476400
0.139913 0.398793 0.477002
0.145516 0.398334 0.479126
0.158755 0.397128 0.484588
0.184260 0.394158 0.496870
0.226487 0.387048 0.524152
0.291692 0.368112 0.588804
0.403869 0.331242 0.632989
0.512250 0.292327 0.612807
0.617553 0.210808 0.635406
0.707640 0.027633 0.670917
0.724933 0.000000 0.686437
0.736156 0.000000 0.701387
0.748366 0.000000 0.717776
0.761711 0.000000 0.735344
0.776281 0.000000 0.753714
0.791972 0.000000 0.772692
0.808948 0.000000 0.792195
0.826964 0.000000 0.812230
0.846070 0.000000 0.832988
0.865996 0.000000 0.854287
0.886801 0.000000 0.876259
0.908420 0.000000 0.898874
0.930743 0.000000 0.922071
0.953717 0.000000 0.945817
0.977301 0.000000 0.970080
0.996295 0.049092 0.989752
1.000000 0.164379 0.994228
1.000000 0.241044 0.994941
1.000000 0.263935 0.995185
1.000000 0.263935 0.995185
1.000000 0.263935 0.995185
0.153272 0.435870 0.519404
0.153524 0.435794 0.519527
0.155259 0.435713 0.520131
0.160331 0.435200 0.521932
0.172186 0.434151 0.526745
0.195402 0.431593 0.537393
0.233623 0.425879 0.559849
0.289714 0.412805 0.607163
0.376895 0.379029 0.697788
0.495136 0.347161 0.673014
0.596442 0.298375 0.670688
0.704666 0.187782 0.703559
0.777432 0.010477 0.734524
0.789348 0.000000 0.748133
0.800559 0.000000 0.763076
0.812788 0.000000 0.779491
0.826028 0.000000 0.796981
0.840398 0.000000 0.815186
0.855868 0.000000 0.834145
0.872454 0.000000 0.853472
0.890109 0.000000 0.873328
0.908704 0.000000 0.893719
0.928157 0.000000 0.914681
0.948517 0.000000 0.936323
0.969582 0.000000 0.958495
0.990233 0.010368 0.980137
1.000000 0.097654 0.990975
1.000000 0.200063 0.992066
1.000000 0.262730 0.993023
1.000000 0.313196 0.993865
1.000000 0.330366 0.994149
1.000000 0.330366 0.994149
1.000000 0.330366 0.994149
0.168517 0.472528 0.562337
0.168981 0.472528 0.562448
0.170334 0.472390 0.562993
0.174933 0.472020 0.564676
0.185925 0.471037 0.568929
0.207069 0.468837 0.578340
0.242048 0.464062 0.597421
0.292121 0.454086 0.634596
0.360571 0.431372 0.709190
0.472601 0.394993 0.747824
0.579632 0.360532 0.721072
0.680321 0.299288 0.732628
0.790587 0.140989 0.770907
0.843262 0.000000 0.795818
0.853585 0.000000 0.809639
0.864863 0.000000 0.824674
0.877050 0.000000 0.841030
0.890204 0.000000 0.858499
0.904411 0.000000 0.876585
0.919677 0.000000 0.895469
0.935933 0.000000 0.914674
0.953222 0.000000 0.934339
0.971445 0.000000 0.954511
0.989351 0.011674 0.974078
0.998771 0.084854 0.985175
1.000000 0.179744 0.988040
1.000000 0.242317 0.989480
1.000000 0.292316 0.990726
1.000000 0.335746 0.991830
1.000000 0.374842 0.992792
1.000000 0.388689 0.993124
1.000000 0.388689 0.993124
1.000000 0.388689 0.993124
0.183899 0.509062 0.605125
0.184107 0.509032 0.605200
0.185555 0.508936 0.605696
0.189761 0.508542 0.607179
0.199681 0.507706 0.611085
0.219243 0.505692 0.619449
0.251436 0.501626 0.636018
0.297080 0.493659 0.666655
0.356010 0.477886 0.721922
0.444876 0.442557 0.811884
0.562040 0.412139 0.785260
0.662038 0.370362 0.774894
0.764587 0.293842 0.797188
0.871324 0.107749 0.837694
0.907051 0.000000 0.856907
0.917542 0.000000 0.870917
0.928847 0.000000 0.886000
0.941044 0.000000 0.902369
0.954134 0.000000 0.919795
0.968249 0.000000 0.937856
0.983224 0.000739 0.956510
0.993703 0.048856 0.970383
1.000000 0.108770 0.979613
1.000000 0.189883 0.982250
1.000000 0.243194 0.984473
1.000000 0.287692 0.986368
1.000000 0.327435 0.987996
1.000000 0.363872 0.989415
1.000000 0.398250 0.990650
1.000000 0.430591 0.991742
1.000000 0.442316 0.992111
1.000000 0.442316 0.992111
1.000000 0.442316 0.992111
0.198956 0.545338 0.647589
0.199344 0.545307 0.647681
0.200477 0.545191 0.648136
0.204350 0.544909 0.649535
0.213554 0.544070 0.653038
0.231672 0.542315 0.660613
0.261520 0.538761 0.675282
0.303584 0.532116 0.701257
0.356357 0.520095 0.744925
0.426378 0.494740 0.825994
0.538473 0.458720 0.861523
0.645822 0.426903 0.830162
0.744214 0.376129 0.832765
0.849267 0.281093 0.863200
0.950022 0.044086 0.902778
0.970580 0.000000 0.917768
0.981122 0.000000 0.931848
0.989491 0.030275 0.944289
0.996051 0.063105 0.955440
1.000000 0.116686 0.964309
1.000000 0.180122 0.968970
1.000000 0.225730 0.973263
1.000000 0.265149 0.977017
1.000000 0.300965 0.980061
1.000000 0.334456 0.982589
1.000000 0.366167 0.984735
1.000000 0.396640 0.986562
1.000000 0.426083 0.988167
1.000000 0.454676 0.989560
1.000000 0.482349 0.990758
1.000000 0.492553 0.991176
1.000000 0.492553 0.991176
1.000000 0.492553 0.991176
0.214100 0.581264 0.689669
0.214276 0.581263 0.689772
0.215426 0.581138 0.690161
0.219007 0.580874 0.691465
0.227542 0.580176 0.694742
0.244289 0.578552 0.701614
0.272149 0.575401 0.714760
0.311257 0.569740 0.737386
0.359483 0.560027 0.773368
0.420045 0.542102 0.834511
0.512555 0.509068 0.906347
0.627106 0.477209 0.892610
0.727630 0.438456 0.880233
0.826930 0.376978 0.893536
0.935424 0.255872 0.930577
0.998563 0.148685 0.945794
1.000000 0.184672 0.947978
1.000000 0.217128 0.952295
1.000000 0.247109 0.956775
1.000000 0.275478 0.961475
1.000000 0.302838 0.966213
1.000000 0.329482 0.970472
1.000000 0.355633 0.974381
1.000000 0.381416 0.977891
1.000000 0.407007 0.980770
1.000000 0.432381 0.983191
1.000000 0.457416 0.985234
1.000000 0.482317 0.987006
1.000000 0.506987 0.988547
1.000000 0.531349 0.989875
1.000000 0.540397 0.990329
1.000000 0.540397 0.990329
1.000000 0.540397 0.990329
0.228881 0.616896 0.731376
0.229111 0.616846 0.731439
0.230183 0.616768 0.731828
0.233422 0.616480 0.732990
0.241389 0.615808 0.736002
0.257073 0.614330 0.742316
0.283129 0.611503 0.754192
0.319732 0.606545 0.774239
0.364399 0.598509 0.804960
0.418739 0.584716 0.853742
0.499500 0.560694 0.910232
0.602085 0.534792 0.912621
0.702592 0.500790 0.913068
0.802698 0.452553 0.923970
0.903241 0.380404 0.947802
0.981605 0.308943 0.959632
1.000000 0.310286 0.948037
1.000000 0.329121 0.951791
1.000000 0.348271 0.955747
1.000000 0.367857 0.959825
1.000000 0.387680 0.964077
1.000000 0.407774 0.968371
1.000000 0.428234 0.972242
1.000000 0.449104 0.975785
1.000000 0.470115 0.979042
1.000000 0.491357 0.981752
1.000000 0.512875 0.984032
1.000000 0.534527 0.985976
1.000000 0.556320 0.987661
1.000000 0.577985 0.989126
1.000000 0.586107 0.989629
1.000000 0.586107 0.989629
1.000000 0.586107 0.989629
0.243482 0.651947 0.772456
0.243788 0.651931 0.772505
0.244696 0.651857 0.772868
0.247803 0.651604 0.773961
0.255258 0.650963 0.776743
0.269878 0.649644 0.782592
0.294375 0.647037 0.793466
0.328785 0.642633 0.811441
0.370524 0.635746 0.838207
0.420378 0.624616 0.878811
0.497531 0.606295 0.916912
0.590530 0.586078 0.919380
0.675022 0.563697 0.916921
0.761807 0.532887 0.921616
0.850316 0.490390 0.936643
0.939332 0.431833 0.961210
0.991258 0.402069 0.958033
1.000000 0.410943 0.952168
1.000000 0.425840 0.955711
1.000000 0.441397 0.959326
1.000000 0.457502 0.963046
1.000000 0.474146 0.966892
1.000000 0.491255 0.970766
1.000000 0.508902 0.974284
1.000000 0.527022 0.977479
1.000000 0.545454 0.980459
1.000000 0.564339 0.982988
1.000000 0.583595 0.985123
1.000000 0.603116 0.986948
1.000000 0.622738 0.988527
1.000000 0.630068 0.989054
1.000000 0.630068 0.989054
1.000000 0.630068 0.989054
0.257952 0.686422 0.812786
0.258144 0.686449 0.812924
0.259089 0.686324 0.813197
0.261914 0.686111 0.814258
0.268924 0.685541 0.816869
0.282746 0.684291 0.822257
0.305813 0.681917 0.832294
0.338321 0.677963 0.848646
0.377583 0.671878 0.872355
0.423901 0.662572 0.907121
0.508320 0.647384 0.922767
0.592533 0.630858 0.924243
0.663487 0.614790 0.923468
0.736326 0.594636 0.923381
0.812234 0.567394 0.931392
0.890036 0.531521 0.948106
0.963638 0.490235 0.967329
0.997247 0.480294 0.957573
1.000000 0.491756 0.956501
1.000000 0.504867 0.959749
1.000000 0.518691 0.963042
1.000000 0.533047 0.966420
1.000000 0.547954 0.969898
1.000000 0.563376 0.973382
1.000000 0.579390 0.976555
1.000000 0.595848 0.979409
1.000000 0.612753 0.982128
1.000000 0.630031 0.984455
1.000000 0.647786 0.986430
1.000000 0.665736 0.988130
1.000000 0.672497 0.988691
1.000000 0.672497 0.988691
1.000000 0.672497 0.988691
0.272120 0.720175 0.852322
0.272388 0.720187 0.852396
0.273189 0.720096 0.852706
0.275929 0.719872 0.853663
0.282413 0.719325 0.856105
0.295441 0.718150 0.861157
0.317321 0.715968 0.870462
0.348122 0.712352 0.885446
0.385273 0.707001 0.906817
0.441217 0.698114 0.928787
0.529585 0.684814 0.928646
0.603705 0.671392 0.928669
0.665127 0.658673 0.930270
0.725106 0.645064 0.928336
0.788871 0.627058 0.931412
0.855528 0.603691 0.941778
0.923870 0.574109 0.959173
0.980860 0.548424 0.970125
0.999385 0.550362 0.959047
1.000000 0.561683 0.960908
1.000000 0.573858 0.963868
1.000000 0.586611 0.966876
1.000000 0.599894 0.969929
1.000000 0.613772 0.973059
1.000000 0.628164 0.976185
1.000000 0.643016 0.979025
1.000000 0.658402 0.981589
1.000000 0.674220 0.984025
1.000000 0.690498 0.986149
1.000000 0.706996 0.987947
1.000000 0.713253 0.988564
1.000000 0.713253 0.988564
1.000000 0.713253 0.988564
0.286071 0.753117 0.890873
0.286325 0.753089 0.890934
0.287079 0.753040 0.891236
0.289666 0.752804 0.892138
0.295798 0.752310 0.894425
0.308164 0.751212 0.899178
0.328915 0.749181 0.907851
0.358142 0.745882 0.921709
0.399867 0.740521 0.938323
0.483530 0.730275 0.937485
0.558647 0.719254 0.934832
0.622087 0.708407 0.933982
0.676231 0.698062 0.935735
0.725645 0.688341 0.934917
0.778246 0.676350 0.934866
0.834262 0.660805 0.940489
0.892643 0.641283 0.952249
0.952497 0.617529 0.969540
0.991306 0.606478 0.969471
1.000000 0.613633 0.962673
1.000000 0.624556 0.965352
1.000000 0.636083 0.968050
1.000000 0.648153 0.970786
1.000000 0.660808 0.973551
1.000000 0.673928 0.976372
1.000000 0.687554 0.979154
1.000000 0.701680 0.981668
1.000000 0.716319 0.983950
1.000000 0.731369 0.986122
1.000000 0.746701 0.988015
1.000000 0.752532 0.988657
1.000000 0.752532 0.988657
1.000000 0.752532 0.988657
0.299743 0.785111 0.928310
0.299982 0.785093 0.928360
0.300697 0.785040 0.928630
0.303148 0.784863 0.929527
0.308965 0.784357 0.931667
0.320734 0.783337 0.936138
0.342556 0.781292 0.943741
0.389154 0.776740 0.950110
0.464619 0.768727 0.947124
0.532858 0.760060 0.943710
0.593016 0.751194 0.941080
0.646379 0.742497 0.939799
0.693487 0.734202 0.940433
0.735313 0.726661 0.941758
0.778135 0.718728 0.940329
0.824398 0.708417 0.942663
0.873411 0.695472 0.950047
0.924326 0.679779 0.962424
0.973212 0.663480 0.975850
0.996777 0.662565 0.969233
1.000000 0.671597 0.967385
1.000000 0.682137 0.969833
1.000000 0.693268 0.972283
1.000000 0.704888 0.974762
1.000000 0.717034 0.977249
1.000000 0.729697 0.979765
1.000000 0.742783 0.982217
1.000000 0.756399 0.984451
1.000000 0.770440 0.986465
1.000000 0.784791 0.988374
1.000000 0.790250 0.989041
1.000000 0.790250 0.989041
1.000000 0.790250 0.989041
0.325833 0.815274 0.961720
0.326091 0.815266 0.961763
0.327039 0.815177 0.961952
0.330140 0.814919 0.962521
0.342408 0.813980 0.962899
0.374496 0.811430 0.961446
0.421362 0.807183 0.959065
0.476542 0.801436 0.955979
0.531205 0.794910 0.952746
0.582742 0.788008 0.949726
0.630756 0.780984 0.947288
0.675031 0.774107 0.945825
0.715256 0.767533 0.945783
0.751376 0.761586 0.947688
0.786205 0.756210 0.946763
0.823931 0.749605 0.947034
0.864412 0.741182 0.951234
0.906994 0.730925 0.959677
0.950951 0.718919 0.971945
0.986908 0.710776 0.978633
0.999588 0.715693 0.970463
1.000000 0.725359 0.972098
1.000000 0.735631 0.974318
1.000000 0.746495 0.976533
1.000000 0.757823 0.978764
1.000000 0.769601 0.980996
1.000000 0.781908 0.983235
1.000000 0.794655 0.985386
1.000000 0.807847 0.987332
1.000000 0.821372 0.989095
1.000000 0.826510 0.989712
1.000000 0.826510 0.989712
1.000000 0.826510 0.989712
0.450457 0.836413 0.967621
0.450737 0.836380 0.967594
0.452102 0.836249 0.967512
0.456385 0.835839 0.967254
0.466300 0.834823 0.966647
0.485378 0.832804 0.965421
0.515304 0.829505 0.963471
0.553025 0.824981 0.960891
0.592821 0.819891 0.958172
0.632255 0.814480 0.955576
0.670463 0.809000 0.953402
0.706702 0.803635 0.951920
0.740564 0.798574 0.951527
0.771683 0.794032 0.952574
0.800504 0.790214 0.953503
0.830917 0.786206 0.952676
0.863853 0.781020 0.954688
0.898885 0.774638 0.960150
0.935378 0.767069 0.968930
0.972432 0.758759 0.980261
0.994450 0.758554 0.978597
1.000000 0.766131 0.974752
1.000000 0.775782 0.976779
1.000000 0.785895 0.978777
1.000000 0.796531 0.980793
