app/src/main/assets/lut_presets/#U94a8#U4e1d#U706f.cube
TITLE "Generated by Resolve (33)"
# Resampled from 65 to 33 by scripts/resample_cube_luts.py
# Source: 钨丝灯.cube
LUT_3D_SIZE 33
0.005371 0.009705 0.016953
0.005631 0.009491 0.016617
0.018845 0.008804 0.017029
0.052613 0.001953 0.015610
0.086946 0.001511 0.015198
0.113939 0.002106 0.015274
0.137224 0.002487 0.015091
0.160601 0.002762 0.015686
0.185000 0.003387 0.017319
0.209522 0.003906 0.020142
0.235126 0.004471 0.023209
0.261433 0.005127 0.026810
0.288899 0.006195 0.033402
0.315709 0.007218 0.043091
0.343435 0.008362 0.055116
0.371313 0.009598 0.066651
0.401846 0.011154 0.081697
0.431678 0.012680 0.095033
0.462455 0.014496 0.109957
0.493919 0.016464 0.124315
0.522408 0.018173 0.132738
0.549645 0.020096 0.142901
0.580606 0.023072 0.159594
0.609064 0.026535 0.174914
0.633875 0.030381 0.189136
0.656291 0.034867 0.204822
0.681926 0.041413 0.230472
0.698528 0.046586 0.254749
0.717983 0.058457 0.281605
0.759899 0.100923 0.315816
0.796735 0.147906 0.343252
0.827375 0.194354 0.367727
0.846860 0.229877 0.387259
0.005188 0.026734 0.018250
0.005188 0.027024 0.018616
0.017853 0.027649 0.019104
0.048356 0.027848 0.019333
0.081086 0.019776 0.015289
0.113741 0.009445 0.011032
0.137835 0.002884 0.010834
0.162432 0.003037 0.011292
0.186816 0.003662 0.012299
0.211185 0.004105 0.013107
0.237369 0.004639 0.014084
0.264851 0.005356 0.015289
0.291798 0.006332 0.016495
0.318074 0.006516 0.020447
0.342763 0.007370 0.026139
0.368307 0.008652 0.038270
0.395209 0.009979 0.054398
0.423072 0.011566 0.071092
0.451438 0.013245 0.087556
0.480095 0.015045 0.102831
0.508904 0.016892 0.116625
0.535973 0.018723 0.125414
0.564294 0.021012 0.135912
0.593011 0.024140 0.149752
0.619791 0.027924 0.165148
0.643244 0.032212 0.180529
0.670039 0.038453 0.204257
0.689815 0.044129 0.231022
0.706798 0.050431 0.258305
0.739223 0.078447 0.288808
0.778027 0.123735 0.319738
0.812253 0.170657 0.346212
0.838254 0.213367 0.369604
0.007797 0.049027 0.019715
0.007675 0.049363 0.020127
0.013306 0.049775 0.016983
0.048920 0.049683 0.019272
0.075364 0.053574 0.016205
0.115923 0.042420 0.016907
0.142641 0.033738 0.014054
0.169329 0.021363 0.013962
0.190982 0.012177 0.013977
0.212451 0.006271 0.014115
0.236240 0.004654 0.014130
0.261967 0.005417 0.015305
0.288243 0.006195 0.016342
0.312963 0.006882 0.017410
0.337881 0.007828 0.018799
0.364141 0.008728 0.020157
0.394797 0.009140 0.024918
0.423255 0.010575 0.039292
0.450996 0.012238 0.058854
0.476921 0.013916 0.077821
0.502007 0.015625 0.093812
0.527062 0.017517 0.108309
0.554925 0.019837 0.120500
0.580652 0.022461 0.126711
0.605463 0.025650 0.137484
0.628855 0.029480 0.151476
0.655695 0.035401 0.173022
0.679377 0.041733 0.201816
0.701045 0.048432 0.233677
0.733715 0.074556 0.267735
0.772290 0.118120 0.300206
0.807797 0.165728 0.327565
0.834821 0.208637 0.351507
0.010086 0.072206 0.018219
0.009964 0.072511 0.018646
0.010346 0.070771 0.016648
0.043397 0.072831 0.016266
0.077287 0.072236 0.017395
0.106676 0.077562 0.018967
0.136660 0.075364 0.016693
0.181781 0.054322 0.017014
0.206485 0.044755 0.016495
0.229419 0.034440 0.016739
0.254154 0.028733 0.017350
0.278874 0.019776 0.017868
0.304967 0.013230 0.018570
0.330236 0.009415 0.019547
0.354452 0.008270 0.019516
0.380560 0.009186 0.020905
0.407080 0.010452 0.022675
0.430991 0.011444 0.024155
0.449882 0.012421 0.025467
0.469535 0.013489 0.026764
0.495384 0.014328 0.043046
0.522545 0.016373 0.068788
0.551385 0.019043 0.088319
0.578378 0.021973 0.099199
0.603891 0.025559 0.115465
0.626474 0.029603 0.131868
0.645609 0.033829 0.147402
0.658183 0.036805 0.161959
0.681651 0.043351 0.191714
0.706249 0.052033 0.228290
0.745846 0.089280 0.268421
0.790890 0.144045 0.303471
0.825238 0.194491 0.331426
0.011246 0.097215 0.018509
0.011078 0.097581 0.018891
0.010742 0.093812 0.018280
0.037324 0.096895 0.018036
0.071138 0.097658 0.016281
0.107088 0.096971 0.019318
0.137057 0.102403 0.020905
0.162005 0.105776 0.017624
0.205432 0.089876 0.018219
0.250721 0.060823 0.018433
0.273838 0.050767 0.018952
0.297093 0.047807 0.019928
0.323629 0.043519 0.021073
0.349981 0.036393 0.022171
0.374609 0.027695 0.023041
0.400778 0.020920 0.025559
0.426474 0.016022 0.026413
0.452308 0.014405 0.027665
0.478950 0.013352 0.032258
0.502266 0.014710 0.034302
0.520546 0.016022 0.035889
0.536339 0.017609 0.037247
0.552407 0.019348 0.039719
0.574594 0.022171 0.053971
0.599161 0.025956 0.075380
0.622217 0.030426 0.096467
0.644160 0.035630 0.118532
0.662852 0.040696 0.140246
0.674296 0.043656 0.158099
0.689281 0.047944 0.181918
0.712795 0.060349 0.216968
0.756680 0.105516 0.259861
0.799878 0.159701 0.296010
0.011566 0.121492 0.018219
0.011490 0.121675 0.018357
0.011734 0.117540 0.017426
0.028885 0.119188 0.017014
0.066346 0.120592 0.015610
0.101961 0.120348 0.015168
0.136492 0.120333 0.018296
0.167361 0.125490 0.020157
0.193317 0.131090 0.017655
0.227939 0.123827 0.015839
0.281361 0.093706 0.019547
0.319493 0.065186 0.021103
0.342336 0.064958 0.022110
0.366522 0.064271 0.023606
0.393515 0.060777 0.025254
0.420966 0.056443 0.027878
0.449180 0.051545 0.031586
0.477928 0.045991 0.037461
0.505318 0.040147 0.043107
0.530632 0.034440 0.048691
0.552239 0.027405 0.056992
0.569833 0.022003 0.062638
0.590860 0.024659 0.070054
0.609186 0.028290 0.078706
0.624231 0.032197 0.085054
0.637461 0.036194 0.092882
0.650889 0.040681 0.103471
0.664500 0.045411 0.116701
0.678737 0.049836 0.135576
0.690440 0.052689 0.156451
0.706310 0.063920 0.179995
0.729381 0.084977 0.206485
0.772503 0.131868 0.248783
0.010590 0.146532 0.019440
0.010529 0.146868 0.019654
0.010529 0.143282 0.016648
0.016815 0.142123 0.016693
0.061921 0.144091 0.015152
0.096071 0.144503 0.013230
0.132235 0.143343 0.014511
0.165866 0.144121 0.017777
0.199649 0.148379 0.019745
0.225498 0.154055 0.017105
0.257969 0.150912 0.015122
0.309819 0.127871 0.023514
0.360586 0.092546 0.023194
0.390661 0.083268 0.025177
0.412695 0.086610 0.028016
0.438056 0.087327 0.034287
0.467628 0.086305 0.041672
0.498116 0.083345 0.050004
0.530434 0.080125 0.058244
0.561364 0.074891 0.066545
0.587350 0.069947 0.075196
0.611139 0.066835 0.087709
0.630762 0.062699 0.095628
0.647990 0.060899 0.104646
0.662120 0.059632 0.114702
0.675441 0.060960 0.126833
0.690547 0.066438 0.141436
0.702770 0.071138 0.154589
0.711818 0.076585 0.167468
0.733898 0.099138 0.187945
0.757015 0.125139 0.208179
0.778775 0.150881 0.228183
0.796567 0.172641 0.246616
0.007980 0.172168 0.020890
0.007919 0.172396 0.021347
0.008179 0.169863 0.014618
0.009415 0.165454 0.015274
0.057420 0.167910 0.013977
0.090883 0.168399 0.011704
0.126116 0.167697 0.010330
0.162753 0.166476 0.012970
0.196017 0.167529 0.016220
0.230472 0.172183 0.018326
0.259724 0.178180 0.015854
0.291020 0.177646 0.012055
0.339559 0.162219 0.026200
0.397467 0.127199 0.030625
0.434516 0.109865 0.036637
0.461295 0.110384 0.043305
0.486686 0.116701 0.050416
0.516121 0.119707 0.058778
0.549859 0.119463 0.067903
0.582757 0.117830 0.077653
0.614054 0.115282 0.088762
0.640711 0.113161 0.100801
0.664622 0.111177 0.112612
0.686336 0.110567 0.125185
0.706340 0.111589 0.142412
0.723232 0.115663 0.156603
0.739742 0.122377 0.171389
0.752392 0.129366 0.185077
0.762158 0.138354 0.198367
0.779828 0.160510 0.213260
0.797696 0.184360 0.228595
0.813138 0.206302 0.243534
0.825879 0.224643 0.258473
0.004181 0.199390 0.027161
0.004089 0.199725 0.027832
0.004120 0.197482 0.011948
0.004929 0.191745 0.012390
0.046632 0.192233 0.010956
0.085435 0.192142 0.009033
0.119432 0.192355 0.006683
0.156680 0.191180 0.007004
0.193835 0.189868 0.010575
0.227146 0.192477 0.013764
0.263508 0.196872 0.016037
0.294118 0.202930 0.014313
0.326375 0.205737 0.010223
0.366659 0.198108 0.025712
0.428504 0.171878 0.040177
0.475593 0.142870 0.049943
0.511284 0.141375 0.060899
0.539467 0.146410 0.069093
0.568368 0.152972 0.077165
0.600885 0.156878 0.087358
0.633524 0.157153 0.098909
0.663111 0.158816 0.112764
0.690028 0.159503 0.127443
0.716182 0.160678 0.143008
0.738537 0.164004 0.157961
0.758099 0.168750 0.173648
0.777157 0.177768 0.189670
0.791318 0.185855 0.206851
0.800000 0.195438 0.218418
0.812284 0.215793 0.227726
0.826169 0.237964 0.241642
0.836866 0.255436 0.254627
0.846189 0.271702 0.267491
0.000000 0.226963 0.034241
0.000000 0.227237 0.035065
0.000000 0.224353 0.012329
0.000000 0.218692 0.007324
0.031052 0.216419 0.006989
0.080034 0.216770 0.004807
0.113176 0.216342 0.002274
0.148760 0.215259 0.000732
0.187320 0.214878 0.002762
0.227085 0.214328 0.007401
0.258610 0.217182 0.010239
0.297414 0.221820 0.013306
0.329519 0.228489 0.012070
0.360815 0.233845 0.008286
0.398535 0.233433 0.021698
0.456092 0.216770 0.051576
0.516442 0.183337 0.064164
0.557977 0.175753 0.076768
0.593240 0.176989 0.087434
0.621271 0.186297 0.096925
0.650095 0.193408 0.107988
0.680018 0.198032 0.122530
0.708278 0.202670 0.138689
0.735882 0.206592 0.154513
0.761257 0.211139 0.170916
0.784131 0.217456 0.187945
0.804700 0.226429 0.204898
0.817288 0.234394 0.218906
0.824979 0.244297 0.230106
0.835676 0.262928 0.241520
0.845273 0.281178 0.252995
0.853376 0.296727 0.265080
0.860059 0.311025 0.276997
0.000000 0.255634 0.042863
0.000000 0.256138 0.043839
0.000000 0.252506 0.020966
0.000000 0.245533 0.001053
0.017151 0.242679 0.001053
0.070710 0.241474 0.000000
0.107774 0.240482 0.000000
0.142214 0.240604 0.000000
0.180087 0.239536 0.000000
0.219089 0.239002 0.000000
0.260319 0.238712 0.003647
0.291005 0.243305 0.006714
0.332662 0.248020 0.010178
0.366278 0.255955 0.009995
0.397818 0.263691 0.007187
0.433371 0.267033 0.021546
0.484962 0.257847 0.059113
0.551995 0.229267 0.079728
0.604303 0.213916 0.094896
0.644144 0.212253 0.109422
0.672755 0.219303 0.122042
0.697246 0.230747 0.134447
0.723583 0.239277 0.149416
0.750759 0.245945 0.165240
0.777478 0.253300 0.181613
0.801556 0.261021 0.198520
0.823621 0.270237 0.215900
0.837354 0.278447 0.230320
0.844038 0.287739 0.241886
0.851514 0.303197 0.252049
0.858595 0.318181 0.263920
0.864485 0.332113 0.275196
0.869398 0.344884 0.285771
0.000000 0.284611 0.054520
0.000000 0.285115 0.056123
0.000000 0.281407 0.033310
0.000000 0.273411 0.000870
0.006058 0.269261 0.000000
0.057343 0.266453 0.000000
0.103365 0.265660 0.000000
0.136172 0.264973 0.000000
0.172412 0.264500 0.000000
0.210895 0.263859 0.000000
0.252018 0.264317 0.000000
0.294636 0.264820 0.000000
0.325170 0.270314 0.002884
0.366384 0.276448 0.006714
0.402045 0.284108 0.007980
0.434073 0.293294 0.006699
0.469963 0.300191 0.025238
0.516777 0.297490 0.066239
0.586374 0.276783 0.096284
0.646754 0.252827 0.114672
0.688258 0.250645 0.132921
0.717815 0.255390 0.148913
0.741466 0.267399 0.162936
0.764843 0.279728 0.176303
0.789792 0.288945 0.191470
0.813901 0.298589 0.207584
0.835767 0.307668 0.223819
0.850904 0.317174 0.238346
0.856443 0.325795 0.249943
0.862242 0.338354 0.260853
0.867323 0.350866 0.271702
0.871931 0.363577 0.283497
0.875456 0.373800 0.293355
0.000000 0.314443 0.070329
0.000000 0.315190 0.072404
0.000000 0.311330 0.050355
0.000000 0.302022 0.013123
0.001953 0.298512 0.000000
0.046952 0.293721 0.000000
0.094469 0.291081 0.000000
0.132189 0.289387 0.000000
0.167239 0.289143 0.000000
0.204959 0.288975 0.000000
0.245060 0.289525 0.000000
0.285618 0.290593 0.000000
0.329961 0.292317 0.002152
0.358862 0.297902 0.000000
0.397757 0.304738 0.003387
0.438117 0.312978 0.006287
0.471992 0.324453 0.007279
0.506676 0.334173 0.031083
0.548470 0.336721 0.074632
0.615015 0.322667 0.113893
0.685313 0.292424 0.136568
0.725978 0.290150 0.156527
0.757687 0.293446 0.175235
0.782116 0.302907 0.189776
0.803113 0.316869 0.202747
0.824018 0.329091 0.216464
0.845014 0.338827 0.231586
0.859678 0.348928 0.245518
0.864179 0.357076 0.256687
0.868925 0.368414 0.267597
0.873259 0.380789 0.279164
0.877211 0.392386 0.291539
0.880232 0.401312 0.301930
0.000000 0.344778 0.088975
0.000000 0.345815 0.091981
0.000000 0.341360 0.069947
0.000000 0.331884 0.028687
0.000381 0.328801 0.008804
0.037690 0.322835 0.000000
0.083665 0.317296 0.000000
0.130541 0.315679 0.000000
0.164477 0.314824 0.000000
0.200412 0.315282 0.000000
0.238025 0.315740 0.000000
0.277806 0.317006 0.000000
0.319814 0.319295 0.000900
0.362356 0.322179 0.012482
0.391546 0.327428 0.007752
0.429541 0.336248 0.009613
0.474845 0.344213 0.010544
0.509392 0.355627 0.011917
0.543191 0.367361 0.040864
0.581170 0.373114 0.083299
0.642573 0.364523 0.128038
0.714199 0.340673 0.155886
0.760159 0.327977 0.180789
0.792721 0.330037 0.199451
0.818265 0.337438 0.215564
0.836912 0.350484 0.228290
0.854200 0.363714 0.240635
0.865583 0.374746 0.252705
0.869734 0.383932 0.263783
0.873396 0.395438 0.274327
0.877272 0.406943 0.286030
0.880690 0.417884 0.298741
0.883116 0.426398 0.309133
0.000000 0.377127 0.111589
0.000000 0.378393 0.115145
0.000000 0.373922 0.094270
0.000000 0.363256 0.049821
0.001572 0.360647 0.028885
0.035874 0.354528 0.005203
0.078386 0.347951 0.000000
0.122194 0.343755 0.000000
0.163958 0.342779 0.000000
0.197955 0.341955 0.000000
0.234440 0.342184 0.000000
0.272557 0.343862 0.000000
0.313069 0.346151 0.001755
0.352987 0.349203 0.013092
0.395666 0.352773 0.025879
0.425696 0.359091 0.021302
0.461906 0.367788 0.024079
0.509529 0.376349 0.026108
0.544488 0.387686 0.025376
0.577920 0.399512 0.050568
0.614847 0.408179 0.092470
0.668559 0.403296 0.140612
0.736996 0.386419 0.174929
0.789380 0.366567 0.202457
0.823011 0.365286 0.222171
0.848127 0.371084 0.239292
0.865003 0.381994 0.252689
0.870329 0.395163 0.262058
0.873610 0.407202 0.271748
0.876936 0.419165 0.282719
0.880247 0.430335 0.294911
0.883253 0.442710 0.307942
0.885206 0.453498 0.317739
0.000000 0.411032 0.136980
0.000000 0.412406 0.141085
0.000000 0.407630 0.120897
0.000000 0.396612 0.076722
0.005707 0.392889 0.054292
0.038361 0.387091 0.027909
0.074205 0.379705 0.004776
0.115343 0.373510 0.000000
0.161334 0.370596 0.000000
0.198688 0.369894 0.000000
0.232715 0.369863 0.000000
0.269337 0.371069 0.000000
0.307332 0.373312 0.004700
0.346212 0.376165 0.015213
0.385916 0.380118 0.028183
0.428000 0.384298 0.042161
0.459434 0.390036 0.037629
0.495186 0.399908 0.040070
0.542916 0.408484 0.044266
0.576745 0.419059 0.040528
0.611856 0.430686 0.063310
0.645838 0.439658 0.103182
0.692729 0.438926 0.151431
0.753628 0.428168 0.191363
0.810330 0.410468 0.219608
0.849317 0.398825 0.243885
0.869718 0.404196 0.260945
0.874144 0.412238 0.272526
0.877241 0.425040 0.282612
0.879728 0.440970 0.292241
0.881941 0.461021 0.302922
0.883406 0.481514 0.314549
0.884489 0.494194 0.323644
0.000000 0.444938 0.163668
0.000000 0.446616 0.168948
0.000000 0.441505 0.149432
0.000000 0.430076 0.107073
0.012329 0.425956 0.084535
0.043687 0.420508 0.057572
0.075868 0.413306 0.029191
0.113832 0.406134 0.011170
0.154559 0.400259 0.001480
0.201297 0.398795 0.000000
0.233478 0.398230 0.000000
0.268223 0.398611 0.002625
0.304006 0.400122 0.009171
0.340047 0.402808 0.019379
0.378485 0.406332 0.030945
0.418112 0.410697 0.045228
0.461265 0.415167 0.059541
0.493065 0.421668 0.055192
0.524895 0.431006 0.054887
0.573159 0.438819 0.063539
0.608209 0.448783 0.058579
0.642313 0.459403 0.076982
0.674434 0.469413 0.115206
0.714961 0.472328 0.161013
0.767636 0.466987 0.205600
0.822507 0.456458 0.237140
0.865171 0.444907 0.260594
0.876463 0.437049 0.278767
0.879667 0.446708 0.291752
0.881346 0.467170 0.301549
0.882490 0.492897 0.312840
0.883528 0.514427 0.326055
0.885023 0.527214 0.335119
0.006882 0.478340 0.191379
0.007721 0.481025 0.198657
0.006088 0.475441 0.179065
0.004120 0.464942 0.140688
0.020295 0.458778 0.115923
0.049363 0.453086 0.090288
0.080781 0.446693 0.062226
0.112627 0.438727 0.033051
0.151766 0.431876 0.019745
0.194156 0.427802 0.012329
0.235874 0.426596 0.009888
0.268650 0.426474 0.012360
0.302205 0.427527 0.017014
0.336767 0.429435 0.024811
0.371954 0.432425 0.035828
0.409567 0.436027 0.047761
0.449760 0.440711 0.062623
0.492546 0.445289 0.077928
0.524071 0.451179 0.073762
0.553735 0.460090 0.071626
0.601511 0.468360 0.086534
0.637751 0.477043 0.080751
0.670481 0.487785 0.094530
0.701015 0.498238 0.130694
0.735439 0.504967 0.170657
0.779599 0.504204 0.217899
0.831189 0.499077 0.254780
0.871946 0.492683 0.280949
0.878279 0.490867 0.294804
0.881102 0.501930 0.310170
0.883436 0.517372 0.325933
0.885344 0.536629 0.339559
0.886549 0.550790 0.348196
0.022766 0.510613 0.217029
0.023987 0.513390 0.224964
0.021515 0.508049 0.206836
0.019501 0.497978 0.172320
0.029038 0.491127 0.146944
0.055909 0.485573 0.123629
0.085695 0.479149 0.096956
0.115434 0.471870 0.066529
0.150668 0.464652 0.041504
0.189914 0.458030 0.029633
0.234745 0.455711 0.024979
0.270756 0.454719 0.024781
0.303029 0.454917 0.028016
0.335897 0.456199 0.033844
0.369253 0.458335 0.042359
0.403250 0.461402 0.053773
0.441886 0.465171 0.066133
0.481651 0.469963 0.081331
0.522545 0.474266 0.096559
0.553613 0.479866 0.093599
0.581827 0.488579 0.090928
0.629023 0.496574 0.110094
0.666468 0.505180 0.107256
0.697505 0.515099 0.114168
0.727245 0.526650 0.147433
0.758572 0.535576 0.185168
0.793667 0.539925 0.228122
0.836988 0.538674 0.270512
0.877302 0.536614 0.301762
0.880964 0.540856 0.317586
0.883757 0.550423 0.333928
0.886473 0.563134 0.350530
0.887633 0.572137 0.360159
0.037736 0.540810 0.240864
0.038071 0.541466 0.241688
0.036896 0.538827 0.232883
0.034195 0.529458 0.201770
0.037766 0.521431 0.175097
0.061601 0.516014 0.153857
0.089509 0.509941 0.129229
0.118929 0.503609 0.101854
0.149935 0.496239 0.069978
0.187900 0.489235 0.051743
0.227481 0.483803 0.040421
0.273411 0.482734 0.038773
0.304936 0.482078 0.039734
0.335744 0.482582 0.043748
0.366339 0.483787 0.049790
0.399176 0.486198 0.059358
0.433280 0.489311 0.071275
0.472068 0.492851 0.084352
0.509957 0.497139 0.099229
0.550607 0.501595 0.115282
0.582193 0.507240 0.113298
0.608728 0.515587 0.111513
0.655955 0.523873 0.132921
0.694484 0.532876 0.135149
0.724788 0.543481 0.136843
0.753124 0.555032 0.163958
0.781170 0.565713 0.200122
0.810391 0.573648 0.238254
0.843915 0.577508 0.282475
0.870497 0.580011 0.316472
0.875349 0.585351 0.334188
0.878798 0.593454 0.351293
0.880125 0.599771 0.361379
0.054231 0.568475 0.263142
0.054490 0.568994 0.263813
0.053559 0.566918 0.256657
0.050736 0.558984 0.229328
0.050462 0.550729 0.203021
0.069657 0.545403 0.182147
0.094728 0.539483 0.158862
0.121950 0.533501 0.133700
0.151064 0.526558 0.104417
0.184314 0.518975 0.073259
0.222110 0.512963 0.060594
0.264576 0.509712 0.053605
0.306447 0.508705 0.051881
0.334508 0.508247 0.053971
0.364034 0.508843 0.058457
0.394858 0.510277 0.065583
0.428077 0.512200 0.075608
0.461402 0.515343 0.087846
0.498527 0.518853 0.101274
0.536080 0.523415 0.117388
0.576471 0.528222 0.134936
0.608972 0.533898 0.134813
0.635538 0.542885 0.134066
0.682765 0.552422 0.158770
0.721721 0.561517 0.163760
0.752087 0.572412 0.166384
0.778058 0.583810 0.182300
0.803449 0.595987 0.216724
0.828870 0.606882 0.254200
0.854429 0.615366 0.293172
0.866087 0.619837 0.320058
0.869276 0.624521 0.339284
0.871168 0.629755 0.350256
0.069581 0.594751 0.283864
0.069917 0.595376 0.284581
0.068910 0.593576 0.278737
0.066590 0.586664 0.254536
0.066285 0.578714 0.229145
0.079866 0.572824 0.209659
0.102312 0.567163 0.187655
0.125566 0.561242 0.163684
0.152468 0.555062 0.137224
0.181918 0.548089 0.105318
0.216678 0.541634 0.082597
0.255650 0.536263 0.069581
0.298573 0.534432 0.066178
0.332799 0.533593 0.066087
0.360235 0.533394 0.068910
0.389441 0.533898 0.073640
0.420493 0.535332 0.081727
0.451514 0.537392 0.091905
0.485786 0.540932 0.105440
0.523323 0.544991 0.119966
0.560708 0.550072 0.137621
0.602045 0.555581 0.157427
0.636912 0.561975 0.159716
0.663294 0.571328 0.160311
0.707546 0.581643 0.183948
0.747906 0.591714 0.197055
0.778027 0.602564 0.199680
0.802533 0.614694 0.210040
0.825605 0.627558 0.235859
0.846372 0.639643 0.270787
0.865064 0.649699 0.304555
0.869474 0.655100 0.323705
0.870848 0.658915 0.335271
0.086351 0.619989 0.304295
0.086931 0.620783 0.305303
0.085817 0.619272 0.300023
0.082780 0.613046 0.277180
0.081788 0.605478 0.253056
0.089509 0.599298 0.234333
0.111330 0.593225 0.215625
0.133440 0.587823 0.194049
0.157565 0.582315 0.169314
0.184192 0.576242 0.140856
0.214389 0.569131 0.108354
0.250263 0.563104 0.092790
0.288243 0.559808 0.084764
0.328679 0.558419 0.081773
0.357397 0.558053 0.082536
0.384360 0.558297 0.086076
0.413489 0.559030 0.091707
0.443900 0.560571 0.099840
0.475822 0.563317 0.111727
0.509712 0.567193 0.126040
0.546685 0.571847 0.141955
0.585122 0.577935 0.161196
0.628305 0.584558 0.183780
0.664729 0.591272 0.189120
0.691218 0.600992 0.189288
0.732403 0.612421 0.210117
0.772534 0.623560 0.234852
0.802792 0.635004 0.239780
0.825696 0.646357 0.248966
0.844785 0.657954 0.261738
0.863722 0.670619 0.288975
0.875669 0.680766 0.315663
0.877241 0.685039 0.325399
0.108339 0.645167 0.327413
0.109041 0.646021 0.328832
0.107622 0.644739 0.323552
0.102556 0.638666 0.301396
0.100603 0.631327 0.277653
0.102831 0.625727 0.259632
0.122728 0.619776 0.242802
0.144579 0.614221 0.224018
0.167788 0.609125 0.202350
0.191943 0.602991 0.176532
0.218357 0.596490 0.146273
0.249424 0.589868 0.121096
0.284169 0.585229 0.108675
0.322728 0.584360 0.105501
0.358740 0.583780 0.103548
0.383383 0.583490 0.104524
0.410941 0.583810 0.108278
0.438651 0.584665 0.113985
0.469322 0.586694 0.123690
0.499474 0.590082 0.136202
0.534386 0.594553 0.151308
0.572106 0.600351 0.169146
0.612497 0.606958 0.190524
0.656992 0.614115 0.214252
0.694270 0.622034 0.222843
0.721172 0.632349 0.222400
0.755444 0.644099 0.239338
0.795254 0.656214 0.276478
0.824155 0.666712 0.283268
0.846113 0.677699 0.293095
0.863859 0.689967 0.308309
0.878447 0.700908 0.324666
0.884321 0.707607 0.337865
0.134188 0.668559 0.351812
0.135271 0.669596 0.353262
0.133608 0.668132 0.347662
0.125841 0.662150 0.325780
0.122850 0.655512 0.303044
0.121813 0.650324 0.285435
0.137560 0.644770 0.269474
0.157473 0.639689 0.252872
0.179934 0.634379 0.233280
0.203113 0.629084 0.210758
0.227176 0.623087 0.184619
0.253864 0.616342 0.152560
0.287694 0.611566 0.138323
0.321645 0.610101 0.134691
0.357565 0.609552 0.131792
0.387472 0.609140 0.130159
0.412146 0.608865 0.131945
0.438529 0.609659 0.136034
0.465827 0.611276 0.142794
0.495262 0.614130 0.152590
0.525750 0.617960 0.166232
0.561440 0.623133 0.182605
0.600610 0.629282 0.201511
0.642252 0.637278 0.225040
0.686549 0.645411 0.250385
0.723308 0.653269 0.259129
0.749569 0.663615 0.259403
0.777493 0.675135 0.272526
0.815778 0.688167 0.316030
0.843015 0.698756 0.330159
0.863279 0.709285 0.341939
0.879210 0.719676 0.356329
0.887984 0.727733 0.369146
0.162814 0.689281 0.375708
0.164050 0.689937 0.376944
0.161486 0.688609 0.371054
0.153704 0.683528 0.350927
0.147601 0.677699 0.328801
0.146242 0.673045 0.312657
0.154498 0.668055 0.296422
0.172961 0.663340 0.282002
0.194003 0.658656 0.264546
0.216175 0.653895 0.244266
0.239200 0.648814 0.221561
0.263493 0.642847 0.192660
0.292576 0.637629 0.170077
0.325383 0.635874 0.166827
0.358511 0.635309 0.164691
0.394491 0.635172 0.162310
0.418524 0.635142 0.162188
0.442924 0.635508 0.164477
0.467430 0.636271 0.168460
0.494530 0.638651 0.176242
0.523720 0.642008 0.187686
0.554314 0.646571 0.202029
0.592432 0.652842 0.219730
0.632074 0.659800 0.239948
0.672541 0.667689 0.262882
0.716396 0.676524 0.288579
0.753033 0.685130 0.299138
0.777417 0.695003 0.301045
0.800214 0.706996 0.312245
0.833249 0.718669 0.346746
0.858122 0.730190 0.378698
0.876844 0.739834 0.392737
0.887144 0.747295 0.404547
0.192737 0.707576 0.399619
0.196368 0.709560 0.405615
0.191012 0.706706 0.394965
0.183078 0.702190 0.375708
0.176425 0.697719 0.355734
0.174228 0.693492 0.340246
0.174060 0.689372 0.324926
0.191562 0.684947 0.311376
0.211215 0.681041 0.296452
0.232700 0.676890 0.278126
0.253498 0.672541 0.257359
0.276143 0.667338 0.231937
0.300832 0.662226 0.204562
0.333394 0.660929 0.200732
0.365057 0.660487 0.199542
0.398459 0.660914 0.198657
0.429221 0.661219 0.197040
0.450629 0.661204 0.197574
0.473732 0.661921 0.200168
0.498466 0.663615 0.205615
0.525612 0.666636 0.214542
0.554223 0.670588 0.226764
0.586130 0.675868 0.242069
0.624216 0.682353 0.259770
0.664225 0.689815 0.280705
0.704738 0.698741 0.305058
