app/src/main/assets/lut_presets/#U94a8#U4e1d#U706f.cube
TITLE "Generated by Resolve (33)"
# Resampled from 65 to 33 by scripts/resample_cube_luts.py
# Source: 钨丝灯.cube
LUT_3D_SIZE 5
0.005371 0.009705 0.016953
0.185000 0.003387 0.017319
0.401846 0.011154 0.081697
0.633875 0.030381 0.189136
0.846860 0.229877 0.387259
0.004181 0.199390 0.027161
0.193835 0.189868 0.010575
0.511284 0.141375 0.060899
0.738537 0.164004 0.157961
0.846189 0.271702 0.267491
0.000000 0.444938 0.163668
0.154559 0.400259 0.001480
0.461265 0.415167 0.059541
0.767636 0.466987 0.205600
0.885023 0.527214 0.335119
0.134188 0.668559 0.351812
0.179934 0.634379 0.233280
0.412146 0.608865 0.131945
0.686549 0.645411 0.250385
0.887984 0.727733 0.369146
0.399344 0.777829 0.545235
0.339162 0.751247 0.449943
0.528954 0.781918 0.435859
0.693187 0.802441 0.455116
0.886687 0.855207 0.587625
0.000000 0.010742 0.195834
0.156100 0.009461 0.150774
0.354391 0.016739 0.163409
0.630274 0.034821 0.286229
0.833127 0.228992 0.465354
0.006897 0.204578 0.208042
0.183948 0.207187 0.212909
0.530037 0.139895 0.210040
0.757519 0.113619 0.296056
0.864439 0.268757 0.404532
0.015763 0.461646 0.318334
0.009903 0.433173 0.194537
0.496284 0.449073 0.109819
0.790402 0.508553 0.282094
0.897765 0.581186 0.405447
0.155459 0.682521 0.439292
0.137667 0.665507 0.368917
0.422095 0.648219 0.189380
0.734859 0.688533 0.307973
0.901976 0.759411 0.451911
0.464759 0.805325 0.621653
0.389990 0.776364 0.546838
0.570077 0.813611 0.539788
0.737987 0.836027 0.536431
0.902846 0.873808 0.636500
0.000000 0.028321 0.418601
0.182223 0.022309 0.449943
0.369650 0.019120 0.341756
0.608881 0.036057 0.380835
0.755291 0.108797 0.465034
0.000000 0.217472 0.365103
0.122087 0.173098 0.518303
0.448051 0.092668 0.420829
0.689235 0.090837 0.418662
0.819806 0.231250 0.529107
0.035279 0.503136 0.498894
0.043458 0.478599 0.472343
0.473259 0.475044 0.471046
0.854231 0.476143 0.503075
0.913314 0.507637 0.544442
0.196918 0.712230 0.595422
0.172274 0.687373 0.516884
0.206729 0.659648 0.382956
0.757137 0.732128 0.455543
0.918074 0.800809 0.587640
0.509102 0.834257 0.714611
0.432929 0.805035 0.648859
0.443259 0.792737 0.578943
0.773861 0.876005 0.648417
0.927230 0.905180 0.717464
0.005661 0.050141 0.583001
0.150683 0.049378 0.643397
0.411673 0.033570 0.637385
0.642939 0.076143 0.594034
0.750362 0.127962 0.617044
0.000000 0.203250 0.595071
0.023224 0.097185 0.621134
0.390723 0.039094 0.670314
0.659052 0.092470 0.609232
0.758404 0.141451 0.631830
0.132799 0.517494 0.650370
0.131334 0.488197 0.633844
0.455604 0.499977 0.839445
0.763684 0.408042 0.718257
0.849302 0.420188 0.736751
0.236728 0.761761 0.753094
0.229252 0.748180 0.737850
0.285512 0.737301 0.726421
0.758862 0.762188 0.757092
0.924147 0.796185 0.797574
0.493660 0.866972 0.831296
0.472587 0.856092 0.807980
0.505592 0.845060 0.772168
0.776608 0.902266 0.816571
0.940917 0.936843 0.856825
0.008972 0.184741 0.674250
0.043427 0.106050 0.665980
0.348837 0.060868 0.733394
0.651926 0.107851 0.741497
0.729030 0.150317 0.752331
0.035096 0.296864 0.703792
0.039963 0.286015 0.718898
0.369802 0.146532 0.826581
0.654841 0.122316 0.761532
0.738628 0.159640 0.754025
0.179294 0.559960 0.731624
0.178592 0.545739 0.730907
0.461143 0.597086 0.954955
0.786526 0.434211 0.914321
0.835447 0.397650 0.852735
0.161151 0.750790 0.790784
0.194842 0.766934 0.817304
0.422477 0.798367 0.886442
0.762310 0.788327 0.914885
0.891981 0.768750 0.876997
0.483467 0.885161 0.877638
0.488655 0.885145 0.877073
0.552758 0.887373 0.880201
0.794202 0.914977 0.912642
0.932357 0.932555 0.932601
