app/src/main/assets/lut_presets/#U94a8#U4e1d#U706f.cube
TITLE "Generated by Resolve (33)"
# Resampled from 65 to 33 by scripts/resample_cube_luts.py
# Source: 钨丝灯.cube
LUT_3D_SIZE 9
0.005371 0.009705 0.016953
0.086946 0.001511 0.015198
0.185000 0.003387 0.017319
0.288899 0.006195 0.033402
0.401846 0.011154 0.081697
0.522408 0.018173 0.132738
0.633875 0.030381 0.189136
0.717983 0.058457 0.281605
0.846860 0.229877 0.387259
0.011246 0.097215 0.018509
0.071138 0.097658 0.016281
0.205432 0.089876 0.018219
0.323629 0.043519 0.021073
0.426474 0.016022 0.026413
0.520546 0.016022 0.035889
0.599161 0.025956 0.075380
0.674296 0.043656 0.158099
0.799878 0.159701 0.296010
0.004181 0.199390 0.027161
0.046632 0.192233 0.010956
0.193835 0.189868 0.010575
0.326375 0.205737 0.010223
0.511284 0.141375 0.060899
0.633524 0.157153 0.098909
0.738537 0.164004 0.157961
0.800000 0.195438 0.218418
0.846189 0.271702 0.267491
0.000000 0.314443 0.070329
0.001953 0.298512 0.000000
0.167239 0.289143 0.000000
0.329961 0.292317 0.002152
0.471992 0.324453 0.007279
0.685313 0.292424 0.136568
0.803113 0.316869 0.202747
0.864179 0.357076 0.256687
0.880232 0.401312 0.301930
0.000000 0.444938 0.163668
0.012329 0.425956 0.084535
0.154559 0.400259 0.001480
0.304006 0.400122 0.009171
0.461265 0.415167 0.059541
0.608209 0.448783 0.058579
0.767636 0.466987 0.205600
0.879667 0.446708 0.291752
0.885023 0.527214 0.335119
0.054231 0.568475 0.263142
0.050462 0.550729 0.203021
0.151064 0.526558 0.104417
0.306447 0.508705 0.051881
0.428077 0.512200 0.075608
0.576471 0.528222 0.134936
0.721721 0.561517 0.163760
0.828870 0.606882 0.254200
0.871168 0.629755 0.350256
0.134188 0.668559 0.351812
0.122850 0.655512 0.303044
0.179934 0.634379 0.233280
0.287694 0.611566 0.138323
0.412146 0.608865 0.131945
0.525750 0.617960 0.166232
0.686549 0.645411 0.250385
0.815778 0.688167 0.316030
0.887984 0.727733 0.369146
0.255039 0.737911 0.446708
0.238132 0.729854 0.407797
0.249607 0.718288 0.357046
0.339147 0.710643 0.298756
0.452277 0.711070 0.281117
0.541573 0.714565 0.283223
0.658488 0.733700 0.332708
0.804196 0.768582 0.423514
0.875196 0.801480 0.471031
0.399344 0.777829 0.545235
0.357092 0.761791 0.495933
0.339162 0.751247 0.449943
0.422782 0.764889 0.437125
0.528954 0.781918 0.435859
0.606165 0.788144 0.427741
0.693187 0.802441 0.455116
0.812406 0.831403 0.526284
0.886687 0.855207 0.587625
0.000000 0.004501 0.098894
0.066026 0.004685 0.089632
0.153521 0.007599 0.071397
0.261860 0.009400 0.090074
0.390784 0.014832 0.137407
0.530388 0.022812 0.198352
0.654200 0.036317 0.262104
0.740185 0.079835 0.342901
0.854871 0.257984 0.443610
0.008377 0.089525 0.096101
0.054047 0.092317 0.101778
0.213153 0.076387 0.098756
0.343236 0.021286 0.083925
0.455528 0.015015 0.117571
0.568383 0.022660 0.168002
0.666423 0.037400 0.222843
0.726421 0.065873 0.285542
0.852491 0.241474 0.391913
0.008438 0.198306 0.135988
0.006424 0.192447 0.076890
0.192203 0.207370 0.075227
0.357092 0.193637 0.083681
0.504997 0.163363 0.090043
0.652918 0.146059 0.139223
0.725048 0.092989 0.196750
0.770001 0.124620 0.258198
0.843534 0.230076 0.334005
0.000000 0.320607 0.163317
0.000000 0.308644 0.104707
0.120272 0.308263 0.007050
0.346700 0.307958 0.020234
0.506828 0.339101 0.060884
0.675044 0.339818 0.168399
0.812146 0.349111 0.239857
0.876570 0.377600 0.295323
0.888090 0.411078 0.339925
0.000000 0.450919 0.236545
0.000000 0.438331 0.186496
0.067216 0.424735 0.052155
0.299443 0.421149 0.024735
0.487999 0.437125 0.076143
0.636393 0.470359 0.084871
0.808621 0.481025 0.265736
0.883833 0.524742 0.330144
0.891096 0.571450 0.376410
0.060014 0.573953 0.318593
0.052674 0.563302 0.281849
0.080156 0.550576 0.183902
0.281727 0.531228 0.071138
0.438682 0.533242 0.089418
0.603662 0.552148 0.156832
0.746044 0.586313 0.199512
0.856291 0.629740 0.325673
0.877241 0.662074 0.386511
0.144030 0.675013 0.397803
0.134508 0.667674 0.369177
0.130617 0.654551 0.291554
0.269352 0.633722 0.172992
0.425147 0.633799 0.165530
0.548272 0.642512 0.198703
0.715648 0.670863 0.283803
0.832135 0.709941 0.354818
0.896834 0.745861 0.412955
0.267659 0.744198 0.483253
0.258106 0.739574 0.461006
0.245136 0.730465 0.404150
0.337743 0.728237 0.352117
0.480919 0.736751 0.334737
0.569772 0.738613 0.330434
0.686366 0.754086 0.371984
0.821561 0.784512 0.452811
0.883741 0.811521 0.493690
0.440696 0.794156 0.589380
0.403143 0.779980 0.553094
0.362676 0.762310 0.494530
0.437491 0.775830 0.485359
0.565408 0.803952 0.504128
0.641398 0.813138 0.491173
0.717327 0.818494 0.490990
0.824918 0.841108 0.547921
0.893126 0.861616 0.603891
0.000000 0.010742 0.195834
0.064241 0.010391 0.223560
0.156100 0.009461 0.150774
0.244938 0.013138 0.141436
0.354391 0.016739 0.163409
0.482719 0.023270 0.218128
0.630274 0.034821 0.286229
0.703517 0.049393 0.338918
0.833127 0.228992 0.465354
0.000000 0.085039 0.165499
0.030243 0.089906 0.201648
0.185595 0.057694 0.192493
0.297704 0.036362 0.176867
0.422339 0.020096 0.191333
0.545129 0.025528 0.226032
0.658518 0.037659 0.274449
0.726864 0.066941 0.332555
0.854810 0.258015 0.444022
0.006897 0.204578 0.208042
0.007279 0.193973 0.196826
0.183948 0.207187 0.212909
0.368673 0.189120 0.208148
0.530037 0.139895 0.210040
0.665568 0.093873 0.236301
0.757519 0.113619 0.296056
0.817105 0.177935 0.347555
0.864439 0.268757 0.404532
0.000000 0.328954 0.268711
0.000000 0.317494 0.218769
0.038819 0.321584 0.163897
0.346151 0.333730 0.170443
0.511406 0.340414 0.192950
0.704097 0.314488 0.221698
0.835325 0.321523 0.282063
0.874968 0.315755 0.346273
0.894987 0.379950 0.402930
0.015763 0.461646 0.318334
0.006226 0.447150 0.267033
0.009903 0.433173 0.194537
0.268498 0.439200 0.089784
0.496284 0.449073 0.109819
0.661952 0.482704 0.155215
0.790402 0.508553 0.282094
0.890608 0.532708 0.364126
0.897765 0.581186 0.405447
0.071351 0.582620 0.374243
0.062379 0.570001 0.339940
0.055970 0.562371 0.283207
0.202441 0.541054 0.103868
0.427893 0.545434 0.109438
0.617380 0.565637 0.173144
0.763470 0.603357 0.231342
0.871015 0.646128 0.373114
0.883360 0.690135 0.409232
0.155459 0.682521 0.439292
0.144244 0.673579 0.413703
0.137667 0.665507 0.368917
0.207492 0.646632 0.243107
0.422095 0.648219 0.189380
0.559411 0.658351 0.220539
0.734859 0.688533 0.307973
0.843915 0.727001 0.387533
0.901976 0.759411 0.451911
0.277729 0.750118 0.514076
0.267201 0.744976 0.495140
0.258717 0.739208 0.462058
0.280232 0.728801 0.379950
0.475090 0.747555 0.361990
0.584955 0.755245 0.364828
0.706081 0.770382 0.403632
0.836469 0.798901 0.479561
0.893217 0.823850 0.521859
0.464759 0.805325 0.621653
0.422690 0.789792 0.585840
0.389990 0.776364 0.546838
0.405356 0.770916 0.497017
0.570077 0.813611 0.539788
0.666941 0.832166 0.544823
0.737987 0.836027 0.536431
0.839048 0.854154 0.580011
0.902846 0.873808 0.636500
0.000000 0.018769 0.304021
0.053437 0.019135 0.340490
0.184253 0.012696 0.305623
0.256199 0.013931 0.233265
0.349401 0.018173 0.231159
0.474098 0.024765 0.267247
0.602152 0.033295 0.315343
0.705653 0.050645 0.368215
0.776944 0.136095 0.449073
0.000000 0.092409 0.260243
0.000000 0.068803 0.333654
0.159197 0.015198 0.342596
0.272953 0.014694 0.251560
0.373648 0.019577 0.242832
0.506310 0.026551 0.275425
0.646418 0.038407 0.327886
0.709834 0.052522 0.365576
0.829602 0.231968 0.485054
0.014771 0.198672 0.278492
0.021042 0.188128 0.282902
0.151537 0.195239 0.352239
0.334661 0.167300 0.319234
0.469352 0.149477 0.325322
0.632670 0.100755 0.345693
0.744656 0.112184 0.376776
0.811475 0.179461 0.422263
0.854307 0.267704 0.468421
0.000000 0.348699 0.348272
0.000000 0.335927 0.333928
0.048814 0.339925 0.336736
0.334401 0.336614 0.336095
0.517754 0.332540 0.344579
0.725933 0.305623 0.361028
0.852644 0.258625 0.359976
0.872969 0.293095 0.394766
0.895598 0.363149 0.447761
0.038025 0.478202 0.422141
0.030899 0.464714 0.387884
0.034134 0.448432 0.327657
0.190906 0.458717 0.286900
0.487739 0.474052 0.302464
0.662028 0.489113 0.326757
0.826047 0.501472 0.342992
0.902327 0.500984 0.401984
0.911574 0.528344 0.470481
0.092821 0.595743 0.462104
0.080583 0.582727 0.419272
0.072511 0.572519 0.375067
0.080476 0.554040 0.281773
0.398535 0.567269 0.223987
0.622202 0.582361 0.247074
0.786709 0.618448 0.282124
0.870375 0.668315 0.397360
0.892760 0.703838 0.457481
0.170626 0.692699 0.496834
0.158083 0.682612 0.468452
0.151034 0.673350 0.435981
0.142168 0.662501 0.365255
0.364096 0.655695 0.222889
0.553887 0.672877 0.251499
0.751125 0.704768 0.333867
0.858244 0.744671 0.426352
0.906920 0.773938 0.505913
0.291005 0.758587 0.556817
0.278737 0.752438 0.536065
0.270130 0.746380 0.511772
0.261158 0.737011 0.460060
0.406683 0.745388 0.379568
0.592615 0.769894 0.398840
0.721630 0.786114 0.435325
0.850965 0.814145 0.508232
0.903716 0.839170 0.562478
0.487007 0.817731 0.660868
0.442741 0.801343 0.625101
0.408545 0.788388 0.591821
0.402640 0.779980 0.553628
0.525124 0.806302 0.547204
0.684901 0.847639 0.594079
0.757061 0.855833 0.589670
0.855360 0.871748 0.627268
0.914366 0.888411 0.674388
0.000000 0.028321 0.418601
0.050568 0.029480 0.457404
0.182223 0.022309 0.449943
0.289296 0.016846 0.385779
0.369650 0.019120 0.341756
0.479728 0.024567 0.352438
0.608881 0.036057 0.380835
0.722637 0.073976 0.422522
0.755291 0.108797 0.465034
0.000000 0.067536 0.384955
0.000000 0.029160 0.414084
0.117220 0.026566 0.456504
0.285801 0.017746 0.413077
0.378347 0.019471 0.349538
0.497948 0.025803 0.361654
0.632517 0.049561 0.391882
0.738735 0.084367 0.431189
0.768780 0.129992 0.483207
0.000000 0.217472 0.365103
0.000000 0.205615 0.386069
0.122087 0.173098 0.518303
0.332052 0.078569 0.505592
0.448051 0.092668 0.420829
0.571847 0.098299 0.416403
0.689235 0.090837 0.418662
0.774014 0.134447 0.465721
0.819806 0.231250 0.529107
0.016846 0.352041 0.431418
0.032700 0.334371 0.424857
0.102770 0.336690 0.441886
0.307271 0.324620 0.509239
0.478340 0.303624 0.458045
0.646296 0.297551 0.477699
0.816190 0.258625 0.493294
0.854597 0.293462 0.513573
0.875776 0.355291 0.546044
0.035279 0.503136 0.498894
0.033234 0.490806 0.485512
0.043458 0.478599 0.472343
0.210681 0.480644 0.475242
0.473259 0.475044 0.471046
0.662593 0.480034 0.485390
0.854231 0.476143 0.503075
0.911711 0.463279 0.505425
0.913314 0.507637 0.544442
0.122728 0.615915 0.559609
0.114366 0.604379 0.536904
0.107164 0.595193 0.505272
0.112169 0.574533 0.441749
0.349737 0.590219 0.423301
0.619181 0.613199 0.452857
0.791318 0.635752 0.485908
0.893996 0.673014 0.496681
0.911940 0.704677 0.551492
0.196918 0.712230 0.595422
0.182406 0.699260 0.556359
0.172274 0.687373 0.516884
0.164324 0.675258 0.474693
0.206729 0.659648 0.382956
0.547051 0.707713 0.420157
0.757137 0.732128 0.455543
0.880262 0.764263 0.499855
0.918074 0.800809 0.587640
0.309758 0.774487 0.628443
0.296345 0.765866 0.599771
0.286275 0.757916 0.573312
0.277195 0.748348 0.539300
0.273274 0.736309 0.466163
0.581674 0.784253 0.458167
0.725765 0.805615 0.491676
0.865614 0.829908 0.539712
0.919173 0.862440 0.639033
0.509102 0.834257 0.714611
0.470848 0.818723 0.680217
0.432929 0.805035 0.648859
0.426581 0.797818 0.621851
0.443259 0.792737 0.578943
0.667918 0.851850 0.624399
0.773861 0.876005 0.648417
0.871641 0.890715 0.677638
0.927230 0.905180 0.717464
0.000000 0.037720 0.513664
0.052888 0.039338 0.549264
0.174578 0.034684 0.567208
0.301961 0.025483 0.544198
0.405203 0.022751 0.493507
0.502083 0.026535 0.467323
0.623041 0.053986 0.472435
0.731380 0.096300 0.499550
0.757748 0.123171 0.536507
0.000000 0.076097 0.492851
0.000000 0.036545 0.499214
0.102754 0.037217 0.554406
0.277012 0.027512 0.557458
0.410056 0.023713 0.512474
0.515160 0.030976 0.477928
0.635340 0.064454 0.480278
0.741482 0.105714 0.508492
0.760845 0.129030 0.548165
0.000000 0.221897 0.502190
0.000000 0.190753 0.516350
0.072099 0.121874 0.605447
0.247669 0.032731 0.589624
0.407645 0.024643 0.533394
0.522499 0.039643 0.484184
0.650965 0.077272 0.489128
0.754452 0.118166 0.517769
0.775189 0.153246 0.566567
0.072465 0.357443 0.495521
0.064317 0.344915 0.492699
0.096666 0.358358 0.530449
0.287846 0.318456 0.700801
0.496895 0.227832 0.686610
0.628641 0.235279 0.583871
0.755444 0.240208 0.575341
0.819532 0.254414 0.591836
0.832013 0.304326 0.633143
0.022110 0.509239 0.578286
0.031052 0.494301 0.570443
0.076799 0.490074 0.580240
0.232136 0.484688 0.596811
0.454154 0.472511 0.647288
0.618418 0.450584 0.592233
0.781231 0.451453 0.613123
0.867308 0.424186 0.631235
0.870069 0.466941 0.653498
0.127977 0.642344 0.635859
0.123827 0.631739 0.623789
0.125353 0.625666 0.617182
0.138582 0.614664 0.604868
0.380468 0.613703 0.607416
0.612177 0.615045 0.609796
0.788067 0.626795 0.628901
0.917937 0.644205 0.650782
0.920485 0.647166 0.658518
0.228489 0.738811 0.693416
0.218585 0.728328 0.674800
0.211810 0.718120 0.651408
0.205737 0.704463 0.615473
0.241627 0.685328 0.550347
0.540932 0.730678 0.588876
0.762478 0.761639 0.629618
0.880720 0.788022 0.663844
0.924559 0.817929 0.679637
0.335317 0.802213 0.727764
0.324483 0.793378 0.703975
0.313664 0.782101 0.670985
0.303365 0.769345 0.635172
0.296239 0.755383 0.589624
0.499733 0.789166 0.591394
0.742687 0.845640 0.662745
0.874754 0.864500 0.692638
0.934936 0.881865 0.719829
0.510155 0.852110 0.779767
0.497002 0.842908 0.752743
0.465629 0.830472 0.724880
0.463386 0.823636 0.703166
0.476249 0.819730 0.680034
0.521660 0.820371 0.631251
0.791852 0.897108 0.728771
0.882750 0.912184 0.752621
0.939498 0.923033 0.768826
0.005661 0.050141 0.583001
0.051591 0.051850 0.609705
0.150683 0.049378 0.643397
0.287404 0.040482 0.656825
0.411673 0.033570 0.637385
0.524727 0.034836 0.603433
0.642939 0.076143 0.594034
0.733867 0.109606 0.594934
0.750362 0.127962 0.617044
0.000000 0.115312 0.580667
0.000000 0.064027 0.578393
0.083452 0.049638 0.616480
0.247013 0.042451 0.652232
0.403830 0.035782 0.652491
0.528984 0.040177 0.615549
0.649104 0.082979 0.600168
0.738643 0.115785 0.598733
0.752590 0.132647 0.624384
0.000000 0.203250 0.595071
0.000000 0.167178 0.596109
0.023224 0.097185 0.621134
0.197940 0.047807 0.656870
0.390723 0.039094 0.670314
0.537820 0.051499 0.635416
0.659052 0.092470 0.609232
0.746548 0.124819 0.606394
0.758404 0.141451 0.631830
0.079225 0.388098 0.574868
0.072129 0.376394 0.590753
0.090227 0.370123 0.649973
0.261112 0.318502 0.828153
0.461753 0.220066 0.836240
0.612833 0.162081 0.738766
0.716655 0.174838 0.664775
0.792309 0.201877 0.657832
0.809781 0.252506 0.693034
0.132799 0.517494 0.650370
0.127199 0.501152 0.637888
0.131334 0.488197 0.633844
0.230564 0.521477 0.691051
0.455604 0.499977 0.839445
0.647822 0.411154 0.817777
0.763684 0.408042 0.718257
0.849287 0.408499 0.717845
0.849302 0.420188 0.736751
0.067216 0.637537 0.687785
0.064927 0.630198 0.685710
0.093080 0.633814 0.700526
0.185763 0.637980 0.726146
0.413352 0.625238 0.740414
0.598383 0.620188 0.774639
0.745510 0.598199 0.722622
0.856703 0.610971 0.744488
0.874861 0.601297 0.759579
0.236728 0.761761 0.753094
0.230838 0.754742 0.745266
0.229252 0.748180 0.737850
0.230838 0.741146 0.730022
0.285512 0.737301 0.726421
0.570611 0.750790 0.744976
0.758862 0.762188 0.757092
0.873106 0.778851 0.777630
0.924147 0.796185 0.797574
0.351995 0.825376 0.795514
0.348074 0.821164 0.787594
0.344991 0.814786 0.775601
0.340536 0.806180 0.758785
0.337423 0.794263 0.731441
0.541878 0.812833 0.731868
0.751019 0.858930 0.780591
0.879118 0.879088 0.805432
0.932494 0.892866 0.828717
0.493660 0.866972 0.831296
0.487022 0.862501 0.821012
0.472587 0.856092 0.807980
0.483177 0.850401 0.792340
0.505592 0.845060 0.772168
0.567346 0.848844 0.758282
0.776608 0.902266 0.816571
0.893233 0.928405 0.847288
0.940917 0.936843 0.856825
0.019455 0.105257 0.642939
0.033799 0.069764 0.631159
0.100496 0.061402 0.654521
0.247272 0.057008 0.700740
0.388525 0.049622 0.710277
0.524834 0.051423 0.698146
0.655558 0.100023 0.697704
0.730800 0.129122 0.689906
0.737591 0.138369 0.698497
0.000000 0.166232 0.642924
0.004715 0.147524 0.650477
0.045945 0.061189 0.628565
0.199786 0.058122 0.687526
0.370962 0.051972 0.715511
0.519356 0.053178 0.705730
0.656321 0.103700 0.702052
0.734539 0.132952 0.691157
0.741588 0.142855 0.700282
0.002853 0.225040 0.656336
0.000000 0.200671 0.653864
0.002960 0.153582 0.650187
0.149386 0.062776 0.678386
0.352407 0.057206 0.725765
0.519539 0.062852 0.722835
0.660685 0.110506 0.709987
0.739208 0.139345 0.696986
0.746746 0.149264 0.703426
0.097673 0.420874 0.665995
0.091646 0.410086 0.682063
0.080491 0.390784 0.709224
0.246662 0.376959 0.876585
0.444450 0.279835 0.921126
0.602655 0.196185 0.856916
0.697902 0.160220 0.756100
0.756848 0.165377 0.717586
0.786542 0.218524 0.748928
0.159991 0.534493 0.695857
0.157809 0.522972 0.689677
0.157717 0.511681 0.688106
0.243763 0.563256 0.772351
0.462257 0.546426 0.942199
0.651026 0.458824 0.958831
0.779095 0.383352 0.852247
0.834302 0.376623 0.803662
0.838758 0.393362 0.804608
0.155535 0.662287 0.763195
0.162768 0.655665 0.764050
0.185351 0.651591 0.772671
0.268055 0.651835 0.798001
0.422248 0.657557 0.823224
0.613733 0.658427 0.908141
0.771511 0.582101 0.872984
0.845487 0.585245 0.812757
0.870573 0.596262 0.816800
0.196536 0.767529 0.792935
0.194018 0.763836 0.792264
0.198840 0.761990 0.795209
0.214603 0.761425 0.803021
0.313420 0.776654 0.834211
0.593820 0.771084 0.844068
0.748211 0.764416 0.856413
0.848142 0.759686 0.835187
0.893721 0.776638 0.848417
0.357824 0.840665 0.831449
0.356252 0.839429 0.829892
0.354788 0.836225 0.826246
0.353887 0.831098 0.820890
0.360525 0.826841 0.816785
0.577081 0.848737 0.841901
0.761639 0.864591 0.861509
0.872755 0.874891 0.872312
0.920180 0.887114 0.886229
0.483909 0.879576 0.864302
0.483238 0.878950 0.863325
0.477623 0.875944 0.859373
0.490471 0.874281 0.856672
0.526345 0.874022 0.854566
0.617243 0.881132 0.858213
0.787625 0.906538 0.881117
0.892134 0.927886 0.902174
0.938476 0.937484 0.912200
0.008972 0.184741 0.674250
0.011276 0.185885 0.678065
0.043427 0.106050 0.665980
0.166125 0.066407 0.691585
0.348837 0.060868 0.733394
0.509987 0.064088 0.737835
0.651926 0.107851 0.741497
0.724483 0.144701 0.747768
0.729030 0.150317 0.752331
0.014191 0.218357 0.682841
0.014694 0.212848 0.684031
0.009918 0.180011 0.673884
0.122774 0.068437 0.677455
0.330358 0.065858 0.740001
0.500023 0.066743 0.746044
0.651270 0.113130 0.749630
0.728145 0.148516 0.749706
0.733852 0.155367 0.754925
0.035096 0.296864 0.703792
0.038636 0.298802 0.711757
0.039963 0.286015 0.718898
0.183474 0.227832 0.809125
0.369802 0.146532 0.826581
0.503868 0.089692 0.774395
0.654841 0.122316 0.761532
0.732570 0.153384 0.752453
0.738628 0.159640 0.754025
0.117617 0.457008 0.699672
0.117479 0.455558 0.712764
0.115343 0.447318 0.737423
0.231083 0.470481 0.878645
0.447135 0.379736 0.975341
0.625910 0.295674 0.937957
0.738277 0.239033 0.847898
0.776226 0.219654 0.802884
0.781949 0.227604 0.799283
0.179294 0.559960 0.731624
0.179538 0.554314 0.730907
0.178592 0.545739 0.730907
0.246418 0.589715 0.800641
0.461143 0.597086 0.954955
0.656992 0.530449 1.000000
0.786526 0.434211 0.914321
0.837003 0.403449 0.858366
0.835447 0.397650 0.852735
0.189075 0.679423 0.796719
0.195773 0.676417 0.800000
0.207889 0.669032 0.804486
0.285222 0.673945 0.832776
0.441657 0.688045 0.865248
0.632303 0.699901 0.951995
0.783536 0.628244 0.942428
0.854597 0.589548 0.872648
0.869154 0.592569 0.859602
0.161151 0.750790 0.790784
0.171908 0.756878 0.799847
0.194842 0.766934 0.817304
0.258686 0.778225 0.844862
0.422477 0.798367 0.886442
0.621866 0.785077 0.888502
0.762310 0.788327 0.914885
0.860685 0.756817 0.895811
0.891981 0.768750 0.876997
0.350164 0.851637 0.857908
0.354223 0.851728 0.858289
0.358907 0.850004 0.857603
0.368002 0.847364 0.857862
0.426780 0.858366 0.873716
0.607095 0.875975 0.897124
0.770153 0.876875 0.902892
0.866178 0.873259 0.905943
0.910658 0.880369 0.906691
0.483467 0.885161 0.877638
0.490455 0.886564 0.878660
0.488655 0.885145 0.877073
0.513069 0.885451 0.877821
0.552758 0.887373 0.880201
0.627726 0.894896 0.889311
0.794202 0.914977 0.912642
0.890089 0.925307 0.924743
0.932357 0.932555 0.932601
