app/src/main/assets/lut_presets/#U9ad8#U7ea7#U8d28#U611f.cube
TITLE "Generated by Resolve (33)"
# Resampled from 65 to 33 by scripts/resample_cube_luts.py
# Source: 高级质感.cube
LUT_3D_SIZE 5
0.019440 0.007752 0.032074
0.291524 0.000000 0.039872
0.559442 0.000000 0.040070
0.830274 0.000000 0.041459
1.000000 0.000000 0.046784
0.000000 0.266361 0.000000
0.272282 0.264012 0.015961
0.541848 0.238087 0.014054
0.802182 0.206867 0.001297
1.000000 0.182666 0.000000
0.000000 0.503487 0.000000
0.184848 0.524239 0.000000
0.538140 0.533501 0.015473
0.808759 0.506691 0.024430
1.000000 0.468650 0.000000
0.000000 0.749722 0.000000
0.000000 0.753384 0.000000
0.491264 0.807355 0.100191
0.797406 0.796246 0.008850
1.000000 0.772641 0.037568
0.000000 0.993851 0.000000
0.000000 0.992447 0.000000
0.307500 1.000000 0.000000
0.767987 1.000000 0.113100
1.000000 1.000000 0.001617
0.014405 0.005142 0.337118
0.351263 0.000000 0.427344
0.675715 0.000000 0.407965
0.916075 0.000000 0.373831
1.000000 0.000000 0.366613
0.000000 0.255299 0.252537
0.262089 0.256046 0.277287
0.536385 0.218463 0.268513
0.795544 0.184909 0.264408
1.000000 0.164019 0.274372
0.000000 0.467414 0.176806
0.077974 0.485908 0.203342
0.523201 0.519448 0.265782
0.783673 0.479896 0.256245
1.000000 0.437018 0.232090
0.000000 0.705562 0.115175
0.000000 0.708247 0.155352
0.435706 0.782940 0.315328
0.796216 0.796170 0.268605
1.000000 0.759533 0.280232
0.000000 0.955688 0.110613
0.000000 0.951690 0.144884
0.175677 0.968994 0.142214
0.750759 1.000000 0.331838
1.000000 1.000000 0.261891
0.011810 0.005005 0.644617
0.319936 0.000000 0.742657
0.693294 0.000000 0.832853
1.000000 0.000000 0.831678
1.000000 0.000000 0.785473
0.000000 0.267384 0.543893
0.274952 0.270481 0.598795
0.612894 0.241291 0.690089
0.927474 0.210025 0.662318
1.000000 0.167865 0.612039
0.000000 0.484352 0.454780
0.215473 0.491768 0.485740
0.504738 0.504356 0.522499
0.770230 0.457816 0.513420
1.000000 0.410071 0.482841
0.000000 0.691569 0.380224
0.000000 0.672923 0.382269
0.277089 0.697108 0.396765
0.773983 0.774838 0.517647
1.000000 0.725917 0.488655
0.000000 0.887144 0.303670
0.000000 0.889601 0.322805
0.121263 0.903487 0.359411
0.680049 1.000000 0.539712
1.000000 1.000000 0.526772
0.007996 0.003632 0.950912
0.312627 0.000000 1.000000
0.642618 0.000000 1.000000
1.000000 0.000000 1.000000
1.000000 0.000000 1.000000
0.000000 0.279637 0.860243
0.289158 0.287449 0.923171
0.597513 0.269871 1.000000
0.972793 0.236957 1.000000
1.000000 0.193256 1.000000
0.000000 0.504387 0.741863
0.224231 0.517525 0.790555
0.535500 0.535821 0.860456
0.874495 0.507713 0.952819
1.000000 0.467140 0.915862
0.000000 0.722652 0.666133
0.149630 0.709087 0.676387
0.447684 0.728252 0.718944
0.747387 0.752667 0.767727
1.000000 0.693141 0.766140
0.000000 0.925597 0.589990
0.000000 0.905653 0.595209
0.217548 0.881315 0.586999
0.469795 0.903166 0.592981
1.000000 1.000000 0.769497
0.004196 0.002243 1.000000
0.306981 0.000000 1.000000
0.621729 0.000000 1.000000
0.974792 0.000000 1.000000
1.000000 0.000000 1.000000
0.000000 0.283726 1.000000
0.285344 0.286076 1.000000
0.591684 0.273716 1.000000
0.922057 0.247211 1.000000
1.000000 0.209262 1.000000
0.000000 0.527199 1.000000
0.245472 0.545739 1.000000
0.566522 0.569924 1.000000
0.875074 0.552544 1.000000
1.000000 0.521599 1.000000
0.000000 0.740841 0.947036
0.159716 0.740505 0.974701
0.469856 0.767651 1.000000
0.796048 0.801175 1.000000
1.000000 0.774136 1.000000
0.000000 0.960952 0.877485
0.104387 0.947387 0.887739
0.370306 0.933822 0.898009
0.687404 0.962478 0.949676
0.990021 1.000000 1.000000
