app/src/main/assets/lut_presets/#U9ad8#U7ea7#U8d28#U611f.cube
TITLE "Generated by Resolve (33)"
# Resampled from 65 to 33 by scripts/resample_cube_luts.py
# Source: 高级质感.cube
LUT_3D_SIZE 9
0.019440 0.007752 0.032074
0.156252 0.001572 0.037186
0.291524 0.000000 0.039872
0.425361 0.000000 0.040177
0.559442 0.000000 0.040070
0.694697 0.000000 0.040772
0.830274 0.000000 0.041459
0.965728 0.000000 0.043778
1.000000 0.000000 0.046784
0.000000 0.140108 0.010956
0.143603 0.133593 0.021424
0.281712 0.124697 0.025757
0.413199 0.110048 0.021729
0.544060 0.094484 0.018387
0.677852 0.080827 0.017929
0.812467 0.068650 0.018387
0.947448 0.056565 0.019318
1.000000 0.044694 0.020737
0.000000 0.266361 0.000000
0.113268 0.271748 0.012619
0.272282 0.264012 0.015961
0.411856 0.256153 0.026307
0.541848 0.238087 0.014054
0.670512 0.220813 0.005402
0.802182 0.206867 0.001297
0.935485 0.194400 0.000000
1.000000 0.182666 0.000000
0.000000 0.384802 0.000000
0.032471 0.389487 0.000000
0.255329 0.402594 0.034668
0.405417 0.398978 0.015732
0.545251 0.391150 0.030640
0.676005 0.372610 0.017410
0.803510 0.352911 0.002518
0.932189 0.335805 0.000000
1.000000 0.321462 0.000000
0.000000 0.503487 0.000000
0.000000 0.505196 0.000000
0.184848 0.524239 0.000000
0.393790 0.538415 0.050889
0.538140 0.533501 0.015473
0.676570 0.523934 0.030549
0.808759 0.506691 0.024430
0.938384 0.487541 0.005402
1.000000 0.468650 0.000000
0.000000 0.626841 0.000000
0.000000 0.626078 0.000000
0.082521 0.634821 0.000000
0.346960 0.670604 0.075013
0.527138 0.671824 0.054673
0.667796 0.664897 0.012192
0.806912 0.655802 0.029084
0.940368 0.640055 0.033188
1.000000 0.622080 0.010880
0.000000 0.749722 0.000000
0.000000 0.747967 0.000000
0.000000 0.753384 0.000000
0.248386 0.776059 0.000000
0.491264 0.807355 0.100191
0.658473 0.804181 0.050797
0.797406 0.796246 0.008850
0.936919 0.787411 0.026841
1.000000 0.772641 0.037568
0.000000 0.872084 0.000000
0.000000 0.869459 0.000000
0.000000 0.872862 0.000000
0.139498 0.885817 0.000000
0.414343 0.929152 0.070924
0.630900 0.943038 0.111604
0.789029 0.936202 0.042100
0.926970 0.927550 0.005341
1.000000 0.918822 0.023865
0.000000 0.993851 0.000000
0.000000 0.990356 0.000000
0.000000 0.992447 0.000000
0.006622 1.000000 0.000000
0.307500 1.000000 0.000000
0.574777 1.000000 0.138384
0.767987 1.000000 0.113100
0.919020 1.000000 0.030228
1.000000 1.000000 0.001617
0.016510 0.006027 0.184176
0.183597 0.000000 0.227939
0.345953 0.000000 0.219150
0.467948 0.000000 0.203342
0.592340 0.000000 0.197711
0.722026 0.000000 0.197147
0.854322 0.000000 0.198718
0.987976 0.000000 0.201465
1.000000 0.000000 0.205097
0.004486 0.134691 0.145434
0.140749 0.131899 0.154681
0.281559 0.117006 0.153155
0.413184 0.102052 0.150317
0.543069 0.085130 0.147204
0.675517 0.070787 0.146242
0.811078 0.059770 0.148318
0.947280 0.048798 0.151125
1.000000 0.039261 0.155276
0.000000 0.253834 0.122423
0.055772 0.254627 0.116243
0.266636 0.258839 0.144244
0.403769 0.246830 0.146181
0.532143 0.226062 0.136782
0.660609 0.207858 0.127413
0.794232 0.195041 0.125078
0.929305 0.183429 0.125078
1.000000 0.171923 0.126223
0.000000 0.365011 0.073411
0.000000 0.376455 0.095277
0.242802 0.399100 0.191928
0.397772 0.391730 0.140444
0.535592 0.382406 0.159274
0.662654 0.358373 0.138293
0.789242 0.337469 0.121767
0.920333 0.322194 0.113252
1.000000 0.309514 0.108736
0.000000 0.480598 0.032517
0.000000 0.489693 0.061250
0.128466 0.501610 0.102922
0.384924 0.531731 0.192737
0.533181 0.529091 0.144335
0.671580 0.519615 0.164416
0.799084 0.496574 0.149386
0.924880 0.473243 0.126711
1.000000 0.453819 0.110842
0.000000 0.605920 0.018296
0.000000 0.605859 0.032853
0.022324 0.611307 0.040925
0.304524 0.649729 0.178317
0.524178 0.669551 0.193637
0.666865 0.664652 0.146715
0.803754 0.653254 0.163378
0.933089 0.632685 0.160204
1.000000 0.610376 0.135454
0.000000 0.730526 0.005402
0.000000 0.728817 0.016739
0.000000 0.730144 0.018113
0.185473 0.746822 0.073457
0.473350 0.800580 0.226764
0.657404 0.803479 0.187762
0.796414 0.795956 0.144137
0.934386 0.785458 0.160891
1.000000 0.767025 0.168414
0.000000 0.853895 0.000000
0.000000 0.851087 0.004822
0.000000 0.850706 0.008331
0.059327 0.860792 0.006912
0.363302 0.901823 0.158709
0.620523 0.939254 0.232364
0.788403 0.935912 0.178363
0.925978 0.927260 0.140551
1.000000 0.917205 0.157824
0.000000 0.976272 0.000000
0.000000 0.972625 0.000000
0.000000 0.970901 0.008148
0.000000 0.977295 0.000000
0.245243 0.998657 0.051209
0.544396 1.000000 0.241611
0.761700 1.000000 0.231327
0.918608 1.000000 0.166918
1.000000 1.000000 0.136858
0.014405 0.005142 0.337118
0.166186 0.000000 0.383841
0.351263 0.000000 0.427344
0.534020 0.000000 0.429160
0.675715 0.000000 0.407965
0.796338 0.000000 0.386130
0.916075 0.000000 0.373831
1.000000 0.000000 0.368231
1.000000 0.000000 0.366613
0.000000 0.137087 0.287510
0.140993 0.132799 0.309209
0.308263 0.116472 0.353155
0.469657 0.105028 0.343389
0.588739 0.087968 0.322072
0.710414 0.071794 0.312749
0.839506 0.058793 0.311421
0.971969 0.047059 0.313252
1.000000 0.036057 0.316564
0.000000 0.255299 0.252537
0.124529 0.256977 0.266026
0.262089 0.256046 0.277287
0.402411 0.239734 0.279881
0.536385 0.218463 0.268513
0.663676 0.199756 0.264332
0.795544 0.184909 0.264408
0.932403 0.174395 0.269154
1.000000 0.164019 0.274372
0.000000 0.364202 0.220417
0.030762 0.365240 0.226261
0.152193 0.369070 0.219699
0.389609 0.384070 0.267735
0.526040 0.370230 0.263584
0.651759 0.344427 0.249348
0.778439 0.321431 0.241642
0.912932 0.307774 0.239841
1.000000 0.296544 0.240314
0.000000 0.467414 0.176806
0.000000 0.463218 0.164767
0.077974 0.485908 0.203342
0.365194 0.522347 0.305409
0.523201 0.519448 0.265782
0.661021 0.510704 0.266926
0.783673 0.479896 0.256245
0.908385 0.453803 0.241489
1.000000 0.437018 0.232090
0.000000 0.574868 0.121920
0.000000 0.583276 0.144594
0.004791 0.594598 0.176196
0.240803 0.615290 0.230396
0.512978 0.659953 0.312840
0.661265 0.659388 0.268345
0.799390 0.650156 0.274632
0.922072 0.621332 0.270176
1.000000 0.592920 0.249760
0.000000 0.705562 0.115175
0.000000 0.708186 0.136553
0.000000 0.708247 0.155352
0.125826 0.718013 0.167041
0.435706 0.782940 0.315328
0.654688 0.800656 0.312505
0.796216 0.796170 0.268605
0.931838 0.783886 0.278294
1.000000 0.759533 0.280232
0.000000 0.831693 0.113008
0.000000 0.832227 0.129824
0.000000 0.830411 0.148196
0.032837 0.833661 0.153780
0.296818 0.861601 0.209064
0.600824 0.930312 0.330404
0.787884 0.935180 0.302296
0.925673 0.927428 0.265339
1.000000 0.915770 0.278676
0.000000 0.955688 0.110613
0.000000 0.954650 0.126970
0.000000 0.951690 0.144884
0.000000 0.952407 0.154574
0.175677 0.968994 0.142214
0.488197 1.000000 0.285695
0.750759 1.000000 0.331838
0.918502 1.000000 0.290135
1.000000 1.000000 0.261891
0.013153 0.005112 0.490913
0.164004 0.000000 0.530037
0.327962 0.000000 0.594491
0.522438 0.000000 0.630259
0.712169 0.000000 0.637507
0.870542 0.000000 0.621820
1.000000 0.000000 0.596490
1.000000 0.000000 0.573632
1.000000 0.000000 0.557519
0.000000 0.141482 0.443976
0.144671 0.137804 0.467964
0.295171 0.125277 0.513390
0.482078 0.108064 0.558724
0.665415 0.094225 0.561120
0.801953 0.079347 0.535195
0.919142 0.058259 0.507897
1.000000 0.044144 0.492760
1.000000 0.032487 0.485847
0.000000 0.258717 0.389578
0.120821 0.261601 0.410300
0.265476 0.259586 0.434241
0.432929 0.243427 0.478340
0.593362 0.231006 0.467628
0.709178 0.211048 0.441428
0.828824 0.191394 0.428443
0.957916 0.177539 0.426123
1.000000 0.165606 0.427848
0.000000 0.369528 0.353368
0.099367 0.373541 0.369146
0.244602 0.379248 0.386603
0.383413 0.380209 0.399893
0.522026 0.361837 0.403861
0.653544 0.338659 0.388998
0.783597 0.313283 0.371908
0.914595 0.298161 0.369802
1.000000 0.289052 0.373907
0.000000 0.475532 0.318959
0.023789 0.475502 0.328771
0.142702 0.480720 0.338369
0.254170 0.483024 0.324544
0.512581 0.509316 0.391226
0.647501 0.493202 0.386465
0.772473 0.461952 0.363684
0.898421 0.437217 0.350027
1.000000 0.422919 0.348516
0.000000 0.576944 0.277165
0.000000 0.568154 0.276570
0.000000 0.567697 0.271717
0.181552 0.592538 0.300557
0.485283 0.644572 0.417182
0.648585 0.647135 0.391714
0.785458 0.637430 0.391897
0.906661 0.604395 0.367483
1.000000 0.575067 0.350011
0.000000 0.681514 0.237873
0.000000 0.668711 0.226764
0.000000 0.678828 0.244083
0.094682 0.696223 0.279316
0.351904 0.730236 0.350607
0.636484 0.785977 0.423972
0.789075 0.789548 0.396704
0.926986 0.780316 0.396780
1.000000 0.752209 0.378241
0.000000 0.798398 0.209415
0.000000 0.801556 0.230030
0.000000 0.805402 0.245731
0.011475 0.807462 0.257588
0.233661 0.824537 0.279652
0.560510 0.910216 0.438529
0.781262 0.929580 0.426398
0.925200 0.927504 0.397314
1.000000 0.915999 0.394736
0.000000 0.926635 0.218952
0.000000 0.928557 0.232547
0.000000 0.930068 0.242542
0.000000 0.929503 0.252018
0.149203 0.937255 0.255299
0.409323 0.983383 0.328710
0.729900 1.000000 0.453986
0.916045 1.000000 0.419333
1.000000 1.000000 0.391516
0.011810 0.005005 0.644617
0.162951 0.000000 0.680095
0.319936 0.000000 0.742657
0.496635 0.000000 0.802319
0.693294 0.000000 0.832853
0.884535 0.000000 0.841428
1.000000 0.000000 0.831678
1.000000 0.000000 0.810590
1.000000 0.000000 0.785473
0.000961 0.145403 0.601328
0.149187 0.143648 0.627558
0.298833 0.133883 0.665446
0.462943 0.119524 0.730037
0.659403 0.103227 0.767803
0.849073 0.087266 0.775021
1.000000 0.069184 0.754421
1.000000 0.048753 0.724132
1.000000 0.029663 0.697627
0.000000 0.267384 0.543893
0.127932 0.272145 0.572824
0.274952 0.270481 0.598795
0.424155 0.256626 0.642924
0.612894 0.241291 0.690089
0.796811 0.228031 0.693080
0.927474 0.210025 0.662318
1.000000 0.185000 0.629877
1.000000 0.167865 0.612039
0.000000 0.374838 0.490120
0.093751 0.378393 0.507591
0.243076 0.386114 0.533074
0.389975 0.386374 0.559258
0.557580 0.370382 0.603540
0.717067 0.357000 0.591867
0.829999 0.332296 0.560632
0.948669 0.308858 0.543969
1.000000 0.294209 0.540719
0.000000 0.484352 0.454780
0.067964 0.483742 0.465995
0.215473 0.491768 0.485740
0.365057 0.501442 0.507088
0.504738 0.504356 0.522499
0.640650 0.484062 0.529046
0.770230 0.457816 0.513420
0.898711 0.430121 0.494377
1.000000 0.410071 0.482841
0.000000 0.594629 0.425650
0.009430 0.586282 0.428748
0.142977 0.589761 0.442481
0.257282 0.595117 0.448264
0.367422 0.598062 0.437842
0.635554 0.634546 0.514733
0.769055 0.615976 0.509117
0.891905 0.578927 0.483787
1.000000 0.550057 0.463447
0.000000 0.691569 0.380224
0.000000 0.680308 0.380545
0.000000 0.672923 0.382269
0.081498 0.671534 0.374105
0.277089 0.697108 0.396765
0.605341 0.766781 0.532189
0.773983 0.774838 0.517647
0.909911 0.764172 0.516884
1.000000 0.725917 0.488655
0.000000 0.790173 0.342290
0.000000 0.778866 0.341558
0.000000 0.766262 0.333257
0.000000 0.765774 0.323003
0.198642 0.794507 0.370459
0.461021 0.841352 0.456703
0.760021 0.911940 0.540398
0.916884 0.919707 0.525063
1.000000 0.909667 0.524346
0.000000 0.887144 0.303670
0.000000 0.883803 0.306752
0.000000 0.889601 0.322805
0.000000 0.895659 0.337743
0.121263 0.903487 0.359411
0.336263 0.929244 0.393774
0.680049 1.000000 0.539712
0.907271 1.000000 0.544717
1.000000 1.000000 0.526772
0.009903 0.004318 0.797772
0.160800 0.000000 0.830701
0.316136 0.000000 0.886580
0.479438 0.000000 0.954665
0.664622 0.000000 1.000000
0.861769 0.000000 1.000000
1.000000 0.000000 1.000000
1.000000 0.000000 1.000000
1.000000 0.000000 1.000000
0.000000 0.146426 0.756054
0.150469 0.146227 0.783902
0.301915 0.139986 0.819654
0.458732 0.128542 0.882048
0.635889 0.112902 0.942153
0.833051 0.094652 0.973205
1.000000 0.074861 0.980346
1.000000 0.055924 0.967132
1.000000 0.039826 0.941695
0.000000 0.275151 0.702937
0.134234 0.281132 0.735180
0.285237 0.282216 0.764187
0.433661 0.271199 0.800855
0.597910 0.256977 0.865583
0.796353 0.242695 0.905348
0.985977 0.226688 0.912505
1.000000 0.203632 0.887007
1.000000 0.181292 0.851514
0.000000 0.386282 0.641550
0.101427 0.392447 0.667216
0.256245 0.402808 0.701686
0.405219 0.403143 0.729625
0.553140 0.387991 0.772473
0.743694 0.374502 0.821454
0.928191 0.361837 0.825025
1.000000 0.338582 0.789090
1.000000 0.309911 0.751812
0.000000 0.492821 0.593606
0.064164 0.490822 0.604471
0.211261 0.498054 0.625605
0.365347 0.510628 0.655863
0.514473 0.513161 0.684291
0.682246 0.497353 0.728740
0.840787 0.482979 0.716091
0.949096 0.454139 0.682094
1.000000 0.425620 0.660212
0.000000 0.603494 0.560449
0.039292 0.596719 0.565591
0.180102 0.597940 0.578607
0.331579 0.610010 0.602335
0.491569 0.622095 0.625940
0.626062 0.628519 0.645121
0.749203 0.610864 0.651514
0.886687 0.576013 0.638285
1.000000 0.546029 0.618067
0.000000 0.715908 0.534844
0.003342 0.707271 0.538369
0.130938 0.699672 0.542840
0.262669 0.703929 0.555795
0.369543 0.708888 0.558190
0.506416 0.720623 0.570779
0.757412 0.759609 0.639445
0.890791 0.738521 0.631678
1.000000 0.695125 0.603784
0.000000 0.807980 0.484611
0.000000 0.797330 0.486397
0.000000 0.786694 0.487633
0.089128 0.777996 0.486198
0.204379 0.772473 0.471550
0.367132 0.799481 0.490715
0.725460 0.889021 0.648951
0.899367 0.902541 0.643565
1.000000 0.890898 0.641855
0.000000 0.900771 0.444343
0.000000 0.889799 0.446540
0.000000 0.878981 0.446998
0.000000 0.866194 0.438193
0.018372 0.842069 0.403693
0.291630 0.889982 0.460380
0.569894 0.953063 0.564660
0.883635 1.000000 0.659617
1.000000 1.000000 0.653422
0.007996 0.003632 0.950912
0.158618 0.000000 0.982101
0.312627 0.000000 1.000000
0.471153 0.000000 1.000000
0.642618 0.000000 1.000000
0.832654 0.000000 1.000000
1.000000 0.000000 1.000000
1.000000 0.000000 1.000000
1.000000 0.000000 1.000000
0.000000 0.146548 0.909957
0.148577 0.145525 0.937041
0.300175 0.140398 0.970672
0.455711 0.131090 1.000000
0.619150 0.117998 1.000000
0.804364 0.100008 1.000000
1.000000 0.080796 1.000000
1.000000 0.061265 1.000000
1.000000 0.042405 1.000000
0.000000 0.279637 0.860243
0.134874 0.283940 0.891646
0.289158 0.287449 0.923171
0.440879 0.281514 0.959213
0.597513 0.269871 1.000000
0.775143 0.254704 1.000000
0.972793 0.236957 1.000000
1.000000 0.215717 1.000000
1.000000 0.193256 1.000000
0.000000 0.397330 0.799924
0.110491 0.405219 0.831220
0.267506 0.416861 0.869017
0.421302 0.420768 0.900816
0.568490 0.408515 0.936263
0.732860 0.394430 1.000000
0.933303 0.382177 1.000000
1.000000 0.366110 1.000000
1.000000 0.338064 1.000000
0.000000 0.504387 0.741863
0.071092 0.506767 0.760372
0.224231 0.517525 0.790555
0.384543 0.533486 0.830533
0.535500 0.535821 0.860456
0.682139 0.519356 0.902007
0.874495 0.507713 0.952819
1.000000 0.495659 0.956985
1.000000 0.467140 0.915862
0.000000 0.611551 0.698299
0.039155 0.607523 0.706722
0.178042 0.606790 0.718822
0.328771 0.617731 0.743603
0.487617 0.635142 0.778653
0.639963 0.642252 0.802289
0.806897 0.624323 0.853910
0.964492 0.608957 0.840330
1.000000 0.575433 0.803677
0.000000 0.722652 0.666133
0.016678 0.715862 0.671260
0.149630 0.709087 0.676387
0.292241 0.712139 0.691234
0.447684 0.728252 0.718944
0.618936 0.742229 0.744228
0.747387 0.752667 0.767727
0.855879 0.737636 0.774960
1.000000 0.693141 0.766140
0.000000 0.836027 0.641749
0.000000 0.828122 0.646250
0.119356 0.819760 0.650492
0.249271 0.812955 0.656535
0.378164 0.818021 0.668894
0.483680 0.822400 0.670039
0.665400 0.847608 0.719448
0.877989 0.884459 0.765301
1.000000 0.860822 0.754314
0.000000 0.925597 0.589990
0.000000 0.915709 0.592706
0.000000 0.905653 0.595209
0.097780 0.893736 0.593820
0.217548 0.881315 0.586999
0.306279 0.870481 0.564706
0.469795 0.903166 0.592981
0.845640 1.000000 0.766796
1.000000 1.000000 0.769497
0.006088 0.002945 1.000000
0.156542 0.000000 1.000000
0.309636 0.000000 1.000000
0.466392 0.000000 1.000000
0.629206 0.000000 1.000000
0.808087 0.000000 1.000000
1.000000 0.000000 1.000000
1.000000 0.000000 1.000000
1.000000 0.000000 1.000000
0.000000 0.146395 1.000000
0.146670 0.144839 1.000000
0.297932 0.139925 1.000000
0.452155 0.131609 1.000000
0.610803 0.120104 1.000000
0.782345 0.104921 1.000000
0.972396 0.086122 1.000000
1.000000 0.066941 1.000000
1.000000 0.047562 1.000000
0.000000 0.282200 1.000000
0.134020 0.284886 1.000000
0.287251 0.286763 1.000000
0.439536 0.282322 1.000000
0.595315 0.273243 1.000000
0.758846 0.260258 1.000000
0.944106 0.242313 1.000000
1.000000 0.223117 1.000000
1.000000 0.202625 1.000000
0.000000 0.405661 0.959106
0.114824 0.412680 0.991455
0.269902 0.421439 1.000000
0.427832 0.428687 1.000000
0.579828 0.423026 1.000000
0.736294 0.411215 1.000000
0.914382 0.396506 1.000000
1.000000 0.379278 1.000000
1.000000 0.356573 1.000000
0.000000 0.516426 0.897078
0.081193 0.522454 0.923293
0.238224 0.535286 0.959487
0.400778 0.552590 1.000000
0.557351 0.559335 1.000000
0.703334 0.545815 1.000000
0.867826 0.531868 1.000000
1.000000 0.521645 1.000000
1.000000 0.505531 1.000000
0.000000 0.622522 0.843900
0.043793 0.622446 0.858274
0.189410 0.627268 0.879194
0.347036 0.642588 0.913878
0.512856 0.664149 0.959396
0.665766 0.668498 0.991287
0.811124 0.650706 1.000000
1.000000 0.640925 1.000000
1.000000 0.629465 1.000000
0.000000 0.730388 0.803296
0.015656 0.725689 0.810849
0.151781 0.722225 0.819837
0.291920 0.722759 0.833188
0.446281 0.737408 0.861616
0.609873 0.759655 0.901442
0.765530 0.772625 0.915694
0.924086 0.756771 0.971313
1.000000 0.734951 0.964569
0.000000 0.841794 0.771801
0.000000 0.835019 0.776944
0.127016 0.828229 0.782071
0.259968 0.821454 0.787198
0.404379 0.826337 0.803845
0.563790 0.846494 0.835538
0.742931 0.863172 0.863386
0.868711 0.876814 0.890333
0.962676 0.863874 0.896223
0.000000 0.955077 0.746944
0.000000 0.947311 0.751476
0.098711 0.939193 0.755795
0.228153 0.930571 0.759762
0.358038 0.923720 0.765759
0.492897 0.932265 0.782422
0.607996 0.939666 0.790661
0.829023 0.973861 0.872145
0.997650 1.000000 0.891859
0.004196 0.002243 1.000000
0.154513 0.000000 1.000000
0.306981 0.000000 1.000000
0.462577 0.000000 1.000000
0.621729 0.000000 1.000000
0.790448 0.000000 1.000000
0.974792 0.000000 1.000000
1.000000 0.000000 1.000000
1.000000 0.000000 1.000000
0.000000 0.146075 1.000000
0.144762 0.144152 1.000000
0.295811 0.139376 1.000000
0.449134 0.131762 1.000000
0.605997 0.121279 1.000000
0.768887 0.108232 1.000000
0.947814 0.091401 1.000000
1.000000 0.072221 1.000000
1.000000 0.053101 1.000000
0.000000 0.283726 1.000000
0.132753 0.285267 1.000000
0.285344 0.286076 1.000000
0.437232 0.281788 1.000000
0.591684 0.273716 1.000000
0.750454 0.262333 1.000000
0.922057 0.247211 1.000000
1.000000 0.228428 1.000000
1.000000 0.209262 1.000000
0.000000 0.411505 1.000000
0.116426 0.417060 1.000000
0.269856 0.423239 1.000000
0.425940 0.428000 1.000000
0.578897 0.424262 1.000000
0.734905 0.415412 1.000000
0.898543 0.402533 1.000000
1.000000 0.384619 1.000000
1.000000 0.365423 1.000000
0.000000 0.527199 1.000000
0.089265 0.534340 1.000000
0.245472 0.545739 1.000000
0.404929 0.558953 1.000000
0.566522 0.569924 1.000000
0.718791 0.564538 1.000000
0.875074 0.552544 1.000000
1.000000 0.538323 1.000000
1.000000 0.521599 1.000000
0.000000 0.634668 0.996124
0.051865 0.638148 1.000000
0.204059 0.647562 1.000000
0.365942 0.665370 1.000000
0.534051 0.688319 1.000000
0.693401 0.697887 1.000000
0.838163 0.683131 1.000000
1.000000 0.669322 1.000000
1.000000 0.661112 1.000000
0.000000 0.740841 0.947036
0.018250 0.739162 0.958923
0.159716 0.740505 0.974701
0.307729 0.747768 0.998016
0.469856 0.767651 1.000000
0.641154 0.794812 1.000000
0.796048 0.801175 1.000000
0.940108 0.782071 1.000000
1.000000 0.774136 1.000000
0.000000 0.849317 0.908507
0.000000 0.844175 0.915511
0.127733 0.839811 0.923400
0.264424 0.836927 0.932952
0.405783 0.838727 0.947540
0.563790 0.857069 0.979629
0.734951 0.883619 1.000000
0.890654 0.903151 1.000000
1.000000 0.890562 1.000000
0.000000 0.960952 0.877485
0.000000 0.954162 0.882612
0.104387 0.947387 0.887739
0.237354 0.940597 0.892882
0.370306 0.933822 0.898009
0.516518 0.940551 0.916457
0.687404 0.962478 0.949676
0.862287 0.985489 0.983993
0.990021 1.000000 1.000000
