app/src/main/assets/lut_presets/#U9ad8#U7ea7#U8d28#U611f.cube
TITLE "Generated by Resolve (33)"
# Resampled from 65 to 33 by scripts/resample_cube_luts.py
# Source: 高级质感.cube
LUT_3D_SIZE 33
0.019440 0.007752 0.032074
0.053727 0.006317 0.033448
0.087999 0.004837 0.034791
0.122179 0.003296 0.036072
0.156252 0.001572 0.037186
0.190234 0.000000 0.038117
0.224109 0.000000 0.038880
0.257862 0.000000 0.039460
0.291524 0.000000 0.039872
0.325078 0.000000 0.040116
0.358557 0.000000 0.040238
0.391974 0.000000 0.040253
0.425361 0.000000 0.040177
0.458747 0.000000 0.040085
0.492195 0.000000 0.039994
0.525750 0.000000 0.039979
0.559442 0.000000 0.040070
0.593240 0.000000 0.040238
0.627054 0.000000 0.040406
0.660868 0.000000 0.040574
0.694697 0.000000 0.040772
0.728527 0.000000 0.040970
0.762356 0.000000 0.041199
0.796338 0.000000 0.041199
0.830274 0.000000 0.041459
0.864134 0.000000 0.041978
0.897993 0.000000 0.042527
0.931853 0.000000 0.043122
0.965728 0.000000 0.043778
0.999619 0.000000 0.044450
1.000000 0.000000 0.045182
1.000000 0.000000 0.045960
1.000000 0.000000 0.046784
0.008240 0.040955 0.027161
0.050233 0.038971 0.029160
0.085039 0.037491 0.031205
0.119554 0.035676 0.032029
0.153719 0.033692 0.032868
0.187625 0.031510 0.033570
0.221317 0.029129 0.034134
0.254826 0.026566 0.034516
0.288197 0.023819 0.034760
0.321492 0.020905 0.034821
0.354726 0.017853 0.034775
0.387915 0.014694 0.034638
0.421103 0.011459 0.034424
0.454307 0.008423 0.034424
0.487556 0.005264 0.034302
0.520943 0.002167 0.034287
0.554513 0.000000 0.034394
0.588281 0.000000 0.034699
0.622095 0.000000 0.035035
0.655909 0.000000 0.035401
0.689754 0.000000 0.035782
0.723613 0.000000 0.036194
0.757488 0.000000 0.036652
0.791363 0.000000 0.037140
0.825254 0.000000 0.037659
0.859144 0.000000 0.038239
0.893050 0.000000 0.038865
0.926970 0.000000 0.039521
0.960906 0.000000 0.040208
0.994842 0.000000 0.040955
1.000000 0.000000 0.041764
1.000000 0.000000 0.042603
1.000000 0.000000 0.043504
0.000000 0.074022 0.022095
0.042771 0.074281 0.024445
0.081132 0.070298 0.026352
0.116258 0.068833 0.028351
0.150637 0.066957 0.029999
0.184878 0.064637 0.030228
0.218738 0.062150 0.030457
0.252323 0.059434 0.030594
0.285695 0.056535 0.030610
0.318898 0.053452 0.030488
0.351965 0.050233 0.030259
0.384939 0.046906 0.029938
0.417868 0.043488 0.029557
0.450797 0.040055 0.029160
0.483787 0.036637 0.028809
0.516884 0.033295 0.028550
0.550164 0.030076 0.028412
0.583719 0.027054 0.028489
0.617426 0.024109 0.028656
0.651148 0.021149 0.028824
0.684916 0.018173 0.029023
0.718715 0.015198 0.029221
0.752529 0.012207 0.029450
0.786374 0.009232 0.029663
0.820233 0.006241 0.029908
0.854109 0.004410 0.031296
0.887984 0.002594 0.032715
0.921874 0.000000 0.033341
0.955764 0.000000 0.034012
0.989700 0.000000 0.034745
1.000000 0.000000 0.035508
1.000000 0.000000 0.036332
1.000000 0.000000 0.037186
0.000000 0.107164 0.016739
0.029511 0.109087 0.018113
0.076432 0.104631 0.023209
0.112245 0.101808 0.023728
0.147555 0.100404 0.025818
0.182086 0.098650 0.028275
0.216266 0.095918 0.028077
0.250034 0.093019 0.027726
0.283436 0.089891 0.027344
0.316594 0.086335 0.026886
0.349584 0.083146 0.026368
0.382452 0.079606 0.025788
0.415244 0.075975 0.025147
0.448020 0.072313 0.024506
0.480858 0.068666 0.023926
0.513787 0.065110 0.023438
0.546899 0.061677 0.023087
0.580270 0.058457 0.022980
0.613870 0.055436 0.023072
0.647501 0.052430 0.023209
0.681163 0.049424 0.023346
0.714839 0.046403 0.023514
0.748516 0.043412 0.023697
0.782223 0.040421 0.023896
0.815961 0.037430 0.024125
0.849729 0.034440 0.024369
0.883528 0.031449 0.024628
0.917357 0.028458 0.024918
0.951202 0.025483 0.025223
0.985092 0.022507 0.025559
1.000000 0.019547 0.025910
1.000000 0.016587 0.026307
1.000000 0.013626 0.026734
0.000000 0.140108 0.010956
0.015671 0.141146 0.011215
0.066133 0.140261 0.017380
0.108644 0.135882 0.021805
0.143603 0.133593 0.021424
0.179049 0.132265 0.023728
0.213809 0.130526 0.026291
0.247959 0.127825 0.026658
0.281712 0.124697 0.025757
0.314931 0.121279 0.024781
0.347845 0.117662 0.023774
0.380575 0.113909 0.022736
0.413199 0.110048 0.021729
0.445792 0.106126 0.020722
0.478416 0.102190 0.019806
0.511162 0.098283 0.019013
0.544060 0.094484 0.018387
0.577218 0.090868 0.017990
0.610697 0.087282 0.017899
0.644251 0.084031 0.017899
0.677852 0.080827 0.017929
0.711482 0.077653 0.018006
0.745113 0.074540 0.018097
0.778790 0.071458 0.018235
0.812467 0.068650 0.018387
0.846189 0.065599 0.018586
0.879927 0.062562 0.018799
0.913664 0.059556 0.019043
0.947448 0.056565 0.019318
0.981231 0.053590 0.019623
1.000000 0.050614 0.019974
1.000000 0.047654 0.020340
1.000000 0.044694 0.020737
0.000000 0.172534 0.004700
0.002045 0.173724 0.004639
0.052888 0.175341 0.012192
0.101564 0.170977 0.018509
0.140414 0.167636 0.020279
0.175265 0.165682 0.019471
0.210849 0.164446 0.022049
0.245777 0.162768 0.024781
0.280018 0.160250 0.026062
0.313771 0.156893 0.024674
0.346914 0.153216 0.023133
0.379614 0.149294 0.021531
0.412070 0.145235 0.019943
0.444450 0.141146 0.018433
0.476814 0.137057 0.017029
0.509285 0.133028 0.015778
0.541909 0.129152 0.014740
0.574792 0.125475 0.013962
0.608011 0.122087 0.013535
0.641428 0.118853 0.013306
0.674907 0.115618 0.013153
0.708415 0.112413 0.013031
0.741970 0.109178 0.012985
0.775570 0.105959 0.012970
0.809201 0.102708 0.013016
0.842863 0.099428 0.013107
0.876539 0.096147 0.013230
0.910246 0.092836 0.013382
0.943999 0.089235 0.013596
0.977752 0.085924 0.013840
1.000000 0.082643 0.014115
1.000000 0.079423 0.014420
1.000000 0.076249 0.014771
0.000000 0.204395 0.000000
0.000000 0.205661 0.000000
0.035904 0.206470 0.002625
0.090059 0.206119 0.013397
0.135134 0.202533 0.019883
0.172305 0.199771 0.018723
0.207263 0.198108 0.017914
0.242969 0.196979 0.020798
0.278050 0.195361 0.023728
0.312322 0.193057 0.026307
0.346151 0.189563 0.024445
0.379355 0.185733 0.022400
0.411933 0.181567 0.020249
0.444190 0.177218 0.018097
0.476295 0.172824 0.016053
0.508461 0.168505 0.014206
0.540749 0.164355 0.012589
0.573266 0.160418 0.011276
0.606134 0.156817 0.010346
0.639292 0.153475 0.009751
0.672557 0.150210 0.009277
0.705898 0.146990 0.008896
0.739315 0.143832 0.008621
0.772778 0.140688 0.008408
0.806287 0.137560 0.008255
0.839857 0.134447 0.008194
0.873457 0.131350 0.008179
0.907088 0.128252 0.008209
0.940749 0.125154 0.008286
0.974456 0.122042 0.008423
1.000000 0.118929 0.008591
1.000000 0.115801 0.008820
1.000000 0.112657 0.009079
0.000000 0.235660 0.000000
0.000000 0.236973 0.000000
0.019684 0.237156 0.000000
0.074845 0.239734 0.006973
0.125765 0.237385 0.016770
0.168276 0.234653 0.020996
0.204425 0.232273 0.017182
0.239612 0.230900 0.016739
0.275425 0.229862 0.019974
0.310628 0.228290 0.023117
0.345037 0.226062 0.025986
0.378866 0.222675 0.025010
0.412131 0.218738 0.022507
0.444739 0.214389 0.019852
0.476875 0.209812 0.017182
0.508797 0.205158 0.014603
0.540749 0.200595 0.012283
0.572854 0.196246 0.010269
0.605310 0.192279 0.008698
0.638086 0.188617 0.007538
0.671031 0.185122 0.006592
0.704112 0.181750 0.005814
0.737285 0.178470 0.005203
0.770565 0.175265 0.004700
0.803922 0.172122 0.004303
0.837324 0.169024 0.003998
0.870802 0.165957 0.003769
0.904326 0.162936 0.003632
0.937881 0.159915 0.003540
0.971496 0.156939 0.003525
1.000000 0.153964 0.003571
1.000000 0.150988 0.003677
1.000000 0.148013 0.003830
0.000000 0.266361 0.000000
0.000000 0.267674 0.000000
0.003449 0.268223 0.000000
0.055421 0.269932 0.000000
0.113268 0.271748 0.012619
0.160510 0.269352 0.020447
0.201328 0.267247 0.021958
0.236789 0.265126 0.015656
0.272282 0.264012 0.015961
0.308186 0.263066 0.019516
0.343481 0.261555 0.022888
0.378012 0.259358 0.025925
0.411856 0.256153 0.026307
0.445182 0.252110 0.023346
0.477882 0.247684 0.020234
0.510002 0.242939 0.017090
0.541848 0.238087 0.014054
0.573648 0.233326 0.011276
0.605646 0.228824 0.008881
0.637949 0.224674 0.006958
0.670512 0.220813 0.005402
0.703227 0.217105 0.004074
0.736080 0.213581 0.002976
0.769085 0.210163 0.002060
0.802182 0.206867 0.001297
0.835401 0.203647 0.000687
0.868681 0.200519 0.000183
0.902052 0.197436 0.000000
0.935485 0.194400 0.000000
0.968948 0.191440 0.000000
1.000000 0.188479 0.000000
1.000000 0.185550 0.000000
1.000000 0.182666 0.000000
0.000000 0.296529 0.000000
0.000000 0.297826 0.000000
0.000000 0.298634 0.000000
0.036805 0.299641 0.000000
0.094865 0.302846 0.001419
0.149248 0.303593 0.017929
0.194842 0.301900 0.023987
0.234470 0.300252 0.022843
0.269444 0.298299 0.014160
0.305257 0.297429 0.015518
0.341238 0.296559 0.019409
0.376608 0.295079 0.022995
0.411215 0.292897 0.026184
0.445029 0.289891 0.028275
0.478370 0.285710 0.024811
0.511223 0.281285 0.021286
0.543420 0.276448 0.017701
0.575265 0.271458 0.014221
0.607019 0.266560 0.011048
0.638926 0.261906 0.008286
0.671031 0.257527 0.005905
0.703319 0.253361 0.003876
0.735775 0.249409 0.002136
0.768460 0.245716 0.000717
0.801251 0.242145 0.000000
0.834195 0.238697 0.000000
0.867231 0.235370 0.000000
0.900374 0.232151 0.000000
0.933623 0.229007 0.000000
0.966934 0.225925 0.000000
1.000000 0.222934 0.000000
1.000000 0.219959 0.000000
1.000000 0.217060 0.000000
0.000000 0.326253 0.000000
0.000000 0.327489 0.000000
0.000000 0.328466 0.000000
0.018418 0.329244 0.000000
0.073320 0.332128 0.000000
0.134279 0.336492 0.012512
0.184955 0.336065 0.023728
0.228992 0.334951 0.027298
0.267750 0.333593 0.023636
0.302327 0.331762 0.012604
0.338476 0.331121 0.015396
0.374517 0.330266 0.019562
0.409934 0.328817 0.023346
0.444572 0.326635 0.026658
0.478416 0.323659 0.029435
0.511788 0.319570 0.026795
0.544656 0.315053 0.022828
0.576959 0.310185 0.018830
0.608865 0.305135 0.014954
0.640635 0.300130 0.011399
0.672465 0.295293 0.008225
0.704402 0.290684 0.005417
0.736477 0.286290 0.002945
0.768734 0.282124 0.000809
0.801175 0.278141 0.000000
0.833814 0.274403 0.000000
0.866545 0.270802 0.000000
0.899413 0.267338 0.000000
0.932418 0.263981 0.000000
0.965515 0.260731 0.000000
0.998703 0.257588 0.000000
1.000000 0.254505 0.000000
1.000000 0.251514 0.000000
0.000000 0.355627 0.000000
0.000000 0.356786 0.000000
0.000000 0.357824 0.000000
0.000000 0.358862 0.000000
0.052720 0.360906 0.000000
0.111925 0.365103 0.000000
0.171832 0.369543 0.021653
0.220249 0.369116 0.029328
0.263096 0.368383 0.030396
0.301167 0.367239 0.024292
0.335393 0.365454 0.010971
0.371908 0.364996 0.015488
0.407950 0.364157 0.019913
0.443351 0.362661 0.023835
0.478019 0.360449 0.027253
0.511864 0.357443 0.030076
0.545159 0.353460 0.029145
0.577981 0.348775 0.024674
0.610468 0.343954 0.020295
0.642481 0.338872 0.016053
0.674327 0.333822 0.012146
0.706127 0.328862 0.008591
0.737972 0.324086 0.005386
0.769924 0.319493 0.002533
0.801999 0.315114 0.000000
0.834257 0.310933 0.000000
0.866651 0.306950 0.000000
0.899199 0.303136 0.000000
0.931945 0.299550 0.000000
0.964767 0.296056 0.000000
0.997726 0.292683 0.000000
1.000000 0.289418 0.000000
1.000000 0.286244 0.000000
0.000000 0.384802 0.000000
0.000000 0.385809 0.000000
0.000000 0.386847 0.000000
0.000000 0.388022 0.000000
0.032471 0.389487 0.000000
0.089418 0.393484 0.000000
0.151797 0.399298 0.008179
0.208301 0.402594 0.029267
0.255329 0.402594 0.034668
0.297169 0.402121 0.033204
0.334691 0.401068 0.024765
0.368688 0.399313 0.009689
0.405417 0.398978 0.015732
0.441428 0.398093 0.020340
0.476799 0.396536 0.024369
0.511421 0.394232 0.027802
0.545251 0.391150 0.030640
0.578393 0.387243 0.031708
0.611215 0.382452 0.026688
0.643793 0.377584 0.021927
0.676005 0.372610 0.017410
0.707973 0.367559 0.013184
0.739818 0.362539 0.009293
0.771634 0.357656 0.005737
0.803510 0.352911 0.002518
0.835477 0.348348 0.000000
0.867582 0.343984 0.000000
0.899825 0.339803 0.000000
0.932189 0.335805 0.000000
0.964721 0.331975 0.000000
0.997452 0.328359 0.000000
1.000000 0.324849 0.000000
1.000000 0.321462 0.000000
0.000000 0.413962 0.000000
0.000000 0.414755 0.000000
0.000000 0.415686 0.000000
0.000000 0.416907 0.000000
0.012451 0.418509 0.000000
0.067185 0.421530 0.000000
0.128328 0.426978 0.000000
0.192676 0.434806 0.025605
0.244404 0.436103 0.036698
0.290242 0.436393 0.039612
0.331243 0.436057 0.035676
0.368246 0.435019 0.024948
0.402289 0.433341 0.009796
0.438941 0.432959 0.015991
0.474861 0.431983 0.020706
0.510140 0.430289 0.024781
0.544656 0.427863 0.028199
0.578393 0.424659 0.030976
0.611399 0.420706 0.033158
0.644297 0.415976 0.028794
0.676921 0.411093 0.023697
0.709407 0.406287 0.018952
0.741558 0.401282 0.014466
0.773510 0.396262 0.010285
0.805371 0.391318 0.006409
0.837201 0.386465 0.002853
0.869108 0.381781 0.000000
0.901122 0.377249 0.000000
0.933211 0.372900 0.000000
0.965454 0.368734 0.000000
0.997833 0.364736 0.000000
1.000000 0.360891 0.000000
1.000000 0.357198 0.000000
0.000000 0.443290 0.000000
0.000000 0.443809 0.000000
0.000000 0.444556 0.000000
0.000000 0.445701 0.000000
0.000000 0.447318 0.000000
0.045624 0.449561 0.000000
0.104509 0.454520 0.000000
0.168566 0.461799 0.003754
0.230488 0.468925 0.036652
0.280278 0.469978 0.043610
0.325002 0.470390 0.044038
0.365240 0.470069 0.037705
0.401740 0.468956 0.024750
0.435813 0.467308 0.009842
0.472343 0.466804 0.016144
0.508110 0.465675 0.020905
0.543236 0.463813 0.024933
0.577585 0.461189 0.028260
0.611215 0.457847 0.030945
0.644312 0.453941 0.033219
0.677241 0.449439 0.031037
0.709957 0.444556 0.025650
0.742641 0.439811 0.020615
0.775036 0.434974 0.015915
0.807126 0.429999 0.011475
0.839078 0.425025 0.007324
0.870970 0.420127 0.003494
0.902831 0.415320 0.000000
0.934768 0.410697 0.000000
0.966796 0.406195 0.000000
0.998932 0.401877 0.000000
1.000000 0.397711 0.000000
1.000000 0.393713 0.000000
0.000000 0.473045 0.000000
0.000000 0.473182 0.000000
0.000000 0.473640 0.000000
0.000000 0.474617 0.000000
0.000000 0.476127 0.000000
0.024460 0.478340 0.000000
0.080217 0.482063 0.000000
0.144167 0.488746 0.000000
0.209674 0.497856 0.022187
0.267384 0.502892 0.045502
0.315831 0.504051 0.049958
0.359533 0.504448 0.047837
0.399069 0.504036 0.039170
0.435065 0.502754 0.024048
0.469123 0.501060 0.009720
0.505455 0.500374 0.016022
0.541024 0.499031 0.020737
0.575921 0.496910 0.024659
0.610178 0.494179 0.027939
0.643915 0.490898 0.030777
0.677165 0.487114 0.033204
0.710094 0.482811 0.033448
0.743023 0.478050 0.027756
0.775769 0.473304 0.022461
0.808392 0.468589 0.017548
0.840665 0.463691 0.012848
0.872740 0.458747 0.008453
0.904692 0.453834 0.004364
0.936599 0.448981 0.000565
0.968505 0.444221 0.000000
1.000000 0.439643 0.000000
1.000000 0.435187 0.000000
1.000000 0.430884 0.000000
0.000000 0.503487 0.000000
0.000000 0.503166 0.000000
0.000000 0.503227 0.000000
0.000000 0.503899 0.000000
0.000000 0.505196 0.000000
0.003601 0.507225 0.000000
0.057923 0.510109 0.000000
0.119448 0.515801 0.000000
0.184848 0.524239 0.000000
0.251362 0.534951 0.044556
0.303761 0.537057 0.053559
0.351064 0.538155 0.055482
0.393790 0.538415 0.050889
0.432624 0.537804 0.039948
0.468055 0.536263 0.022721
0.502083 0.534463 0.009277
0.538140 0.533501 0.015473
0.573510 0.531945 0.020142
0.608377 0.529809 0.024125
0.642725 0.527123 0.027573
0.676570 0.523934 0.030549
0.709957 0.520241 0.033112
0.742885 0.516106 0.035325
0.775982 0.511467 0.029984
0.808759 0.506691 0.024430
0.841566 0.502052 0.019211
0.874098 0.497322 0.014359
0.906325 0.492439 0.009735
0.938384 0.487541 0.005402
0.970367 0.482673 0.001373
1.000000 0.477882 0.000000
1.000000 0.473182 0.000000
1.000000 0.468650 0.000000
0.000000 0.534356 0.000000
0.000000 0.533867 0.000000
0.000000 0.533578 0.000000
0.000000 0.533837 0.000000
0.000000 0.534768 0.000000
0.000000 0.536492 0.000000
0.036118 0.539147 0.000000
0.094225 0.543175 0.000000
0.159838 0.550820 0.000000
0.226184 0.560830 0.018631
0.289067 0.569528 0.055344
0.339788 0.571252 0.060792
0.385855 0.572137 0.060060
0.427649 0.572137 0.053025
0.465751 0.571221 0.039902
0.500587 0.569314 0.020661
0.534585 0.567407 0.008392
0.570565 0.566354 0.014649
0.605936 0.564797 0.019455
0.640848 0.562676 0.023590
0.675258 0.560052 0.027161
0.709194 0.556939 0.030259
0.742687 0.553338 0.032960
0.775769 0.549294 0.035279
0.808835 0.544823 0.032319
0.841749 0.540093 0.026490
0.874647 0.535485 0.021042
0.907423 0.530892 0.016007
0.939818 0.526101 0.011154
0.972015 0.521248 0.006622
1.000000 0.516396 0.002365
1.000000 0.511574 0.000000
1.000000 0.506844 0.000000
0.000000 0.565209 0.000000
0.000000 0.564660 0.000000
0.000000 0.564309 0.000000
0.000000 0.564416 0.000000
0.000000 0.565072 0.000000
0.000000 0.566415 0.000000
0.014801 0.568658 0.000000
0.069444 0.571908 0.000000
0.134661 0.577829 0.000000
0.200992 0.586969 0.000000
0.267964 0.598321 0.041245
0.325933 0.603800 0.064134
0.375280 0.605280 0.066850
0.420127 0.605814 0.063508
0.460990 0.605463 0.054154
0.498436 0.604242 0.039033
0.532860 0.602121 0.018082
0.567041 0.600290 0.007462
0.602975 0.599207 0.013825
0.638361 0.597635 0.018769
0.673289 0.595544 0.023026
0.707774 0.592966 0.026703
0.741802 0.589914 0.029923
0.775387 0.586389 0.032731
0.808576 0.582452 0.035157
0.841611 0.578103 0.034760
0.874723 0.573480 0.028641
0.907622 0.568841 0.022965
0.940520 0.564294 0.017639
0.973190 0.559686 0.012680
1.000000 0.554910 0.007950
1.000000 0.550103 0.003494
1.000000 0.545296 0.000000
0.000000 0.596033 0.000000
0.000000 0.595438 0.000000
0.000000 0.595026 0.000000
0.000000 0.595041 0.000000
0.000000 0.595575 0.000000
0.000000 0.596735 0.000000
0.000000 0.598672 0.000000
0.047440 0.601480 0.000000
0.109102 0.605493 0.000000
0.175753 0.613596 0.000000
0.242557 0.624033 0.015213
0.309697 0.636179 0.065889
0.362188 0.638010 0.071626
0.410224 0.639078 0.071748
0.454002 0.639292 0.066026
0.494118 0.638666 0.054658
0.531044 0.637201 0.037797
0.565072 0.634913 0.015274
0.599481 0.633158 0.006546
0.635386 0.632044 0.013001
0.670771 0.630488 0.018067
0.705745 0.628412 0.022431
0.740276 0.625864 0.026230
0.774365 0.622873 0.029526
0.808057 0.619425 0.032425
0.841367 0.615564 0.034958
0.874311 0.611307 0.037156
0.907591 0.606806 0.030869
0.940490 0.602121 0.024964
0.973571 0.597696 0.019425
1.000000 0.593149 0.014267
1.000000 0.588525 0.009369
1.000000 0.583764 0.004730
0.000000 0.626841 0.000000
0.000000 0.626184 0.000000
0.000000 0.625711 0.000000
0.000000 0.625650 0.000000
0.000000 0.626078 0.000000
0.000000 0.627070 0.000000
0.000000 0.628763 0.000000
0.025437 0.631327 0.000000
0.082521 0.634821 0.000000
0.150286 0.640635 0.000000
0.217136 0.650111 0.000000
0.284230 0.661707 0.037629
0.346960 0.670604 0.075013
0.398016 0.672084 0.078096
0.444831 0.672786 0.075761
0.487663 0.672709 0.067887
0.527138 0.671824 0.054673
0.563592 0.670161 0.036225
0.597299 0.667674 0.012238
0.631922 0.666041 0.005631
0.667796 0.664897 0.012192
0.703182 0.663325 0.017350
0.738170 0.661265 0.021805
0.772747 0.658747 0.025696
0.806912 0.655802 0.029084
0.840696 0.652430 0.032074
0.874083 0.648646 0.034684
0.907149 0.644480 0.036957
0.940368 0.640055 0.033188
0.973449 0.635477 0.027024
1.000000 0.630991 0.021286
1.000000 0.626551 0.015900
1.000000 0.622080 0.010880
0.000000 0.657603 0.000000
0.000000 0.656901 0.000000
0.000000 0.656397 0.000000
0.000000 0.656229 0.000000
0.000000 0.656565 0.000000
0.000000 0.657420 0.000000
0.000000 0.658915 0.000000
0.003540 0.661173 0.000000
0.057237 0.664271 0.000000
0.124208 0.668528 0.000000
0.191562 0.676555 0.000000
0.258625 0.687282 0.011536
0.326101 0.699916 0.062776
0.383581 0.704921 0.082811
0.433433 0.706050 0.083558
0.479149 0.706432 0.078965
0.521187 0.706065 0.069154
0.560067 0.704952 0.054261
0.596094 0.703075 0.034333
0.629450 0.700435 0.009018
0.664363 0.698909 0.004730
0.700191 0.697734 0.011368
0.735592 0.696162 0.016617
0.770611 0.694102 0.021164
0.805219 0.691630 0.025132
0.839445 0.688731 0.028595
0.873289 0.685405 0.031647
0.906783 0.681697 0.034333
0.939925 0.677623 0.036667
0.973053 0.673243 0.035538
1.000000 0.668772 0.029129
1.000000 0.664225 0.023194
1.000000 0.659907 0.017624
0.000000 0.688334 0.000000
0.000000 0.687602 0.000000
0.000000 0.687037 0.000000
0.000000 0.686793 0.000000
0.000000 0.687053 0.000000
0.000000 0.687770 0.000000
0.000000 0.689082 0.000000
0.000000 0.691096 0.000000
0.034363 0.693904 0.000000
0.097047 0.697704 0.000000
0.165560 0.703349 0.000000
0.232944 0.713146 0.000000
0.300191 0.725032 0.033539
0.367117 0.737728 0.086259
0.419852 0.739162 0.089616
0.468498 0.739940 0.088075
0.513268 0.740017 0.081453
0.554589 0.739391 0.069871
0.592920 0.738064 0.053468
0.628550 0.735988 0.032197
0.661616 0.733166 0.005615
0.696803 0.731777 0.003845
0.732601 0.730571 0.010529
0.768002 0.728985 0.015869
0.803021 0.726955 0.020478
0.837690 0.724498 0.024521
0.871946 0.721630 0.028061
0.905852 0.718379 0.031174
0.939437 0.714733 0.033921
0.972671 0.710735 0.036317
1.000000 0.706371 0.037949
1.000000 0.702007 0.031281
1.000000 0.697475 0.025132
0.000000 0.719051 0.000000
0.000000 0.718273 0.000000
0.000000 0.717662 0.000000
0.000000 0.717327 0.000000
0.000000 0.717525 0.000000
0.000000 0.718135 0.000000
0.000000 0.719280 0.000000
0.000000 0.721080 0.000000
0.011475 0.723629 0.000000
0.068208 0.727001 0.000000
0.139055 0.731487 0.000000
0.206943 0.739361 0.000000
0.274388 0.750408 0.007385
0.341878 0.763348 0.057908
0.404227 0.772107 0.094209
0.455741 0.773297 0.095384
0.503288 0.773770 0.091753
0.547189 0.773556 0.083268
0.587869 0.772686 0.070100
0.625727 0.771130 0.052293
0.660975 0.768872 0.029801
0.693751 0.765881 0.002060
0.729229 0.764660 0.002945
0.764996 0.763409 0.009689
0.800381 0.761822 0.015091
0.835431 0.759793 0.019776
0.870130 0.757351 0.023880
0.904448 0.754528 0.027466
0.938415 0.751308 0.030640
0.972076 0.747723 0.033432
1.000000 0.743786 0.035889
1.000000 0.739513 0.038041
1.000000 0.735164 0.033494
0.000000 0.749722 0.000000
0.000000 0.748913 0.000000
0.000000 0.748257 0.000000
0.000000 0.747829 0.000000
0.000000 0.747967 0.000000
0.000000 0.748486 0.000000
0.000000 0.749493 0.000000
0.000000 0.751095 0.000000
0.000000 0.753384 0.000000
0.041779 0.756374 0.000000
0.111284 0.760510 0.000000
0.180499 0.765896 0.000000
0.248386 0.776059 0.000000
0.315816 0.788266 0.028870
0.383764 0.802228 0.084611
0.440833 0.806546 0.101045
0.491264 0.807355 0.100191
0.537850 0.807523 0.094652
0.580972 0.807050 0.084489
0.621073 0.805951 0.069871
0.658473 0.804181 0.050797
0.693370 0.801740 0.027176
0.725856 0.798581 0.000000
0.761685 0.797528 0.002075
0.797406 0.796246 0.008850
0.832792 0.794644 0.014298
0.867826 0.792630 0.019028
0.902556 0.790204 0.023179
0.936919 0.787411 0.026841
0.970947 0.784237 0.030045
1.000000 0.780713 0.032898
1.000000 0.776837 0.035386
1.000000 0.772641 0.037568
0.000000 0.780362 0.000000
0.000000 0.779522 0.000000
0.000000 0.778820 0.000000
0.000000 0.778332 0.000000
0.000000 0.778393 0.000000
0.000000 0.778820 0.000000
0.000000 0.779706 0.000000
0.000000 0.781140 0.000000
0.000000 0.783215 0.000000
0.017685 0.785992 0.000000
0.080736 0.789639 0.000000
0.153658 0.794339 0.000000
0.222004 0.802014 0.000000
0.289754 0.813413 0.002594
0.357427 0.826719 0.052461
0.424018 0.839780 0.105379
0.477195 0.840848 0.107164
0.526513 0.841352 0.104143
0.572183 0.841245 0.096849
0.614603 0.840528 0.085191
0.654185 0.839200 0.069245
0.691157 0.837217 0.048997
0.725719 0.834592 0.024353
0.757931 0.831250 0.000000
0.794095 0.830396 0.001175
0.829801 0.829068 0.007996
0.865171 0.827466 0.013489
0.900221 0.825452 0.018265
0.934981 0.823056 0.022461
0.969390 0.820279 0.026154
1.000000 0.817151 0.029419
1.000000 0.813672 0.032303
1.000000 0.809857 0.034836
0.000000 0.810971 0.000000
0.000000 0.810086 0.000000
0.000000 0.809354 0.000000
0.000000 0.808804 0.000000
0.000000 0.808774 0.000000
0.000000 0.809140 0.000000
0.000000 0.809918 0.000000
0.000000 0.811200 0.000000
0.000000 0.813077 0.000000
0.000000 0.815595 0.000000
0.050706 0.818875 0.000000
0.125429 0.823209 0.000000
0.195209 0.828443 0.000000
0.263523 0.838819 0.000000
0.331136 0.851392 0.023560
0.399161 0.865736 0.078096
0.461082 0.874296 0.112322
0.513207 0.875090 0.111986
0.561502 0.875288 0.107530
0.606363 0.874907 0.098405
0.648173 0.873960 0.085374
0.687236 0.872404 0.068223
0.723827 0.870237 0.046937
0.758053 0.867414 0.021347
0.790158 0.863996 0.000000
0.826535 0.863264 0.000290
